luts/1917.cube
LUT_3D_SIZE 6
0.000000 0.000000 0.000000
0.042778 0.029079 0.032599
0.184747 0.120398 0.127386
0.344781 0.246681 0.254085
0.475211 0.349016 0.354135
0.573440 0.428256 0.429972
0.017755 0.088007 0.019372
0.097015 0.097586 0.023107
0.253399 0.175102 0.150079
0.385854 0.284400 0.278650
0.501293 0.375249 0.372029
0.590981 0.446480 0.442595
0.107435 0.297066 0.060457
0.178120 0.303037 0.061742
0.337864 0.338377 0.089154
0.519099 0.390821 0.231470
0.605566 0.449373 0.389864
0.663545 0.502086 0.469726
0.240229 0.516409 0.157856
0.287173 0.519563 0.160417
0.410108 0.537567 0.173200
0.564335 0.561792 0.208372
0.715585 0.575715 0.270846
0.780674 0.588386 0.447164
0.347003 0.691585 0.288588
0.378114 0.693052 0.289947
0.474825 0.699232 0.295100
0.597822 0.717933 0.305617
0.738425 0.731309 0.329941
0.849982 0.719393 0.368424
0.451021 0.821904 0.420309
0.469777 0.822971 0.421011
0.536608 0.827134 0.424678
0.634476 0.835702 0.427716
0.742173 0.850100 0.432514
0.862635 0.859842 0.467523
0.008070 0.009992 0.032917
0.042058 0.032439 0.050596
0.179820 0.121323 0.140769
0.341073 0.249003 0.264689
0.471026 0.351067 0.361946
0.569588 0.428698 0.434642
0.020087 0.092763 0.095682
0.084602 0.100828 0.101507
0.219022 0.175716 0.181829
0.364693 0.278427 0.284286
0.488135 0.370764 0.374483
0.583255 0.445373 0.446054
0.075910 0.300236 0.141568
0.153696 0.305237 0.133226
0.335324 0.337898 0.162075
0.508723 0.388673 0.283216
0.591785 0.450342 0.409274
0.653806 0.504596 0.480620
0.215049 0.517677 0.212668
0.269660 0.520729 0.215372
0.403355 0.535908 0.227152
0.563116 0.561614 0.257961
0.713640 0.575270 0.316853
0.774935 0.590877 0.470288
0.339281 0.692065 0.322689
0.371529 0.693534 0.324268
0.471161 0.699316 0.330127
0.596644 0.717083 0.341127
0.737864 0.731539 0.363589
0.849950 0.720079 0.397048
0.452178 0.822282 0.441941
0.470891 0.823202 0.442998
0.537538 0.827317 0.446815
0.635406 0.835579 0.450932
0.742823 0.850035 0.455958
0.862546 0.859980 0.486987
0.036042 0.042881 0.132527
0.063479 0.058130 0.147970
0.175581 0.130907 0.190604
0.332978 0.250455 0.293819
0.466315 0.349949 0.382318
0.566346 0.429387 0.450658
0.087196 0.122052 0.190917
0.102336 0.127209 0.197324
0.213360 0.185451 0.230692
0.358015 0.283269 0.318698
0.483479 0.374064 0.399638
0.577299 0.447871 0.463680
0.088289 0.316493 0.318842
0.117661 0.323651 0.325808
0.323532 0.342207 0.347158
0.438153 0.402906 0.405978
0.540371 0.464610 0.464990
0.624663 0.521083 0.518399
0.169587 0.522928 0.381136
0.219415 0.524839 0.378549
0.373902 0.533590 0.378690
0.559007 0.561557 0.405677
0.699004 0.579761 0.464262
0.748793 0.607390 0.550956
0.316796 0.693519 0.436145
0.349590 0.694917 0.436864
0.457699 0.700149 0.444795
0.592648 0.713838 0.457260
0.735754 0.732199 0.475183
0.848665 0.724530 0.497236
0.447579 0.823214 0.510727
0.469801 0.824283 0.514697
0.542535 0.828104 0.526604
0.639214 0.835724 0.533676
0.746542 0.849348 0.538772
0.862514 0.860051 0.558341
0.090193 0.103488 0.272985
0.113911 0.112341 0.278924
0.224497 0.182581 0.308207
0.336174 0.265771 0.348173
0.462778 0.360901 0.422291
0.563242 0.435547 0.480067
0.144534 0.181423 0.308590
0.152588 0.179088 0.311045
0.245592 0.222009 0.334334
0.362990 0.301511 0.375496
0.481329 0.386158 0.441356
0.576616 0.455039 0.494203
0.255259 0.353998 0.425381
0.268232 0.359016 0.430614
0.337342 0.365788 0.428324
0.446639 0.421931 0.460356
0.540870 0.477903 0.506388
0.622124 0.529471 0.548107
0.229672 0.542266 0.538600
0.261553 0.545576 0.542135
0.381847 0.552845 0.550814
0.553969 0.567492 0.566249
0.634503 0.611317 0.606052
0.701798 0.647128 0.638988
0.294953 0.703779 0.574257
0.326866 0.704151 0.574695
0.437960 0.706490 0.579468
0.587063 0.713043 0.595113
0.730465 0.732534 0.613921
0.837179 0.738427 0.641525
0.430942 0.827044 0.607680
0.453571 0.827687 0.610266
0.534232 0.830697 0.621929
0.648232 0.837058 0.645759
0.752575 0.848318 0.652696
0.861752 0.860094 0.661803
0.161070 0.179238 0.393865
0.175450 0.180580 0.395904
0.255799 0.227064 0.414026
0.381511 0.313421 0.449901
0.477286 0.383864 0.482535
0.568205 0.453587 0.526991
0.204269 0.240111 0.419064
0.208578 0.235713 0.419529
0.265479 0.255469 0.429958
0.397295 0.340339 0.466549
0.495791 0.410333 0.501486
0.581653 0.474329 0.541324
0.312837 0.385355 0.499024
0.318104 0.385521 0.499561
0.352855 0.389579 0.503716
0.462462 0.442227 0.527064
0.553642 0.499276 0.559759
0.627198 0.547471 0.590650
0.391041 0.546620 0.614527
0.406158 0.547786 0.615301
0.472966 0.555421 0.615330
0.565245 0.583125 0.620649
0.642563 0.624287 0.644437
0.702410 0.658015 0.669509
0.367968 0.713542 0.702704
0.390867 0.715132 0.704293
0.477826 0.719496 0.709652
0.601836 0.724907 0.716057
0.725871 0.735417 0.725460
0.786502 0.767166 0.752497
0.426100 0.837177 0.717872
0.448398 0.837584 0.719238
0.527959 0.839350 0.725183
0.641627 0.842727 0.736852
0.756191 0.848664 0.751448
0.860437 0.860173 0.758506
0.221187 0.240948 0.487944
0.229787 0.239462 0.488360
0.292285 0.273291 0.499412
0.401078 0.344073 0.526800
0.500725 0.415212 0.554786
0.587435 0.481177 0.586901
0.253539 0.286693 0.505577
0.257852 0.282844 0.505270
0.304686 0.300103 0.512189
0.413093 0.367227 0.538187
0.512672 0.435784 0.566170
0.598814 0.499706 0.598356
0.344341 0.406978 0.562709
0.349002 0.405966 0.562672
0.379639 0.412357 0.566055
0.471580 0.459349 0.585168
0.563881 0.516765 0.611568
0.641804 0.568613 0.640371
0.443258 0.543630 0.647233
0.451498 0.544583 0.647085
0.494670 0.556288 0.649128
0.573015 0.592991 0.664377
0.649997 0.635054 0.683800
0.712329 0.671946 0.706466
0.500277 0.688500 0.745896
0.512769 0.690216 0.746741
0.568436 0.698769 0.749413
0.657765 0.717603 0.753142
0.737704 0.746863 0.761130
0.788881 0.773021 0.775934
0.489694 0.840446 0.818014
0.506453 0.841147 0.818813
0.569936 0.843951 0.821732
0.666679 0.848116 0.826637
0.766060 0.853700 0.832944
0.856251 0.860504 0.838999
