luts/1917.cube
LUT_3D_SIZE 16
0.000000 0.000000 0.000000
0.004262 0.003334 0.004119
0.018007 0.012867 0.014961
0.042778 0.029079 0.032599
0.078604 0.051696 0.056510
0.127954 0.081842 0.087861
0.184747 0.120398 0.127386
0.240493 0.164264 0.172013
0.294288 0.207083 0.214788
0.344781 0.246681 0.254085
0.392181 0.283855 0.290578
0.436035 0.318233 0.324136
0.475211 0.349016 0.354135
0.510800 0.377467 0.381447
0.543134 0.403391 0.406410
0.573440 0.428256 0.429972
0.002078 0.011300 0.003488
0.009469 0.011931 0.004014
0.026771 0.018583 0.017994
0.050293 0.034395 0.036433
0.085421 0.056747 0.060322
0.134198 0.086713 0.091566
0.189417 0.125036 0.130962
0.244254 0.168461 0.175208
0.297101 0.210101 0.217124
0.347443 0.249558 0.256271
0.394289 0.286105 0.292295
0.437915 0.320349 0.325676
0.476849 0.350842 0.355492
0.512240 0.379073 0.382649
0.544521 0.404991 0.407568
0.574777 0.429734 0.431038
0.007334 0.041484 0.010367
0.014796 0.042006 0.010426
0.042545 0.044426 0.011815
0.081605 0.053744 0.031740
0.117538 0.075007 0.066051
0.162090 0.105539 0.101897
0.211395 0.144592 0.143574
0.261714 0.185332 0.186909
0.311768 0.224770 0.227572
0.359153 0.261608 0.264974
0.404504 0.296761 0.300019
0.446473 0.329354 0.332155
0.484389 0.359067 0.361314
0.518945 0.386325 0.387826
0.550822 0.411856 0.412378
0.580218 0.435655 0.435225
0.017755 0.088007 0.019372
0.025368 0.088465 0.019390
0.053221 0.090783 0.019940
0.097015 0.097586 0.023107
0.160247 0.112181 0.039256
0.209118 0.139100 0.095074
0.253399 0.175102 0.150079
0.297944 0.212714 0.198677
0.342870 0.249675 0.240913
0.385854 0.284400 0.278650
0.427327 0.317198 0.312944
0.465732 0.347347 0.343914
0.501293 0.375249 0.372029
0.533778 0.400824 0.397579
0.563311 0.424212 0.420728
0.590981 0.446480 0.442595
0.037598 0.151295 0.030687
0.044558 0.151723 0.030730
0.070587 0.153979 0.031089
0.114002 0.160692 0.032730
0.172524 0.172940 0.039282
0.243253 0.193243 0.050643
0.301546 0.217961 0.117924
0.346908 0.248187 0.189973
0.387739 0.280639 0.243621
0.425978 0.312518 0.286908
0.462252 0.342684 0.323481
0.496211 0.370797 0.355639
0.527531 0.396283 0.383581
0.556108 0.419392 0.408358
0.582898 0.441112 0.431046
0.607853 0.461458 0.451959
0.067033 0.222587 0.044096
0.073483 0.223053 0.044137
0.098762 0.224864 0.044386
0.141995 0.229745 0.045300
0.194180 0.240873 0.049501
0.254342 0.255216 0.060561
0.326376 0.276941 0.075661
0.390089 0.297145 0.131996
0.436582 0.320674 0.216115
0.474021 0.346544 0.277032
0.506524 0.372635 0.323486
0.536047 0.397681 0.360586
0.563062 0.420868 0.391491
0.587473 0.441925 0.417658
0.610412 0.461654 0.440906
0.632166 0.480243 0.461792
0.107435 0.297066 0.060457
0.113838 0.297558 0.060500
0.138834 0.299392 0.060864
0.178120 0.303037 0.061742
0.225208 0.312019 0.064236
0.278195 0.325337 0.073071
0.337864 0.338377 0.089154
0.407397 0.358077 0.107952
0.471697 0.373923 0.144289
0.519099 0.390821 0.231470
0.554205 0.409861 0.300070
0.582092 0.429908 0.351140
0.605566 0.449373 0.389864
0.626254 0.467830 0.421097
0.645435 0.485364 0.447048
0.663545 0.502086 0.469726
0.154968 0.372878 0.083474
0.160526 0.373281 0.083553
0.181733 0.374834 0.083907
0.216578 0.377955 0.084976
0.259270 0.384088 0.087675
0.307668 0.395780 0.094889
0.360513 0.407838 0.107835
0.418479 0.418316 0.125467
0.483780 0.434245 0.146505
0.545423 0.446219 0.166591
0.593061 0.457261 0.242101
0.626435 0.469867 0.315712
0.650398 0.483673 0.371325
0.669393 0.497970 0.412827
0.685576 0.512513 0.445686
0.700443 0.526888 0.472495
0.199491 0.446725 0.116501
0.204106 0.447032 0.116632
0.222257 0.448387 0.117317
0.253316 0.450689 0.118887
0.292688 0.455187 0.121491
0.337257 0.463840 0.126786
0.386133 0.475390 0.137065
0.438044 0.484794 0.150591
0.494041 0.492680 0.167112
0.554717 0.505070 0.186715
0.611626 0.513493 0.202637
0.658425 0.519175 0.253647
0.689962 0.525756 0.327083
0.711540 0.534115 0.386379
0.727609 0.544203 0.431272
0.740826 0.555325 0.466379
0.240229 0.516409 0.157856
0.244092 0.516695 0.158055
0.259651 0.517639 0.158825
0.287173 0.519563 0.160417
0.323352 0.522621 0.162929
0.364904 0.528484 0.166695
0.410108 0.537567 0.173200
0.458671 0.547680 0.182685
0.510042 0.555473 0.194245
0.564335 0.561792 0.208372
0.619889 0.570160 0.225814
0.671259 0.574748 0.242103
0.715585 0.575715 0.270846
0.745885 0.577364 0.338725
0.766338 0.581753 0.400061
0.780674 0.588386 0.447164
0.277234 0.580587 0.201206
0.280535 0.580790 0.201377
0.294045 0.581486 0.202090
0.318357 0.582896 0.203429
0.351456 0.585163 0.205535
0.390392 0.588964 0.208176
0.432834 0.595645 0.211900
0.478059 0.604389 0.217986
0.526080 0.613448 0.226287
0.576534 0.619793 0.236254
0.628525 0.624775 0.249134
0.678685 0.628871 0.265664
0.724493 0.629361 0.280749
0.765824 0.627046 0.296909
0.795732 0.625771 0.353529
0.815257 0.626830 0.412440
0.312586 0.639046 0.244834
0.315356 0.639200 0.244991
0.327027 0.639872 0.245487
0.348578 0.640817 0.246490
0.378639 0.642500 0.248135
0.414688 0.645389 0.250262
0.454401 0.649569 0.252826
0.496609 0.656337 0.256505
0.540881 0.664629 0.262160
0.587631 0.672371 0.269383
0.636795 0.678033 0.278483
0.686595 0.681472 0.290177
0.731172 0.680975 0.304042
0.772514 0.678611 0.319071
0.810838 0.674856 0.330739
0.839720 0.671163 0.370600
0.347003 0.691585 0.288588
0.349489 0.691550 0.288641
0.359358 0.692033 0.289076
0.378114 0.693052 0.289947
0.404937 0.694385 0.291254
0.437755 0.696320 0.293021
0.474825 0.699232 0.295100
0.514286 0.703973 0.297378
0.555175 0.710502 0.300761
0.597822 0.717933 0.305617
0.642720 0.724596 0.312136
0.690643 0.729180 0.320187
0.738425 0.731309 0.329941
0.778708 0.728272 0.343175
0.816196 0.724743 0.358085
0.849982 0.719393 0.368424
0.381590 0.738711 0.332701
0.383601 0.738781 0.332792
0.391972 0.739270 0.333161
0.408193 0.739989 0.333830
0.431640 0.741076 0.334953
0.461162 0.742543 0.336490
0.494982 0.744607 0.338242
0.531571 0.748105 0.340156
0.569686 0.752571 0.342037
0.608836 0.758958 0.344925
0.649701 0.765404 0.348991
0.693205 0.771236 0.354095
0.739716 0.775559 0.360680
0.785366 0.777314 0.370678
0.821853 0.772804 0.384062
0.854476 0.767761 0.396952
0.416678 0.781520 0.376568
0.418277 0.781501 0.376683
0.425500 0.781877 0.377097
0.439066 0.782557 0.377678
0.459297 0.783538 0.378748
0.485191 0.784945 0.380032
0.515648 0.786784 0.381713
0.549163 0.789370 0.383486
0.584562 0.792960 0.385030
0.620972 0.797725 0.386396
0.658442 0.803342 0.388025
0.697933 0.809293 0.390675
0.739873 0.814303 0.395129
0.784896 0.818463 0.402410
0.827916 0.820051 0.415100
0.859193 0.814354 0.427610
0.451021 0.821904 0.420309
0.452396 0.822147 0.420209
0.458267 0.822381 0.420484
0.469777 0.822971 0.421011
0.487063 0.824068 0.421882
0.509643 0.825394 0.423153
0.536608 0.827134 0.424678
0.567253 0.829289 0.426154
0.600251 0.832075 0.427200
0.634476 0.835702 0.427716
0.669452 0.840187 0.428358
0.705095 0.845367 0.429653
0.742173 0.850100 0.432514
0.780919 0.854226 0.437908
0.822274 0.857687 0.448209
0.862635 0.859842 0.467523
0.001081 0.001437 0.005206
0.004583 0.003990 0.006897
0.017354 0.013067 0.016392
0.041760 0.029337 0.033804
0.077734 0.051744 0.057394
0.126925 0.081587 0.088431
0.183921 0.119932 0.127730
0.239975 0.163983 0.172477
0.293882 0.206839 0.215200
0.344510 0.246536 0.254563
0.391952 0.283715 0.291027
0.435539 0.317953 0.324337
0.474868 0.348865 0.354388
0.510060 0.377000 0.381476
0.542425 0.403052 0.406421
0.572902 0.427992 0.430059
0.002392 0.011902 0.012610
0.008836 0.012528 0.012641
0.023630 0.019623 0.021883
0.047927 0.034801 0.038219
0.083691 0.056828 0.061432
0.132293 0.086322 0.092124
0.187994 0.124358 0.131189
0.242921 0.167667 0.175219
0.295986 0.209292 0.217001
0.346272 0.248760 0.256100
0.393193 0.285300 0.292109
0.436915 0.319652 0.325531
0.475933 0.350275 0.355384
0.511533 0.378690 0.382710
0.543902 0.404671 0.407616
0.574167 0.429456 0.431122
0.006754 0.042345 0.018523
0.013282 0.042906 0.018085
0.041296 0.044891 0.018792
0.079919 0.054158 0.037321
0.114764 0.075422 0.069430
0.159468 0.105630 0.103915
0.209402 0.144338 0.144766
0.259830 0.184749 0.187375
0.310241 0.224124 0.227756
0.357757 0.260928 0.265034
0.403240 0.296059 0.299980
0.445341 0.328729 0.332100
0.483429 0.358545 0.361319
0.518163 0.385952 0.387906
0.550079 0.411559 0.412475
0.579616 0.435436 0.435369
0.015814 0.088761 0.026645
0.022844 0.089255 0.026190
0.051293 0.091361 0.026767
0.096338 0.097728 0.029763
0.159339 0.112133 0.046420
0.207166 0.139186 0.100102
0.251231 0.175204 0.153465
0.295781 0.212544 0.200492
0.340893 0.249355 0.241947
0.384179 0.284023 0.279328
0.425932 0.316819 0.313324
0.464419 0.346909 0.344196
0.500172 0.374920 0.372272
0.532824 0.400533 0.397763
0.562553 0.424020 0.420966
0.590339 0.446359 0.442853
0.034828 0.151845 0.036257
0.041896 0.152336 0.036340
0.068563 0.154451 0.036926
0.112958 0.160868 0.039074
0.172094 0.172937 0.045667
0.242889 0.193001 0.057611
0.300388 0.217748 0.124358
0.345322 0.248060 0.193848
0.385866 0.280503 0.245948
0.424352 0.312373 0.288335
0.460692 0.342511 0.324542
0.494871 0.370551 0.356317
0.526347 0.396109 0.384157
0.555100 0.419316 0.408813
0.582079 0.441050 0.431460
0.607211 0.461424 0.452329
0.064767 0.222960 0.048980
0.071351 0.223401 0.048985
0.097061 0.225203 0.049302
0.140765 0.229906 0.050719
0.193567 0.240832 0.055463
0.254036 0.255128 0.066687
0.326178 0.276737 0.081682
0.389427 0.296815 0.138667
0.435617 0.320507 0.220043
0.472730 0.346358 0.279651
0.505294 0.372560 0.325162
0.534860 0.397634 0.361898
0.561938 0.420809 0.392423
0.586484 0.441905 0.418397
0.609500 0.461708 0.441561
0.631443 0.480297 0.462372
0.105211 0.297373 0.065355
0.111660 0.297731 0.065449
0.137111 0.299587 0.065793
0.177068 0.303210 0.066598
0.224386 0.311872 0.069712
0.277735 0.325270 0.078902
0.337622 0.338228 0.094965
0.407167 0.357941 0.113660
0.471397 0.373705 0.150600
0.518450 0.390599 0.235418
0.553258 0.409752 0.302805
0.581140 0.429831 0.353096
0.604617 0.449449 0.391369
0.625249 0.467860 0.422235
0.644636 0.485465 0.447964
0.662664 0.502224 0.470509
0.152734 0.373094 0.088733
0.158456 0.373518 0.088807
0.180012 0.375061 0.089257
0.215268 0.378126 0.090509
0.258344 0.384051 0.093375
0.307058 0.395736 0.100370
0.360245 0.407844 0.113326
0.418223 0.418216 0.130964
0.483718 0.434190 0.151760
0.545302 0.446087 0.171502
0.592648 0.457123 0.246007
0.625655 0.469721 0.318726
0.649643 0.483640 0.373360
0.668678 0.498064 0.414393
0.684885 0.512633 0.447031
0.699807 0.527052 0.473525
0.197596 0.447003 0.121487
0.202265 0.447279 0.121676
0.220650 0.448512 0.122459
0.251947 0.450898 0.124201
0.291691 0.455326 0.127130
0.336446 0.463629 0.132713
0.385585 0.475291 0.142145
0.437844 0.484779 0.155583
0.493907 0.492659 0.171817
0.554630 0.505035 0.191030
0.611550 0.513341 0.206512
0.658222 0.519078 0.257511
0.689608 0.525746 0.329962
0.711021 0.534172 0.388495
0.727146 0.544340 0.432920
0.740221 0.555547 0.467804
0.238529 0.516630 0.162478
0.242453 0.516784 0.162589
0.258126 0.517742 0.163447
0.285912 0.519599 0.165073
0.322369 0.522636 0.167685
0.364300 0.528402 0.171560
0.409530 0.537437 0.177887
0.458410 0.547592 0.186839
0.509826 0.555423 0.198221
0.564239 0.561758 0.212293
0.619769 0.570089 0.229566
0.671282 0.574729 0.245492
0.715502 0.575665 0.274343
0.745588 0.577376 0.341605
0.766017 0.581828 0.402100
0.780234 0.588498 0.448883
0.275921 0.580689 0.204955
0.279242 0.580891 0.205122
0.292834 0.581553 0.205791
0.317330 0.582928 0.207178
0.350680 0.585173 0.209226
0.389827 0.588941 0.211984
0.432383 0.595472 0.215803
0.477690 0.604268 0.221608
0.525888 0.613403 0.229799
0.576426 0.619804 0.239746
0.628462 0.624816 0.252455
0.678579 0.628862 0.268892
0.724486 0.629353 0.283737
0.765706 0.627003 0.300001
0.795501 0.625766 0.356310
0.814956 0.626990 0.414533
0.311685 0.639138 0.247923
0.314469 0.639307 0.248044
0.326277 0.639917 0.248562
0.347847 0.640869 0.249567
0.378014 0.642561 0.251244
0.414228 0.645388 0.253354
0.454114 0.649597 0.256005
0.496337 0.656315 0.259759
0.540710 0.664514 0.265190
0.587435 0.672383 0.272478
0.636596 0.678006 0.281538
0.686551 0.681473 0.293132
0.731194 0.681048 0.307009
0.772514 0.678692 0.321667
0.810825 0.674996 0.333164
0.839655 0.671291 0.373170
0.346393 0.691600 0.291159
0.348923 0.691676 0.291250
0.358701 0.692067 0.291715
0.377657 0.693077 0.292518
0.404410 0.694472 0.293855
0.437480 0.696364 0.295612
0.474562 0.699306 0.297714
0.514055 0.703846 0.300070
0.555001 0.710488 0.303410
0.597725 0.717744 0.308304
0.642676 0.724491 0.314786
0.690556 0.729156 0.322764
0.738375 0.731328 0.332548
0.778717 0.728304 0.345670
0.816145 0.724806 0.360288
0.850070 0.719417 0.370521
0.381326 0.738740 0.335028
0.383278 0.738772 0.334997
0.391662 0.739280 0.335317
0.407867 0.739870 0.336017
0.431281 0.740993 0.337135
0.460914 0.742621 0.338762
0.494868 0.744630 0.340628
0.531452 0.748026 0.342319
0.569607 0.752515 0.344398
0.608825 0.758910 0.347250
0.649544 0.765410 0.351412
0.693159 0.771250 0.356313
0.739653 0.775537 0.363038
0.785314 0.777314 0.372863
0.821804 0.772832 0.386172
0.854438 0.767807 0.398868
0.416490 0.781552 0.378564
0.418212 0.781545 0.378677
0.425312 0.781875 0.379014
0.438944 0.782545 0.379607
0.459273 0.783594 0.380535
0.485191 0.785002 0.381911
0.515613 0.786829 0.383635
0.549165 0.789380 0.385390
0.584499 0.792885 0.386871
0.620991 0.797708 0.388326
0.658479 0.803352 0.390020
0.697962 0.809227 0.392874
0.739900 0.814290 0.397245
0.784971 0.818536 0.404429
0.827937 0.820091 0.416927
0.859165 0.814327 0.429375
0.451071 0.821974 0.421810
0.452461 0.821959 0.421891
0.458370 0.822328 0.422165
0.469848 0.822964 0.422759
0.487142 0.824083 0.423651
0.509645 0.825392 0.424715
0.536747 0.827115 0.426209
0.567323 0.829279 0.427850
0.600292 0.832109 0.428781
0.634536 0.835687 0.429390
0.669529 0.840136 0.430100
0.705121 0.845315 0.431460
0.742230 0.850060 0.434301
0.780931 0.854215 0.439660
0.822307 0.857680 0.449881
0.862638 0.859850 0.468940
0.003692 0.004670 0.015915
0.006795 0.006633 0.017331
0.017638 0.014293 0.022940
0.040985 0.029769 0.038454
0.076010 0.052199 0.061610
0.124672 0.082355 0.092830
0.181857 0.121348 0.132746
0.237742 0.165503 0.177164
0.291679 0.208218 0.219434
0.342578 0.247991 0.258599
0.389979 0.284835 0.294486
0.433886 0.318916 0.327504
0.473430 0.349660 0.356990
0.509126 0.377603 0.383777
0.541667 0.403183 0.408068
0.571964 0.427602 0.431056
0.008951 0.013413 0.023451
0.011655 0.014927 0.024669
0.022377 0.021235 0.028917
0.045473 0.035661 0.043606
0.080215 0.057226 0.065977
0.128361 0.086684 0.096415
0.184772 0.124908 0.135642
0.240142 0.168350 0.179245
0.293752 0.210300 0.220999
0.344392 0.249736 0.259759
0.391581 0.286197 0.295418
0.435361 0.320192 0.328260
0.474753 0.350800 0.357752
0.510210 0.378566 0.384311
0.542787 0.404266 0.408667
0.572639 0.428836 0.431868
0.008348 0.043917 0.044825
0.012230 0.044989 0.045209
0.036125 0.046865 0.045637
0.065892 0.057408 0.060652
0.099914 0.077687 0.082145
0.147273 0.105738 0.111125
0.199639 0.142439 0.148637
0.252035 0.181895 0.188795
0.303596 0.220987 0.228159
0.352304 0.257886 0.264973
0.398266 0.293175 0.299719
0.440996 0.326220 0.331977
0.479684 0.356554 0.361310
0.514784 0.384276 0.388016
0.547298 0.410380 0.412843
0.577241 0.434695 0.436039
0.012769 0.091197 0.055292
0.017973 0.091809 0.054973
0.043590 0.093560 0.053485
0.093525 0.098295 0.056348
0.153434 0.112347 0.077201
0.196586 0.140233 0.121690
0.240444 0.175450 0.166343
0.286349 0.211946 0.207504
0.332427 0.247978 0.245997
0.377142 0.282389 0.281655
0.419819 0.315155 0.314920
0.459301 0.345303 0.345266
0.495812 0.373542 0.373191
0.529113 0.399409 0.398629
0.559486 0.423298 0.421940
0.587819 0.445953 0.443887
0.026662 0.154181 0.065496
0.032433 0.154538 0.064691
0.058636 0.156334 0.062253
0.108284 0.161604 0.064306
0.170467 0.172881 0.070987
0.241156 0.191908 0.085726
0.294901 0.217103 0.149989
0.337856 0.247713 0.209020
0.378311 0.280090 0.255127
0.417026 0.311767 0.294356
0.454197 0.341822 0.328660
0.489268 0.369927 0.359243
0.521382 0.395453 0.386414
0.551047 0.418885 0.410740
0.578621 0.440839 0.433215
0.604393 0.461453 0.453976
0.053039 0.224594 0.075079
0.058759 0.225004 0.073574
0.086457 0.226604 0.073687
0.134750 0.230606 0.075296
0.191061 0.240688 0.080082
0.253047 0.254984 0.091435
0.325598 0.275730 0.105446
0.386762 0.295706 0.164938
0.430708 0.319674 0.236549
0.467070 0.345875 0.290228
0.499602 0.372241 0.332342
0.529417 0.397426 0.367156
0.556950 0.420654 0.396310
0.582239 0.442044 0.421776
0.605983 0.461878 0.444252
0.628365 0.480706 0.464846
0.092283 0.298401 0.087724
0.099088 0.298794 0.087852
0.126431 0.300498 0.088533
0.170531 0.303952 0.090069
0.220735 0.311651 0.093829
0.275998 0.325100 0.103660
0.336863 0.338150 0.119109
0.406808 0.357181 0.136440
0.470095 0.372642 0.174705
0.515412 0.389733 0.252404
0.549282 0.409282 0.314400
0.576860 0.429779 0.361194
0.600350 0.449577 0.397672
0.621435 0.468204 0.426920
0.641155 0.485965 0.451935
0.659765 0.502881 0.473892
0.141246 0.373882 0.110427
0.147514 0.374263 0.110545
0.170991 0.375788 0.111310
0.208825 0.378765 0.112984
0.254110 0.384028 0.116212
0.304419 0.395177 0.123645
0.358821 0.407677 0.136808
0.417813 0.418238 0.154062
0.483334 0.433606 0.172149
0.544701 0.445205 0.191807
0.590813 0.456361 0.262684
0.622996 0.469483 0.330762
0.646621 0.483786 0.381932
0.665332 0.498488 0.421192
0.681900 0.513298 0.452307
0.697056 0.527864 0.477972
0.188467 0.447599 0.142436
0.193484 0.447929 0.142615
0.213004 0.449105 0.143585
0.245965 0.451489 0.145616
0.287343 0.455393 0.148761
0.333485 0.463210 0.153925
0.383647 0.474818 0.163146
0.436846 0.484618 0.175862
0.493394 0.492568 0.191027
0.554307 0.504664 0.208457
0.611396 0.512762 0.222419
0.657203 0.518688 0.273493
0.687737 0.525607 0.342168
0.708876 0.534419 0.397491
0.724741 0.544941 0.440167
0.737923 0.556375 0.473557
0.231297 0.517098 0.180840
0.235400 0.517282 0.181020
0.251805 0.518292 0.181840
0.280618 0.520083 0.183509
0.318227 0.522841 0.186073
0.361085 0.528134 0.189624
0.407461 0.536860 0.195193
0.457014 0.547172 0.203895
0.509106 0.555202 0.215005
0.563790 0.561667 0.228451
0.619530 0.569918 0.244731
0.670931 0.574458 0.259630
0.714818 0.575465 0.289044
0.744450 0.577504 0.353414
0.764455 0.582288 0.411060
0.778555 0.589236 0.456225
0.270334 0.581096 0.220437
0.273860 0.581330 0.220608
0.287800 0.581977 0.221249
0.313000 0.583314 0.222641
0.347257 0.585387 0.224570
0.387116 0.588833 0.227237
0.430434 0.595073 0.230790
0.476382 0.603908 0.236304
0.524999 0.613078 0.244430
0.575850 0.619665 0.254284
0.628227 0.624861 0.266766
0.678371 0.628959 0.282176
0.724341 0.629433 0.296060
0.765442 0.627110 0.312786
0.794834 0.625948 0.367713
0.813993 0.627415 0.423598
0.307949 0.639358 0.260697
0.310849 0.639498 0.260833
0.322789 0.640094 0.261343
0.344789 0.641254 0.262442
0.375432 0.642738 0.264119
0.412071 0.645203 0.266397
0.452423 0.649256 0.268979
0.495159 0.655877 0.272613
0.539823 0.664164 0.278026
0.586854 0.672232 0.285151
0.636242 0.677978 0.294244
0.686326 0.681546 0.305543
0.731106 0.681048 0.318539
0.772322 0.678894 0.332349
0.810627 0.675150 0.343941
0.839142 0.671493 0.383633
0.344069 0.691713 0.302030
0.346538 0.691906 0.302109
0.356630 0.692410 0.302526
0.375630 0.693282 0.303394
0.402705 0.694484 0.304825
0.436061 0.696417 0.306652
0.473482 0.699311 0.308908
0.513200 0.703485 0.311348
0.554355 0.710092 0.314697
0.597401 0.717612 0.319490
0.642379 0.724517 0.325940
0.690343 0.729167 0.333829
0.738142 0.731389 0.343317
0.778538 0.728264 0.355680
0.816059 0.724863 0.369888
0.849981 0.719495 0.379549
0.379990 0.738816 0.344126
0.382066 0.738804 0.344238
0.390523 0.739279 0.344675
0.406692 0.740038 0.345304
0.430485 0.741112 0.346449
0.460110 0.742711 0.348111
0.494234 0.744730 0.349961
0.531044 0.747838 0.352005
0.569349 0.752507 0.354109
0.608589 0.758625 0.357047
0.649599 0.765394 0.361156
0.693104 0.771150 0.366060
0.739758 0.775473 0.372549
0.785175 0.777373 0.382085
0.821895 0.772956 0.394805
0.854491 0.767897 0.407150
0.416293 0.781549 0.386543
0.417889 0.781679 0.386646
0.424930 0.781950 0.386954
0.438730 0.782572 0.387613
0.458965 0.783640 0.388506
0.484981 0.785055 0.389954
0.515433 0.786858 0.391607
0.549081 0.789407 0.393698
0.584552 0.792907 0.395312
0.621123 0.797692 0.396849
0.658585 0.803353 0.398552
0.698047 0.809077 0.401383
0.739963 0.814285 0.405680
0.784832 0.818459 0.412619
0.827844 0.820110 0.424880
0.859110 0.814490 0.436837
0.451382 0.821948 0.428613
0.452749 0.822123 0.428672
0.458684 0.822435 0.428968
0.470130 0.823119 0.429480
0.487411 0.824086 0.430462
0.509974 0.825429 0.431744
0.536900 0.827171 0.433244
0.567501 0.829271 0.434762
0.600605 0.831988 0.435963
0.634838 0.835518 0.436660
0.669840 0.840081 0.437454
0.705544 0.845312 0.438817
0.742416 0.850092 0.441620
0.781222 0.854224 0.446990
0.822329 0.857648 0.456830
0.862648 0.859940 0.475035
0.008070 0.009992 0.032917
0.010942 0.011915 0.035627
0.020805 0.018388 0.041253
0.042058 0.032439 0.050596
0.074827 0.053458 0.071207
0.122269 0.082515 0.100984
0.179820 0.121323 0.140769
0.236449 0.166071 0.184639
0.290384 0.209021 0.226137
0.341073 0.249003 0.264689
0.388213 0.286101 0.300212
0.431647 0.320335 0.332808
0.471026 0.351067 0.361946
0.506553 0.378927 0.388204
0.539131 0.404455 0.412064
0.569588 0.428698 0.434642
0.013324 0.018372 0.040820
0.015624 0.019758 0.042587
0.024856 0.025264 0.047096
0.046469 0.038543 0.055888
0.079044 0.058566 0.075804
0.126504 0.087210 0.105179
0.183065 0.125207 0.144232
0.238896 0.169319 0.187187
0.292442 0.211425 0.228061
0.342613 0.251025 0.266141
0.389546 0.287664 0.301364
0.432769 0.321705 0.333731
0.472098 0.352325 0.362854
0.507531 0.380008 0.388897
0.540089 0.405552 0.412808
0.570529 0.429822 0.435392
0.027266 0.045419 0.065393
0.029600 0.046570 0.066369
0.039464 0.050287 0.068010
0.061942 0.060975 0.074244
0.094654 0.079668 0.093379
0.141628 0.106779 0.121309
0.194875 0.143303 0.158262
0.247961 0.182986 0.197279
0.299787 0.222399 0.235820
0.348805 0.259718 0.272142
0.395181 0.295147 0.306365
0.437987 0.327881 0.337811
0.476817 0.357747 0.366198
0.512075 0.385073 0.392099
0.544580 0.410562 0.415980
0.574645 0.434438 0.438376
0.020087 0.092763 0.095682
0.022744 0.093748 0.096345
0.036567 0.096908 0.098502
0.084602 0.100828 0.101507
0.127452 0.117218 0.122488
0.170666 0.143845 0.149589
0.219022 0.175716 0.181829
0.268618 0.209772 0.215973
0.317718 0.244499 0.250598
0.364693 0.278427 0.284286
0.409433 0.311412 0.316725
0.450272 0.341896 0.346575
0.488135 0.370764 0.374483
0.522523 0.397269 0.400077
0.553916 0.421853 0.423634
0.583255 0.445373 0.446054
0.020458 0.158039 0.111706
0.024333 0.158642 0.111659
0.043068 0.160741 0.111251
0.094428 0.164263 0.109507
0.166692 0.172904 0.116051
0.234224 0.190590 0.140429
0.279778 0.217435 0.191519
0.320795 0.248132 0.233502
0.361970 0.279796 0.270344
0.402405 0.310815 0.304168
0.441418 0.340438 0.335340
0.478375 0.368556 0.364284
0.512280 0.394370 0.390472
0.543456 0.418174 0.414309
0.572476 0.440654 0.436588
0.599243 0.461728 0.457351
0.039221 0.227384 0.126856
0.044241 0.227756 0.126207
0.068017 0.229318 0.123000
0.116982 0.232421 0.118695
0.184589 0.240397 0.123921
0.250871 0.254542 0.135553
0.324263 0.273559 0.150576
0.379284 0.294020 0.209475
0.419858 0.319042 0.265255
0.454969 0.345696 0.309247
0.487646 0.372144 0.345673
0.518520 0.397472 0.376910
0.547260 0.420862 0.403942
0.574029 0.442461 0.427901
0.598969 0.462583 0.449577
0.622682 0.481777 0.469711
0.075910 0.300236 0.141568
0.081332 0.300663 0.140225
0.103652 0.302226 0.134380
0.153696 0.305237 0.133226
0.212254 0.311554 0.137627
0.272114 0.324393 0.147327
0.335324 0.337898 0.162075
0.405873 0.355693 0.177462
0.466737 0.370742 0.217710
0.508723 0.388673 0.283216
0.540788 0.409061 0.335832
0.567819 0.430102 0.376739
0.591785 0.450342 0.409274
0.613746 0.469416 0.436339
0.634288 0.487352 0.459683
0.653806 0.504596 0.480620
0.118700 0.374902 0.157537
0.123801 0.375186 0.155735
0.148773 0.376805 0.152878
0.193538 0.379636 0.155106
0.244675 0.384280 0.158931
0.298758 0.394161 0.165991
0.356093 0.407234 0.177719
0.416589 0.418020 0.192339
