luts/ARRIVAL.cube
LUT_3D_SIZE 6
0.000287 0.000119 0.000302
0.133467 0.000546 0.000000
0.318417 0.002707 0.000000
0.519956 0.004172 0.000000
0.730847 0.005684 0.000000
0.947477 0.005213 0.000000
0.011305 0.127633 0.113203
0.081053 0.135175 0.128033
0.323397 0.157089 0.002061
0.527741 0.161581 0.000000
0.736723 0.165709 0.000000
0.951903 0.169094 0.000000
0.068524 0.301244 0.243509
0.130038 0.295771 0.294284
0.259295 0.331590 0.207483
0.538085 0.366402 0.004994
0.747823 0.366835 0.000332
0.961344 0.369026 0.000000
0.155665 0.488871 0.358912
0.215644 0.495266 0.350936
0.298028 0.480834 0.489214
0.481110 0.540560 0.229911
0.751302 0.569676 0.004192
0.966593 0.570752 0.000000
0.236163 0.694948 0.414140
0.301995 0.701368 0.395183
0.405518 0.703302 0.432129
0.519699 0.714117 0.461895
0.728693 0.759960 0.128021
0.966638 0.770424 0.000000
0.176665 0.922363 0.274624
0.299028 0.925983 0.258328
0.433988 0.932558 0.233858
0.596124 0.933282 0.258240
0.756588 0.947446 0.183248
0.962552 0.966754 0.016811
0.000000 0.015461 0.035622
0.031939 0.033267 0.155903
0.295064 0.007299 0.179598
0.515677 0.005190 0.184859
0.729023 0.006395 0.191328
0.946507 0.005763 0.196262
0.021327 0.123914 0.193302
0.081498 0.148225 0.205797
0.316130 0.153947 0.183021
0.522252 0.160172 0.187660
0.733202 0.165243 0.193073
0.949345 0.169148 0.197322
0.092176 0.284641 0.339762
0.126926 0.311942 0.312123
0.250544 0.330475 0.310641
0.532049 0.362274 0.205275
0.746715 0.366381 0.199708
0.959403 0.368555 0.201033
0.201364 0.472031 0.464471
0.215836 0.495763 0.417535
0.297698 0.488522 0.484938
0.477183 0.540075 0.358880
0.750243 0.569269 0.210410
0.966202 0.570528 0.203853
0.270876 0.687019 0.517263
0.305082 0.701173 0.477084
0.400415 0.710495 0.472782
0.520786 0.715310 0.520983
0.728038 0.759825 0.306081
0.966638 0.770424 0.204838
0.191772 0.919715 0.423689
0.302112 0.925617 0.402757
0.432564 0.933474 0.379658
0.594220 0.935277 0.393189
0.756798 0.948304 0.346609
0.962780 0.966758 0.224700
0.001586 0.056171 0.149649
0.009143 0.085000 0.196294
0.143265 0.086231 0.323153
0.419030 0.041453 0.375058
0.721424 0.009843 0.389800
0.943435 0.007560 0.399021
0.021401 0.147007 0.242274
0.042961 0.162524 0.265008
0.189294 0.187503 0.354533
0.465455 0.169026 0.381510
0.726372 0.165256 0.392099
0.946139 0.169639 0.400400
0.093404 0.297170 0.374364
0.122816 0.304220 0.381417
0.247391 0.336245 0.401417
0.513291 0.351419 0.391617
0.734860 0.360843 0.397192
0.951851 0.366390 0.403548
0.219555 0.472201 0.511662
0.239513 0.477088 0.516369
0.308610 0.511745 0.498783
0.457637 0.534470 0.496821
0.746607 0.566921 0.412335
0.964760 0.570110 0.410448
0.321205 0.677865 0.611149
0.354509 0.683781 0.607473
0.399364 0.716226 0.553547
0.526265 0.723485 0.575006
0.724056 0.758662 0.481370
0.966376 0.770440 0.412389
0.235445 0.911841 0.576223
0.334782 0.918043 0.563057
0.433042 0.934389 0.523820
0.587394 0.941066 0.515351
0.756900 0.949580 0.498888
0.962855 0.967009 0.423899
0.016887 0.109314 0.225368
0.029765 0.131022 0.253231
0.071983 0.179506 0.316879
0.295202 0.141576 0.480166
0.506094 0.137417 0.532339
0.904648 0.022641 0.579988
0.042789 0.179870 0.291343
0.058933 0.194498 0.309960
0.110978 0.229505 0.358339
0.326403 0.238743 0.502233
0.551406 0.231608 0.547983
0.919192 0.175536 0.583437
0.138575 0.310735 0.409732
0.152531 0.319823 0.418718
0.191659 0.344082 0.442887
0.383358 0.375617 0.536377
0.654391 0.363508 0.571713
0.942564 0.364383 0.591534
0.212960 0.486447 0.550118
0.231893 0.491543 0.554494
0.285915 0.505197 0.566703
0.438006 0.539137 0.590527
0.720855 0.557046 0.594827
0.953032 0.565951 0.599223
0.300945 0.689883 0.663030
0.341359 0.694595 0.664604
0.410108 0.707111 0.668155
0.531217 0.737563 0.655589
0.718791 0.757368 0.644456
0.962199 0.769837 0.608019
0.230104 0.915648 0.689475
0.342032 0.918659 0.687026
0.457586 0.927365 0.679721
0.581675 0.946563 0.652458
0.757352 0.952414 0.648440
0.962910 0.966819 0.612693
0.044683 0.168268 0.292741
0.057308 0.184373 0.311721
0.097974 0.224034 0.359643
0.168880 0.281866 0.433914
0.472268 0.190748 0.638842
0.573948 0.291593 0.649364
0.068130 0.223886 0.341487
0.082552 0.236447 0.356373
0.126388 0.268485 0.396017
0.202958 0.316928 0.462121
0.496190 0.288652 0.655019
0.617940 0.345527 0.669267
0.158491 0.338860 0.447139
0.170018 0.347662 0.455822
0.202880 0.371918 0.479481
0.271566 0.409908 0.522606
0.544193 0.418426 0.685872
0.733460 0.426539 0.714609
0.250878 0.500503 0.580676
0.266584 0.505869 0.585492
0.312779 0.520280 0.598695
0.407564 0.545191 0.630690
0.622077 0.575659 0.726966
0.889850 0.567976 0.765865
0.293154 0.703135 0.730893
0.339811 0.707446 0.734772
0.413103 0.718842 0.745429
0.530971 0.736345 0.762376
0.709145 0.759252 0.782995
0.940114 0.767935 0.790451
0.214007 0.922333 0.806178
0.331489 0.925114 0.806235
0.452653 0.932673 0.806308
0.590187 0.943877 0.804844
0.757296 0.958613 0.799128
0.964057 0.967331 0.793796
0.078852 0.229921 0.355940
0.091252 0.242624 0.370001
0.127704 0.275369 0.407684
0.195365 0.325978 0.469005
0.281316 0.391335 0.551746
0.836458 0.085644 0.896504
0.099243 0.275366 0.393507
0.112538 0.285766 0.408326
0.151016 0.313712 0.442284
0.222109 0.358023 0.498899
0.308689 0.417597 0.577387
0.853737 0.237965 0.906996
0.188419 0.374921 0.487493
0.195376 0.383523 0.497567
0.215928 0.407125 0.525807
0.285218 0.441427 0.570276
0.382000 0.486956 0.642660
0.895345 0.397623 0.931556
0.307462 0.520001 0.609229
0.318277 0.525646 0.616006
0.347612 0.541236 0.636987
0.391981 0.570108 0.683628
0.543009 0.596058 0.766147
0.914920 0.581708 0.942994
0.309379 0.715271 0.802246
0.359126 0.719850 0.809340
0.426863 0.731643 0.828526
0.533988 0.748690 0.857182
0.691393 0.764984 0.890556
0.934735 0.773279 0.952559
0.193965 0.930196 0.930438
0.317313 0.932776 0.932833
0.443576 0.939452 0.939553
0.586974 0.949138 0.949409
0.758587 0.959211 0.960825
0.953433 0.959819 0.963671
