luts/ARRIVAL.cube
LUT_3D_SIZE 16
0.000287 0.000119 0.000302
0.027032 0.000136 0.000000
0.076411 0.000000 0.000000
0.133467 0.000546 0.000000
0.192442 0.001635 0.000000
0.254367 0.002281 0.000000
0.318417 0.002707 0.000000
0.384187 0.003366 0.000000
0.451456 0.003765 0.000000
0.519956 0.004172 0.000000
0.589451 0.004842 0.000000
0.659759 0.005390 0.000000
0.730847 0.005684 0.000000
0.802483 0.005889 0.000000
0.874762 0.005604 0.000000
0.947477 0.005213 0.000000
0.000043 0.027916 0.029749
0.012353 0.027211 0.039034
0.064923 0.030002 0.018882
0.130111 0.033625 0.001899
0.194013 0.035324 0.000108
0.256345 0.036604 0.000000
0.320220 0.038084 0.000000
0.385795 0.039559 0.000000
0.452986 0.040988 0.000000
0.521376 0.042054 0.000000
0.590748 0.043102 0.000000
0.660904 0.044245 0.000000
0.731854 0.045052 0.000000
0.803559 0.045725 0.000000
0.875576 0.046195 0.000000
0.948228 0.046646 0.000000
0.003392 0.073280 0.069260
0.014324 0.068710 0.096541
0.043553 0.075092 0.085152
0.112499 0.083940 0.041820
0.187288 0.088304 0.009384
0.257657 0.090778 0.000352
0.323219 0.092504 0.000000
0.388885 0.093911 0.000000
0.455717 0.095361 0.000000
0.523885 0.097108 0.000000
0.593036 0.098832 0.000000
0.662946 0.100235 0.000000
0.733835 0.101622 0.000000
0.805209 0.102712 0.000000
0.877257 0.103848 0.000000
0.949763 0.104562 0.000000
0.011305 0.127633 0.113203
0.025087 0.128472 0.121048
0.035939 0.121339 0.164661
0.081053 0.135175 0.128033
0.167992 0.149283 0.060682
0.248397 0.154276 0.019084
0.323397 0.157089 0.002061
0.392529 0.158859 0.000100
0.459914 0.160243 0.000000
0.527741 0.161581 0.000000
0.596615 0.162999 0.000000
0.666149 0.164342 0.000000
0.736723 0.165709 0.000000
0.807967 0.167013 0.000000
0.879817 0.168168 0.000000
0.951903 0.169094 0.000000
0.023404 0.184521 0.158327
0.038438 0.187592 0.155439
0.053357 0.178842 0.201207
0.069601 0.179098 0.224497
0.132728 0.198548 0.162473
0.231391 0.216639 0.071983
0.315397 0.223481 0.024850
0.390915 0.225156 0.005389
0.462887 0.226855 0.000340
0.532229 0.228361 0.000000
0.601195 0.229661 0.000000
0.670437 0.230718 0.000000
0.740442 0.231837 0.000000
0.811291 0.232941 0.000000
0.882857 0.233999 0.000114
0.954516 0.234967 0.000000
0.042390 0.242293 0.201647
0.058382 0.245531 0.196555
0.079486 0.243331 0.215487
0.094213 0.232896 0.274398
0.116720 0.238595 0.280769
0.192225 0.264193 0.188888
0.298693 0.285404 0.078545
0.389040 0.295005 0.024987
0.460054 0.294080 0.008500
0.533842 0.295640 0.001202
0.604558 0.297022 0.000245
0.674735 0.298270 0.000000
0.745075 0.299317 0.000000
0.815438 0.300096 0.000000
0.886536 0.300911 0.000000
0.957834 0.301704 0.000000
0.068524 0.301244 0.243509
0.084974 0.304388 0.237219
0.107724 0.305618 0.241235
0.130038 0.295771 0.294284
0.146586 0.291602 0.336287
0.172934 0.299899 0.335342
0.259295 0.331590 0.207483
0.369452 0.354772 0.078634
0.453349 0.361270 0.032657
0.538085 0.366402 0.004994
0.605568 0.364724 0.002369
0.677337 0.365773 0.000490
0.747823 0.366835 0.000332
0.819054 0.367832 0.000336
0.890350 0.368529 0.000135
0.961344 0.369026 0.000000
0.093931 0.362593 0.282644
0.110060 0.365637 0.275181
0.132130 0.367352 0.275901
0.158226 0.363879 0.302427
0.179031 0.352357 0.370837
0.200542 0.354838 0.390386
0.231487 0.363507 0.388027
0.330577 0.400438 0.218822
0.442052 0.424042 0.076096
0.527638 0.430932 0.028156
0.606862 0.434095 0.008131
0.677831 0.433662 0.002425
0.750041 0.434567 0.000461
0.821112 0.435286 0.000344
0.892516 0.435789 0.000000
0.963756 0.436491 0.000000
0.122783 0.425150 0.320871
0.137830 0.428227 0.312586
0.159648 0.429663 0.313160
0.185088 0.430593 0.320394
0.212992 0.421804 0.376464
0.233885 0.414736 0.434813
0.259414 0.420430 0.443222
0.297475 0.432091 0.424654
0.403866 0.470509 0.225725
0.515353 0.492960 0.073320
0.603025 0.500270 0.019971
0.677123 0.501451 0.008440
0.752761 0.502971 0.001101
0.822583 0.502760 0.000407
0.894340 0.503347 0.000000
0.965483 0.503733 0.000000
0.155665 0.488871 0.358912
0.169909 0.491972 0.349580
0.191253 0.493245 0.350124
0.215644 0.495266 0.350936
0.245978 0.491256 0.384559
0.273865 0.481545 0.453758
0.298028 0.480834 0.489214
0.327385 0.487072 0.495866
0.375383 0.502855 0.448564
0.481110 0.540560 0.229911
0.589042 0.561708 0.068843
0.677332 0.568619 0.013504
0.751302 0.569676 0.004192
0.824497 0.570405 0.000699
0.895409 0.570508 0.000000
0.966593 0.570752 0.000000
0.194793 0.552934 0.396762
0.207713 0.555989 0.386425
0.228921 0.557195 0.386775
0.252800 0.558909 0.387376
0.281581 0.559379 0.398655
0.316256 0.551641 0.456449
0.343490 0.544268 0.524101
0.368184 0.549102 0.537477
0.397329 0.556906 0.540572
0.452728 0.577952 0.453349
0.560445 0.613107 0.214518
0.665643 0.631125 0.054714
0.751796 0.636510 0.006387
0.825101 0.637357 0.000359
0.896361 0.637454 0.000000
0.966638 0.637502 0.000000
0.233412 0.618791 0.430045
0.245917 0.621479 0.420280
0.265698 0.622916 0.418597
0.288143 0.625049 0.416727
0.313282 0.628005 0.414439
0.347432 0.625086 0.448067
0.380802 0.619818 0.503575
0.409450 0.620009 0.536867
0.440786 0.629170 0.523636
0.478959 0.639029 0.507410
0.544794 0.660744 0.388543
0.646294 0.687580 0.168550
0.742555 0.700213 0.037892
0.824362 0.703548 0.002718
0.896537 0.704075 0.000108
0.966638 0.704093 0.000000
0.236163 0.694948 0.414140
0.253829 0.697245 0.405201
0.276199 0.699223 0.399696
0.301995 0.701368 0.395183
0.330381 0.704515 0.389057
0.364666 0.705943 0.394755
0.405518 0.703302 0.432129
0.443907 0.700925 0.475541
0.479730 0.705873 0.478538
0.519699 0.714117 0.461895
0.565905 0.722885 0.440211
0.636205 0.741589 0.312448
0.728693 0.759960 0.128021
0.816975 0.768131 0.028072
0.895328 0.770371 0.001918
0.966638 0.770424 0.000000
0.220511 0.774266 0.373694
0.245762 0.775738 0.366453
0.273891 0.777563 0.360221
0.305746 0.779290 0.355836
0.339316 0.781877 0.349720
0.375807 0.784766 0.343010
0.421373 0.784021 0.364631
0.467783 0.782496 0.395531
0.512365 0.782475 0.423940
0.555247 0.789065 0.408824
0.602108 0.795638 0.389893
0.654416 0.802835 0.363546
0.724583 0.817465 0.238461
0.808218 0.829977 0.091341
0.890568 0.835573 0.019003
0.966485 0.836787 0.001125
0.203921 0.849529 0.329901
0.236639 0.850761 0.324214
0.270542 0.852299 0.317436
0.308022 0.853746 0.312992
0.346906 0.855703 0.306947
0.387479 0.858130 0.298960
0.433902 0.859368 0.302049
0.485689 0.858354 0.322645
0.536475 0.857816 0.344215
0.584536 0.860297 0.348295
0.632467 0.865968 0.327808
0.683966 0.871772 0.304705
0.739400 0.877876 0.274125
0.808027 0.889898 0.158706
0.885530 0.898666 0.055242
0.963115 0.902207 0.011367
0.176665 0.922363 0.274624
0.216555 0.923428 0.270085
0.256162 0.924806 0.263136
0.299028 0.925983 0.258328
0.342558 0.927963 0.251567
0.387171 0.930066 0.242916
0.433988 0.932558 0.233858
0.488152 0.932431 0.242457
0.542530 0.932613 0.251953
0.596124 0.933282 0.258240
0.647048 0.937319 0.240907
0.700010 0.942470 0.213968
0.756588 0.947446 0.183248
0.817550 0.952643 0.145795
0.887677 0.961630 0.063992
0.962552 0.966754 0.016811
0.000000 0.002519 0.003222
0.008066 0.003635 0.037788
0.047920 0.002935 0.047145
0.118925 0.001589 0.043693
0.185982 0.002037 0.042105
0.250348 0.002294 0.042454
0.315626 0.002738 0.043833
0.382187 0.003370 0.045261
0.450237 0.003808 0.046604
0.519111 0.004221 0.047984
0.588907 0.004959 0.049178
0.659485 0.005604 0.050124
0.730444 0.005828 0.051138
0.802158 0.005902 0.051779
0.874676 0.005611 0.052902
0.947312 0.005269 0.053623
0.000031 0.029504 0.057498
0.006618 0.036322 0.064827
0.054734 0.032025 0.068373
0.124961 0.034329 0.048329
0.190485 0.035597 0.042694
0.253800 0.036646 0.043156
0.318181 0.038423 0.044502
0.384318 0.039585 0.045869
0.451846 0.041001 0.047337
0.520428 0.042054 0.048124
0.589911 0.043499 0.049486
0.660200 0.044487 0.050488
0.731159 0.045472 0.051184
0.803024 0.045997 0.052226
0.875179 0.046559 0.052970
0.947734 0.046655 0.053637
0.007637 0.067026 0.110407
0.017820 0.077934 0.100053
0.041541 0.078543 0.107652
0.115599 0.084393 0.083263
0.189425 0.088315 0.056460
0.257081 0.090466 0.047144
0.321892 0.092052 0.046128
0.387619 0.093556 0.047304
0.454670 0.095285 0.048082
0.522995 0.097016 0.049258
0.592176 0.098539 0.050174
0.662441 0.100179 0.051142
0.733211 0.101606 0.051873
0.804636 0.102768 0.052499
0.876667 0.103858 0.053508
0.949135 0.104562 0.054193
0.018940 0.116461 0.164102
0.027957 0.131318 0.139705
0.043849 0.127393 0.161228
0.085246 0.135729 0.150127
0.172310 0.149172 0.103394
0.250585 0.154079 0.068644
0.323779 0.156858 0.052701
0.391919 0.158584 0.049658
0.459029 0.159939 0.050034
0.526888 0.161265 0.050641
0.595839 0.162845 0.051319
0.665534 0.164247 0.051844
0.736154 0.165687 0.052795
0.807248 0.166961 0.053202
0.879277 0.168149 0.053825
0.951457 0.169094 0.054229
0.029974 0.174572 0.207262
0.037971 0.188012 0.181093
0.056819 0.187938 0.192054
0.069645 0.180458 0.230299
0.133517 0.198920 0.188099
0.232867 0.216805 0.120985
0.314474 0.222151 0.080589
0.391482 0.224980 0.058262
0.462742 0.226759 0.052633
0.531723 0.228224 0.052114
0.600569 0.229368 0.052693
0.669771 0.230501 0.053300
0.740052 0.231641 0.053677
0.810825 0.232810 0.053979
0.882425 0.233897 0.054530
0.954159 0.234952 0.054874
0.049596 0.234825 0.245159
0.057565 0.245256 0.222473
0.078668 0.247926 0.223608
0.094755 0.237837 0.268829
0.115311 0.239711 0.286413
0.191354 0.264431 0.217958
0.299521 0.285523 0.131074
0.382224 0.291323 0.089253
0.460611 0.293887 0.064100
0.533842 0.295566 0.055318
0.604234 0.296913 0.054025
0.674319 0.298145 0.054421
0.744548 0.299101 0.054673
0.814904 0.299991 0.054881
0.886095 0.300801 0.055200
0.957572 0.301710 0.055307
0.076924 0.295359 0.282661
0.085324 0.303657 0.263203
0.106183 0.307082 0.260136
0.129618 0.302067 0.288597
0.145000 0.293357 0.337640
0.170917 0.300685 0.340867
0.257777 0.331688 0.240136
0.369913 0.354888 0.135291
0.453533 0.361087 0.092628
0.531171 0.363193 0.068575
0.605589 0.364648 0.057953
0.677117 0.365729 0.055354
0.747583 0.366806 0.055432
0.818711 0.367690 0.055523
0.889883 0.368322 0.055531
0.960871 0.368973 0.055574
0.103443 0.357746 0.318303
0.112351 0.364397 0.301630
0.132367 0.367734 0.297419
0.157991 0.367906 0.307428
0.180435 0.356344 0.364496
0.200772 0.355415 0.393493
0.230960 0.363696 0.394490
0.329922 0.400452 0.254990
0.442323 0.424211 0.135511
0.527421 0.430698 0.089985
0.603312 0.432385 0.070633
0.677715 0.433593 0.059751
0.749774 0.434361 0.056335
0.821115 0.435056 0.056094
0.892221 0.435789 0.056127
0.963902 0.436405 0.056181
0.131319 0.421470 0.353602
0.140701 0.426875 0.339079
0.159631 0.430069 0.333706
0.184671 0.432097 0.335919
0.212816 0.425420 0.375720
0.234175 0.416483 0.433199
0.259170 0.420929 0.445718
0.296073 0.431898 0.434721
0.403147 0.470478 0.265119
0.515428 0.492956 0.135079
0.602772 0.500159 0.082802
0.676880 0.501374 0.068814
0.750388 0.502105 0.059841
0.822537 0.502678 0.056958
0.894138 0.503327 0.056196
0.965347 0.503676 0.056195
0.163345 0.485971 0.389254
0.173172 0.490354 0.376384
0.191036 0.493557 0.370015
0.215441 0.495621 0.371037
0.244644 0.494162 0.390096
0.273388 0.484633 0.449167
0.297347 0.481503 0.490859
0.326527 0.487657 0.498205
0.373328 0.502825 0.461898
0.480670 0.540401 0.272238
0.589112 0.561710 0.132174
0.677226 0.568607 0.075585
0.751256 0.569669 0.063855
0.823670 0.570107 0.058575
0.895228 0.570448 0.056836
0.966452 0.570746 0.056240
0.201226 0.550769 0.425213
0.211418 0.554462 0.413672
0.228320 0.557492 0.406344
0.252360 0.559363 0.407105
0.280164 0.560849 0.412387
0.314473 0.554191 0.458681
0.343459 0.545597 0.522984
0.368352 0.549340 0.539994
0.397670 0.557121 0.543263
0.452209 0.577748 0.470005
0.560264 0.612975 0.261052
0.665630 0.631100 0.119265
0.751901 0.636492 0.066828
0.825020 0.637236 0.058483
0.896348 0.637431 0.056863
0.966638 0.637502 0.056516
0.240887 0.616821 0.457512
0.251051 0.619897 0.447136
0.265999 0.623159 0.438079
0.288308 0.625215 0.436634
0.313393 0.628315 0.434363
0.346126 0.626927 0.456708
0.380253 0.621688 0.505539
0.409627 0.620478 0.542904
0.441097 0.629397 0.532080
0.479207 0.639346 0.518352
0.544299 0.660615 0.416464
0.645976 0.687609 0.222883
0.742404 0.700213 0.102430
0.824315 0.703566 0.061902
0.896488 0.704072 0.056885
0.966638 0.704093 0.056805
0.242171 0.693550 0.444486
0.258132 0.696109 0.435455
0.276356 0.699328 0.424396
0.302133 0.701632 0.420444
0.330517 0.704649 0.415059
0.363742 0.707022 0.415924
0.404613 0.704636 0.447598
0.443608 0.702305 0.486211
0.479903 0.706018 0.495439
0.519870 0.714365 0.480949
0.566054 0.723092 0.462473
0.636099 0.741481 0.351142
0.728382 0.759940 0.188902
0.816980 0.768131 0.092548
0.895362 0.770371 0.060733
0.966638 0.770424 0.056867
0.225234 0.773290 0.409540
0.249416 0.774983 0.402539
0.274201 0.777545 0.392198
0.305790 0.779523 0.388170
0.339554 0.781965 0.382925
0.375763 0.785052 0.376227
0.420517 0.784766 0.391892
0.467259 0.783351 0.419772
0.512245 0.783085 0.446880
0.555469 0.789266 0.436854
0.602501 0.795658 0.420238
0.654577 0.802852 0.397523
0.724483 0.817384 0.287502
0.808159 0.829959 0.157195
0.890572 0.835580 0.082645
0.966486 0.836787 0.059113
0.207706 0.848846 0.371948
0.239671 0.850056 0.366295
0.271206 0.852296 0.357227
0.308231 0.853764 0.352831
0.347136 0.855766 0.347421
0.387735 0.858173 0.340539
0.433198 0.859884 0.340544
0.485009 0.858826 0.358574
0.536132 0.858346 0.378208
0.584804 0.860275 0.385496
0.632635 0.866048 0.367386
0.684146 0.871903 0.346960
0.739621 0.877863 0.319971
0.807965 0.889893 0.218243
0.885417 0.898666 0.122190
0.963138 0.902252 0.073411
0.179389 0.921864 0.323460
0.218902 0.922854 0.319402
0.257082 0.924700 0.311477
0.298867 0.926244 0.305746
0.342393 0.927927 0.299775
0.387105 0.930283 0.292087
0.433288 0.932743 0.282815
0.487500 0.932809 0.290045
0.542058 0.932799 0.298881
0.595888 0.933640 0.305204
0.646932 0.937506 0.290956
0.700011 0.942548 0.266811
0.756595 0.947595 0.239696
0.817555 0.952788 0.206974
0.887700 0.961627 0.131538
0.962552 0.966754 0.080526
0.000000 0.005758 0.013857
0.000000 0.014428 0.039650
0.012713 0.017434 0.092675
0.072615 0.012010 0.114520
0.161846 0.006575 0.111613
0.241778 0.003617 0.108630
0.311874 0.003431 0.108974
0.379733 0.003722 0.110646
0.448227 0.004194 0.112795
0.517770 0.004639 0.114570
0.587826 0.005213 0.116091
0.658522 0.005787 0.117882
0.729814 0.006062 0.119303
0.801900 0.006076 0.120866
0.874145 0.005748 0.122215
0.946957 0.005604 0.123405
0.000000 0.035905 0.072318
0.000394 0.042003 0.094023
0.027801 0.044589 0.115190
0.090586 0.041124 0.122201
0.173356 0.039078 0.111937
0.246780 0.038373 0.108551
0.314443 0.039013 0.109566
0.381521 0.040150 0.111084
0.449873 0.041458 0.113186
0.519020 0.042501 0.114809
0.588942 0.043570 0.116500
0.659469 0.044893 0.118204
0.730690 0.045579 0.119569
0.802506 0.046142 0.121244
0.874763 0.046651 0.122301
0.947479 0.046764 0.123501
0.004568 0.072856 0.128359
0.008811 0.077339 0.134081
0.039745 0.087547 0.136380
0.101465 0.085861 0.140405
0.181457 0.088068 0.118608
0.252312 0.089982 0.110413
0.318588 0.091749 0.110736
0.384905 0.093542 0.112194
0.452468 0.095330 0.113951
0.521228 0.096829 0.115670
0.590813 0.098497 0.117354
0.660972 0.100189 0.118882
0.732113 0.101602 0.120216
0.803571 0.102942 0.121501
0.875913 0.104052 0.122791
0.948335 0.104807 0.123681
0.024302 0.118447 0.177011
0.030115 0.122018 0.179834
0.050710 0.136573 0.171581
0.087308 0.140083 0.173757
0.171984 0.148091 0.154097
0.251789 0.153296 0.127395
0.323014 0.156126 0.116605
0.390073 0.157737 0.115322
0.457089 0.159260 0.116306
0.525257 0.160775 0.117540
0.594367 0.162378 0.118864
0.664259 0.163964 0.120137
0.734955 0.165407 0.121425
0.806251 0.166887 0.122612
0.878273 0.168045 0.123593
0.950604 0.169093 0.124482
0.034226 0.171659 0.228562
0.040706 0.175677 0.227856
0.060230 0.191831 0.209128
0.081256 0.189118 0.226023
0.134406 0.198307 0.215869
0.235051 0.215766 0.172286
0.316483 0.221548 0.140691
0.392073 0.224494 0.123802
0.462150 0.226320 0.120271
0.530522 0.227693 0.120404
0.599145 0.228813 0.121334
0.668693 0.230032 0.122152
0.739020 0.231338 0.122953
0.809832 0.232642 0.123787
0.881447 0.233729 0.124641
0.953640 0.234838 0.125287
0.058522 0.225989 0.280627
0.061671 0.233806 0.270097
0.077143 0.248981 0.247517
0.100951 0.249160 0.258804
0.114523 0.241963 0.292819
0.189863 0.264167 0.248832
0.300751 0.285410 0.184314
0.383449 0.290883 0.151964
0.461170 0.293481 0.130949
0.533618 0.295242 0.124215
0.603871 0.296646 0.123718
0.673656 0.297816 0.124314
0.743508 0.298704 0.124912
0.814079 0.299638 0.125463
0.885234 0.300672 0.125967
0.956825 0.301496 0.126383
0.090982 0.285606 0.323376
0.092367 0.294133 0.308677
0.104324 0.307143 0.285795
0.129486 0.309866 0.289317
0.145778 0.299645 0.331825
0.167954 0.302069 0.348237
0.255647 0.331779 0.273822
0.370897 0.355047 0.191718
0.453888 0.360606 0.158378
0.531511 0.362915 0.137142
0.605463 0.364358 0.127782
0.676636 0.365541 0.126042
0.747461 0.366602 0.126444
0.818399 0.367590 0.126915
0.889266 0.368249 0.127275
0.960258 0.368761 0.127415
0.120962 0.349006 0.358850
0.123672 0.356230 0.344847
0.133720 0.366954 0.323281
0.158374 0.370900 0.321918
0.183490 0.364349 0.354350
0.201196 0.356880 0.397218
0.230291 0.364330 0.401989
0.328149 0.400402 0.292182
0.443034 0.424330 0.194566
0.527255 0.430398 0.159087
0.603431 0.432100 0.140807
0.677827 0.433342 0.130720
0.749611 0.434209 0.127939
0.820702 0.435053 0.127822
0.892121 0.435792 0.128224
0.963551 0.436255 0.128331
0.146925 0.414720 0.391596
0.151705 0.420423 0.379184
0.161244 0.429125 0.359475
0.184558 0.433020 0.356781
0.212788 0.431495 0.373793
0.235524 0.420780 0.427303
0.258966 0.421863 0.449961
0.293584 0.431394 0.447621
0.401820 0.470396 0.305282
0.515594 0.493082 0.196639
0.602129 0.499844 0.154613
0.676669 0.501147 0.140724
0.750134 0.501991 0.132129
0.822438 0.502577 0.129173
0.893907 0.503216 0.128744
0.965363 0.503597 0.129008
0.177715 0.480677 0.424949
0.183845 0.485254 0.413774
0.193026 0.492571 0.395807
0.214998 0.496135 0.392096
0.243131 0.497698 0.398130
0.273002 0.489950 0.442198
0.296572 0.483087 0.491790
0.325135 0.488656 0.501499
0.370499 0.502567 0.477675
0.479370 0.540261 0.315250
0.589218 0.561777 0.196106
0.676918 0.568443 0.148221
0.750750 0.569549 0.137157
0.823398 0.570039 0.131537
0.895196 0.570425 0.129573
0.966534 0.570718 0.129443
0.214060 0.546590 0.458790
0.221221 0.550426 0.448797
0.230046 0.556517 0.432187
0.251149 0.559888 0.427559
0.278606 0.562354 0.428846
0.311696 0.558598 0.458237
0.342759 0.549846 0.514079
0.368681 0.549807 0.544115
0.398017 0.557599 0.547582
0.451344 0.577378 0.488940
0.559745 0.612884 0.307766
0.665701 0.631120 0.186480
0.751579 0.636479 0.140265
0.824591 0.637179 0.132062
0.896035 0.637332 0.130163
0.966638 0.637440 0.129688
0.254627 0.613067 0.490033
0.262395 0.616282 0.480906
0.270262 0.621825 0.464932
0.288608 0.625568 0.457257
0.313704 0.628554 0.455549
0.344198 0.629946 0.464152
0.379285 0.625012 0.504863
0.409861 0.621883 0.546024
0.441400 0.629969 0.541306
0.479583 0.639736 0.530081
0.543744 0.660359 0.445634
0.645685 0.687620 0.276355
0.742422 0.700234 0.172646
0.824274 0.703548 0.135092
0.896460 0.704016 0.130359
0.966638 0.704049 0.130217
0.253122 0.691062 0.478840
0.267382 0.693650 0.470633
0.280527 0.698277 0.455655
0.302104 0.701985 0.446017
0.330577 0.705037 0.441562
0.362347 0.708614 0.436967
0.402943 0.707035 0.460737
0.442900 0.704560 0.494587
0.480243 0.706458 0.512676
0.520207 0.714703 0.500519
0.566413 0.723324 0.485187
0.635637 0.741076 0.390683
0.728268 0.759883 0.247977
0.816995 0.768134 0.164161
0.895357 0.770371 0.133970
0.966638 0.770424 0.130224
0.233661 0.771475 0.448261
0.256774 0.773284 0.442040
0.278389 0.776671 0.429805
0.305920 0.779712 0.420546
0.339659 0.782066 0.416078
0.375929 0.785375 0.410276
0.418809 0.786359 0.417188
0.466216 0.784855 0.441817
0.512044 0.784440 0.468037
0.555809 0.789385 0.464848
0.602861 0.795893 0.450643
0.654914 0.802956 0.431453
0.724294 0.817246 0.336473
0.808142 0.829879 0.221579
0.890611 0.835623 0.155200
0.966470 0.836787 0.132178
0.214134 0.847704 0.415748
0.245507 0.848893 0.410835
0.275110 0.851399 0.401027
0.308416 0.853924 0.392067
0.347299 0.855955 0.387407
0.387938 0.858402 0.381438
0.431854 0.860731 0.377180
0.483691 0.859940 0.392447
0.535293 0.859372 0.410096
0.585045 0.860537 0.421954
0.632932 0.866107 0.406374
0.684433 0.871939 0.388413
0.739821 0.878085 0.364858
0.807859 0.889906 0.276098
0.885413 0.898666 0.191545
0.963204 0.902252 0.146593
0.184093 0.921028 0.373069
0.223231 0.922062 0.369458
0.260515 0.924054 0.361774
0.298695 0.926267 0.352299
0.342054 0.928407 0.346731
0.386779 0.930335 0.340026
0.433041 0.933047 0.331794
0.486090 0.933724 0.335297
0.541117 0.933702 0.343707
0.595253 0.934161 0.350241
0.646800 0.937563 0.339296
0.699943 0.942932 0.317900
0.756723 0.947703 0.293881
0.817418 0.952872 0.265495
0.887699 0.961716 0.199636
0.962570 0.966757 0.153588
0.000000 0.015461 0.035622
0.000000 0.024612 0.062705
0.000116 0.035377 0.105800
0.031939 0.033267 0.155903
0.093470 0.030345 0.180855
0.199374 0.015194 0.182756
0.295064 0.007299 0.179598
0.374510 0.004930 0.180162
0.445721 0.004626 0.182316
0.515677 0.005190 0.184859
0.586362 0.005495 0.187270
0.657421 0.006073 0.189397
0.729023 0.006395 0.191328
0.801143 0.006399 0.193149
0.873668 0.006157 0.194752
0.946507 0.005763 0.196262
0.000151 0.042445 0.102167
0.001542 0.047766 0.120505
0.006772 0.056337 0.140685
0.045608 0.059949 0.172134
0.112344 0.055408 0.188211
0.213004 0.046649 0.183786
0.301385 0.041960 0.179880
0.376858 0.041306 0.180515
0.447037 0.042108 0.182815
0.516859 0.043100 0.185219
0.587336 0.044068 0.187553
0.658342 0.045111 0.189646
0.729850 0.045982 0.191571
0.801591 0.046616 0.193303
0.874064 0.047032 0.194876
0.947011 0.047123 0.196389
0.004563 0.078709 0.149555
0.007798 0.083009 0.157135
0.018900 0.089868 0.168280
0.067923 0.098032 0.186575
0.137307 0.093455 0.195183
0.229719 0.092781 0.184074
0.309339 0.092841 0.180442
0.380427 0.094017 0.181591
0.449476 0.095630 0.183851
0.518873 0.097340 0.186160
0.589073 0.098910 0.188239
0.659722 0.100367 0.190270
0.731094 0.101732 0.192055
0.802813 0.103081 0.193731
0.875173 0.104165 0.195265
0.947656 0.104917 0.196658
0.021327 0.123914 0.193302
0.025207 0.127392 0.197351
0.034741 0.133783 0.202503
0.081498 0.148225 0.205797
0.152984 0.149745 0.209127
0.240277 0.150841 0.192231
0.316130 0.153947 0.183021
0.385202 0.156128 0.183505
0.453459 0.158280 0.185690
0.522252 0.160172 0.187660
0.591853 0.161889 0.189588
0.662153 0.163615 0.191375
0.733202 0.165243 0.193073
0.804666 0.166682 0.194579
0.876740 0.167936 0.196003
0.949345 0.169148 0.197322
0.040977 0.174574 0.239827
0.047473 0.176668 0.242224
0.059279 0.181464 0.244657
0.094774 0.198173 0.239012
0.141528 0.204069 0.238718
0.231556 0.213176 0.224435
0.316022 0.219480 0.200461
0.390502 0.222933 0.190709
0.459642 0.224954 0.190049
0.527852 0.226412 0.191032
0.596730 0.227890 0.192326
0.666555 0.229360 0.193616
0.737001 0.230833 0.194908
0.808187 0.232234 0.196115
0.879936 0.233504 0.197319
0.952093 0.234641 0.198397
0.056533 0.229201 0.289916
0.062372 0.231037 0.291678
0.073429 0.237397 0.289454
0.103814 0.254498 0.275458
0.129709 0.253616 0.288450
0.188664 0.263214 0.279856
0.299414 0.283298 0.238838
0.384173 0.289347 0.212493
0.461437 0.292722 0.198485
0.532976 0.294718 0.195454
0.602641 0.296051 0.195820
0.672003 0.297076 0.196540
0.741923 0.298126 0.197320
0.812674 0.299196 0.198133
0.884099 0.300220 0.198979
0.955647 0.301238 0.199562
0.092176 0.284641 0.339762
0.097265 0.286262 0.341002
0.104641 0.295313 0.331812
0.126926 0.311942 0.312123
0.153687 0.313070 0.322102
0.167450 0.305905 0.353797
0.250544 0.330475 0.310641
0.370108 0.354110 0.248426
0.454129 0.359701 0.221864
0.532049 0.362274 0.205275
0.605208 0.363849 0.199444
0.676116 0.365238 0.199016
0.746715 0.366381 0.199708
0.817396 0.367140 0.200288
0.888245 0.367876 0.200608
0.959403 0.368555 0.201033
0.137621 0.341595 0.389651
0.139314 0.344963 0.386269
0.142215 0.355922 0.370537
0.158339 0.370669 0.348842
0.186448 0.373917 0.352905
0.204592 0.364644 0.391123
0.226648 0.366021 0.410846
0.323033 0.399685 0.332190
