luts/BLADE_RUNNER_2049-ORANGE.cube
LUT_3D_SIZE 6
0.171557 0.014921 0.000006
0.294892 0.016530 0.000012
0.433547 0.024638 0.000041
0.557892 0.041872 0.000110
0.670394 0.066870 0.000218
0.801350 0.101750 0.000392
0.245006 0.101429 0.000009
0.356076 0.105417 0.000014
0.450485 0.080610 0.000066
0.562755 0.090598 0.000134
0.671347 0.107356 0.000236
0.801716 0.135036 0.000401
0.374137 0.245257 0.000047
0.432192 0.246947 0.000058
0.548799 0.251606 0.000086
0.618455 0.210862 0.000183
0.671530 0.180131 0.000259
0.802115 0.201514 0.000405
0.496568 0.385083 0.000150
0.530303 0.385776 0.000159
0.611473 0.387758 0.000198
0.720300 0.391257 0.000274
0.794862 0.358677 0.000401
0.837561 0.305872 0.000449
0.633919 0.513743 0.000590
0.653415 0.513920 0.000612
0.705308 0.514641 0.000684
0.783094 0.516047 0.000827
0.873432 0.518663 0.001052
0.914553 0.513480 0.001396
0.812053 0.630476 0.002087
0.822248 0.630581 0.002124
0.850852 0.631132 0.002237
0.897492 0.632233 0.002450
0.914553 0.634465 0.002797
0.914553 0.640190 0.003340
0.210284 0.018580 0.000155
0.318431 0.021699 0.000204
0.471839 0.037629 0.000272
0.584906 0.083216 0.000379
0.692301 0.102456 0.000467
0.815660 0.126999 0.000624
0.289495 0.099882 0.000249
0.369338 0.106467 0.000277
0.480064 0.113527 0.000321
0.588117 0.122864 0.000383
0.692388 0.134566 0.000467
0.815288 0.154717 0.000621
0.394496 0.245741 0.000326
0.445926 0.247401 0.000337
0.554690 0.251939 0.000372
0.615494 0.211090 0.000408
0.690686 0.197762 0.000458
0.814537 0.214307 0.000600
0.509341 0.385123 0.000434
0.541102 0.385776 0.000446
0.618330 0.387812 0.000486
0.723552 0.391313 0.000564
0.791812 0.355956 0.000631
0.832254 0.300746 0.000579
0.643910 0.513154 0.000870
0.662548 0.513457 0.000895
0.712443 0.514135 0.000964
0.787286 0.515841 0.001100
0.875295 0.518663 0.001308
0.914553 0.511939 0.001578
0.814404 0.630432 0.002250
0.824550 0.630486 0.002283
0.852681 0.631189 0.002392
0.899122 0.632230 0.002595
0.914553 0.634534 0.002925
0.914553 0.640433 0.003451
0.299272 0.037233 0.000737
0.365464 0.044187 0.000790
0.492056 0.054704 0.000926
0.647690 0.057526 0.001092
0.748946 0.113189 0.001112
0.853381 0.167815 0.001291
0.372510 0.122144 0.000844
0.415412 0.126102 0.000887
0.516286 0.130636 0.000995
0.655628 0.135303 0.001113
0.747830 0.169722 0.001145
0.850665 0.205620 0.001325
0.440512 0.242322 0.001055
0.480803 0.245229 0.001080
0.570214 0.253301 0.001144
0.652772 0.249406 0.001138
0.743272 0.246183 0.001148
0.848063 0.250954 0.001238
0.535394 0.385339 0.001202
0.565256 0.385917 0.001223
0.635742 0.388029 0.001267
0.732822 0.391786 0.001345
0.779938 0.344481 0.001185
0.844169 0.309706 0.001045
0.664531 0.512245 0.001588
0.681460 0.512615 0.001606
0.726989 0.513549 0.001665
0.796795 0.515527 0.001773
0.880681 0.518956 0.001942
0.914553 0.505071 0.001999
0.816970 0.630494 0.002663
0.826932 0.630808 0.002694
0.855077 0.631298 0.002788
0.901097 0.632592 0.002970
0.914553 0.634854 0.003265
0.914553 0.641530 0.003751
0.398245 0.077046 0.001811
0.438804 0.083346 0.001853
0.529795 0.096928 0.001973
0.651632 0.108103 0.002180
0.797559 0.113386 0.002462
0.914553 0.158912 0.002561
0.448099 0.152135 0.001912
0.477995 0.154578 0.001949
0.553739 0.160752 0.002052
0.665527 0.167099 0.002239
0.805047 0.171354 0.002494
0.914553 0.206752 0.002557
0.524267 0.259251 0.002062
0.549824 0.263851 0.002102
0.609093 0.271322 0.002213
0.699532 0.275242 0.002370
0.824191 0.279008 0.002563
0.907872 0.296145 0.002530
0.586404 0.380536 0.002400
0.609232 0.381862 0.002415
0.666699 0.385683 0.002462
0.747628 0.392924 0.002552
0.809160 0.376521 0.002391
0.894792 0.365262 0.002312
0.682226 0.512529 0.002665
0.697810 0.512794 0.002675
0.739860 0.513808 0.002706
0.806829 0.515855 0.002776
0.889002 0.519488 0.002902
0.914553 0.481520 0.002492
0.816305 0.631540 0.003372
0.824811 0.631739 0.003378
0.853754 0.632414 0.003451
0.901601 0.633454 0.003603
0.914553 0.635738 0.003850
0.914553 0.643325 0.004274
0.510945 0.142293 0.003667
0.537403 0.146218 0.003694
0.604037 0.155633 0.003773
0.699200 0.168814 0.003902
0.811370 0.181644 0.004087
0.914553 0.200098 0.004355
0.541759 0.198175 0.003710
0.564130 0.200198 0.003736
0.622947 0.205789 0.003803
0.711012 0.215065 0.003923
0.817640 0.224588 0.004097
0.914553 0.239969 0.004361
0.605770 0.298220 0.003769
0.622796 0.299779 0.003790
0.668307 0.303136 0.003847
0.740884 0.308811 0.003954
0.834400 0.314346 0.004112
0.914553 0.322016 0.004383
0.676451 0.401652 0.003878
0.691304 0.403253 0.003881
0.730037 0.407851 0.003888
0.783572 0.411587 0.004005
0.861150 0.414230 0.004170
0.914553 0.418482 0.004425
0.731502 0.509118 0.004160
0.743154 0.509538 0.004168
0.776008 0.511098 0.004192
0.830118 0.514397 0.004243
0.902116 0.520713 0.004350
0.914553 0.494211 0.003987
0.829842 0.632200 0.004638
0.837965 0.632561 0.004643
0.861618 0.633390 0.004656
0.902524 0.634916 0.004677
0.914553 0.637227 0.004797
0.914553 0.646359 0.005122
0.664271 0.260409 0.006296
0.680466 0.263130 0.006303
0.724322 0.270643 0.006324
0.792462 0.283223 0.006361
0.876020 0.299464 0.006414
0.914585 0.313167 0.006502
0.684376 0.297065 0.006262
0.698813 0.299106 0.006268
0.738993 0.304828 0.006287
0.802360 0.314413 0.006326
0.881437 0.326373 0.006385
0.914553 0.336244 0.006485
0.726917 0.371424 0.006179
0.738369 0.372324 0.006188
0.770783 0.374934 0.006214
0.824451 0.379317 0.006263
0.894480 0.384767 0.006338
0.914553 0.388403 0.006452
0.781897 0.458776 0.006099
0.787903 0.457614 0.006112
0.805822 0.453356 0.006152
0.850628 0.455082 0.006211
0.913572 0.457923 0.006299
0.914553 0.459949 0.006428
0.837453 0.546936 0.006205
0.843930 0.546848 0.006204
0.863226 0.546596 0.006199
0.896742 0.546407 0.006180
0.914553 0.543401 0.006284
0.914553 0.545059 0.006431
0.892911 0.636761 0.006406
0.898172 0.636806 0.006408
0.913430 0.637238 0.006415
0.914568 0.638014 0.006431
0.914553 0.639086 0.006457
0.914553 0.650574 0.006534
