luts/BLADE_RUNNER_2049-ORANGE.cube
LUT_3D_SIZE 16
0.171557 0.014921 0.000006
0.188889 0.014673 0.000006
0.247747 0.013999 0.000006
0.294892 0.016530 0.000012
0.341435 0.018981 0.000018
0.388003 0.021329 0.000028
0.433547 0.024638 0.000041
0.477149 0.029187 0.000058
0.518560 0.035073 0.000081
0.557892 0.041872 0.000110
0.595081 0.049547 0.000141
0.631927 0.057892 0.000178
0.670394 0.066870 0.000218
0.711409 0.076677 0.000267
0.755557 0.087742 0.000323
0.801350 0.101750 0.000392
0.171589 0.028824 0.000004
0.219783 0.029869 0.000005
0.262532 0.028378 0.000010
0.303989 0.028628 0.000015
0.348333 0.030032 0.000022
0.392741 0.032290 0.000030
0.436908 0.035368 0.000044
0.479542 0.039631 0.000063
0.520117 0.045004 0.000087
0.558856 0.051137 0.000114
0.595712 0.058291 0.000146
0.632243 0.066037 0.000181
0.670526 0.074451 0.000223
0.711516 0.083934 0.000270
0.755524 0.094711 0.000325
0.801445 0.108181 0.000394
0.207456 0.058957 0.000006
0.242956 0.059947 0.000007
0.288887 0.061514 0.000008
0.329341 0.056171 0.000015
0.359580 0.049681 0.000027
0.400738 0.050983 0.000039
0.442605 0.053782 0.000053
0.483475 0.057315 0.000071
0.522789 0.061825 0.000094
0.560565 0.067120 0.000122
0.596701 0.073210 0.000153
0.632847 0.079912 0.000188
0.670877 0.087834 0.000228
0.711717 0.096528 0.000275
0.755832 0.106634 0.000329
0.801565 0.119096 0.000398
0.245006 0.101429 0.000009
0.271643 0.102265 0.000010
0.309282 0.103472 0.000012
0.356076 0.105417 0.000014
0.396697 0.099837 0.000024
0.423028 0.087261 0.000045
0.450485 0.080610 0.000066
0.488962 0.083173 0.000086
0.526329 0.086485 0.000109
0.562755 0.090598 0.000134
0.597881 0.095279 0.000163
0.633632 0.100994 0.000197
0.671347 0.107356 0.000236
0.711765 0.114973 0.000280
0.755821 0.123765 0.000333
0.801716 0.135036 0.000401
0.287640 0.149191 0.000015
0.307131 0.149639 0.000016
0.336910 0.150500 0.000017
0.376515 0.151973 0.000022
0.422131 0.153886 0.000027
0.464098 0.150958 0.000040
0.485896 0.134466 0.000071
0.504868 0.121025 0.000098
0.530517 0.116089 0.000123
0.565217 0.118483 0.000149
0.599287 0.121459 0.000177
0.634486 0.125405 0.000208
0.671693 0.130534 0.000244
0.711918 0.136800 0.000287
0.755821 0.144531 0.000338
0.801749 0.154925 0.000403
0.331098 0.197322 0.000028
0.345684 0.197682 0.000029
0.369310 0.198283 0.000030
0.402660 0.199372 0.000036
0.442447 0.200893 0.000042
0.486441 0.202776 0.000051
0.530517 0.203402 0.000064
0.547805 0.182983 0.000105
0.561863 0.165689 0.000139
0.573182 0.150418 0.000162
0.600624 0.148320 0.000190
0.634961 0.151140 0.000219
0.671829 0.155290 0.000253
0.711929 0.160694 0.000292
0.755832 0.167870 0.000343
0.802021 0.177506 0.000407
0.374137 0.245257 0.000047
0.385592 0.245581 0.000048
0.404520 0.246120 0.000051
0.432192 0.246947 0.000058
0.466778 0.248076 0.000064
0.506152 0.249659 0.000071
0.548799 0.251606 0.000086
0.592326 0.252966 0.000099
0.608728 0.232139 0.000146
0.618455 0.210862 0.000183
0.626432 0.192340 0.000209
0.635069 0.176553 0.000227
0.671530 0.180131 0.000259
0.711553 0.185180 0.000295
0.755413 0.192050 0.000342
0.802115 0.201514 0.000405
0.415986 0.292839 0.000072
0.424824 0.292984 0.000074
0.440632 0.293393 0.000077
0.463780 0.294077 0.000083
0.493617 0.294995 0.000090
0.528783 0.296196 0.000098
0.567394 0.297728 0.000113
0.608667 0.299536 0.000126
0.650793 0.301031 0.000147
0.668665 0.281801 0.000191
0.676270 0.257996 0.000232
0.683803 0.237469 0.000259
0.691777 0.219337 0.000277
0.710482 0.209481 0.000292
0.754798 0.216557 0.000337
0.802522 0.226269 0.000399
0.456367 0.339142 0.000104
0.463480 0.339379 0.000107
0.476401 0.339734 0.000109
0.496251 0.340163 0.000115
0.522131 0.340900 0.000121
0.553068 0.341839 0.000131
0.588046 0.343111 0.000145
0.625844 0.344538 0.000161
0.665691 0.346052 0.000183
0.706382 0.347618 0.000207
0.728751 0.332650 0.000252
0.736569 0.307981 0.000294
0.744845 0.286397 0.000322
0.754444 0.267259 0.000337
0.767249 0.250880 0.000344
0.803099 0.251343 0.000384
0.496568 0.385083 0.000150
0.502572 0.385205 0.000152
0.513482 0.385432 0.000154
0.530303 0.385776 0.000159
0.552793 0.386291 0.000169
0.580185 0.386959 0.000182
0.611473 0.387758 0.000198
0.645750 0.388793 0.000219
0.682203 0.389944 0.000242
0.720300 0.391257 0.000274
0.759154 0.392640 0.000311
0.785928 0.383006 0.000364
0.794862 0.358677 0.000401
0.805173 0.337436 0.000423
0.818373 0.319424 0.000437
0.837561 0.305872 0.000449
0.539044 0.429397 0.000230
0.544075 0.429479 0.000232
0.553136 0.429627 0.000237
0.567194 0.429926 0.000244
0.586634 0.430226 0.000255
0.610388 0.430751 0.000272
0.638041 0.431264 0.000291
0.668877 0.431991 0.000316
0.701987 0.432820 0.000346
0.736858 0.433759 0.000384
0.772752 0.434905 0.000428
0.809296 0.436171 0.000480
0.840039 0.432204 0.000555
0.851092 0.409860 0.000583
0.864854 0.391108 0.000600
0.884001 0.377133 0.000623
0.584395 0.472248 0.000366
0.588605 0.472252 0.000370
0.596099 0.472431 0.000375
0.608114 0.472645 0.000386
0.624316 0.472888 0.000398
0.644911 0.473127 0.000417
0.669083 0.473554 0.000444
0.696308 0.474138 0.000472
0.725886 0.474714 0.000512
0.757298 0.475400 0.000556
0.790061 0.476380 0.000609
0.823607 0.477384 0.000675
0.857541 0.478506 0.000748
0.891108 0.479977 0.000878
0.905287 0.461575 0.000899
0.914553 0.448044 0.000930
0.633919 0.513743 0.000590
0.637234 0.513780 0.000593
0.643472 0.513800 0.000600
0.653415 0.513920 0.000612
0.667176 0.514121 0.000631
0.684529 0.514397 0.000654
0.705308 0.514641 0.000684
0.728972 0.515051 0.000725
0.755066 0.515479 0.000770
0.783094 0.516047 0.000827
0.812259 0.516764 0.000893
0.842424 0.517658 0.000968
0.873432 0.518663 0.001052
0.904238 0.519937 0.001147
0.914553 0.523357 0.001326
0.914553 0.513480 0.001396
0.688991 0.553867 0.000937
0.691719 0.553923 0.000942
0.696770 0.553956 0.000951
0.704925 0.554010 0.000966
0.716101 0.554134 0.000988
0.730465 0.554350 0.001015
0.747887 0.554550 0.001050
0.767958 0.554892 0.001096
0.790255 0.555217 0.001147
0.814437 0.555774 0.001211
0.840116 0.556414 0.001282
0.866796 0.557149 0.001363
0.894365 0.558153 0.001457
0.914553 0.559321 0.001559
0.914553 0.560553 0.001674
0.914553 0.565030 0.001900
0.747720 0.592856 0.001419
0.749934 0.592865 0.001424
0.753979 0.592938 0.001433
0.760446 0.592880 0.001449
0.769595 0.592969 0.001472
0.781299 0.593239 0.001503
0.795595 0.593512 0.001545
0.812326 0.593727 0.001593
0.831055 0.594143 0.001652
0.851717 0.594654 0.001720
0.873823 0.595137 0.001802
0.896973 0.595894 0.001892
0.914553 0.596823 0.001996
0.914553 0.597961 0.002112
0.914553 0.599156 0.002242
0.914553 0.600659 0.002386
0.812053 0.630476 0.002087
0.813829 0.630508 0.002093
0.816992 0.630492 0.002105
0.822248 0.630581 0.002124
0.829533 0.630815 0.002150
0.839171 0.630899 0.002190
0.850852 0.631132 0.002237
0.864740 0.631428 0.002294
0.880327 0.631860 0.002367
0.897492 0.632233 0.002450
0.914553 0.632858 0.002551
0.914553 0.633388 0.002665
0.914553 0.634465 0.002797
0.914553 0.635571 0.002950
0.914553 0.636825 0.003127
0.914553 0.640190 0.003340
0.173560 0.014707 0.000017
0.204276 0.013433 0.000025
0.260940 0.013031 0.000030
0.304833 0.018648 0.000039
0.350310 0.027036 0.000057
0.396845 0.030269 0.000069
0.441804 0.034695 0.000087
0.484578 0.039732 0.000108
0.525272 0.045542 0.000132
0.563737 0.052120 0.000159
0.600465 0.059052 0.000192
0.636683 0.066693 0.000226
0.674622 0.074911 0.000266
0.715062 0.083856 0.000311
0.758837 0.094193 0.000366
0.804084 0.107196 0.000435
0.184333 0.028486 0.000029
0.225360 0.030106 0.000034
0.267695 0.032177 0.000041
0.312582 0.034660 0.000048
0.356862 0.037685 0.000061
0.401376 0.040873 0.000075
0.444674 0.044908 0.000091
0.486661 0.049443 0.000113
0.526651 0.054845 0.000137
0.564534 0.060735 0.000162
0.600879 0.067292 0.000195
0.636889 0.074279 0.000229
0.674767 0.082032 0.000268
0.715130 0.090646 0.000313
0.758765 0.100653 0.000366
0.804083 0.113154 0.000435
0.217519 0.059403 0.000040
0.250179 0.060276 0.000042
0.292467 0.061738 0.000044
0.330280 0.057494 0.000057
0.366807 0.056487 0.000069
0.408453 0.059010 0.000083
0.449920 0.062271 0.000098
0.490087 0.066037 0.000120
0.528758 0.070484 0.000144
0.565909 0.075688 0.000169
0.601575 0.081281 0.000199
0.637391 0.087572 0.000234
0.675088 0.094771 0.000272
0.715352 0.102804 0.000317
0.758909 0.111899 0.000370
0.804124 0.123611 0.000438
0.256742 0.101817 0.000047
0.279870 0.102494 0.000049
0.314672 0.103675 0.000053
0.358755 0.105598 0.000058
0.397214 0.100051 0.000070
0.424064 0.090080 0.000092
0.457024 0.087852 0.000111
0.494913 0.090557 0.000129
0.531961 0.093908 0.000153
0.567897 0.097971 0.000180
0.602421 0.102123 0.000207
0.637874 0.107264 0.000241
0.675247 0.113155 0.000278
0.715476 0.120118 0.000321
0.758837 0.128219 0.000373
0.804123 0.138938 0.000440
0.296773 0.149347 0.000059
0.314198 0.149802 0.000061
0.342313 0.150638 0.000065
0.380105 0.152066 0.000068
0.423847 0.153980 0.000077
0.463933 0.150376 0.000091
0.486120 0.135499 0.000120
0.505267 0.123293 0.000143
0.535496 0.121775 0.000162
0.569952 0.123968 0.000190
0.603567 0.126794 0.000218
0.638461 0.130524 0.000247
0.675442 0.135241 0.000284
0.715466 0.141041 0.000326
0.758724 0.148406 0.000376
0.804109 0.158265 0.000443
0.337846 0.197395 0.000074
0.351442 0.197621 0.000077
0.373953 0.198379 0.000081
0.406226 0.199427 0.000085
0.444779 0.200955 0.000091
0.487807 0.202872 0.000101
0.530082 0.202367 0.000117
0.547653 0.183125 0.000153
0.561862 0.166643 0.000181
0.573173 0.151839 0.000200
0.604533 0.152600 0.000227
0.638776 0.155233 0.000256
0.675367 0.159037 0.000289
0.715238 0.164092 0.000329
0.758568 0.170918 0.000378
0.804118 0.180214 0.000442
0.379055 0.245320 0.000095
0.389680 0.245701 0.000096
0.408347 0.246120 0.000098
0.435485 0.247004 0.000105
0.469107 0.248195 0.000113
0.507792 0.249758 0.000122
0.549849 0.251580 0.000136
0.592926 0.253159 0.000151
0.608271 0.231830 0.000192
0.617969 0.211177 0.000225
0.626027 0.192874 0.000244
0.638725 0.180076 0.000260
0.674893 0.183402 0.000291
0.714726 0.188202 0.000330
0.757991 0.194695 0.000375
0.804319 0.203818 0.000439
0.419449 0.292827 0.000120
0.428322 0.293081 0.000121
0.443343 0.293510 0.000125
0.466391 0.294133 0.000130
0.495756 0.295034 0.000138
0.530358 0.296244 0.000149
0.568560 0.297757 0.000160
0.609617 0.299504 0.000178
0.651282 0.301031 0.000197
0.668055 0.281220 0.000238
0.675773 0.257817 0.000275
0.683266 0.237519 0.000294
0.691253 0.219505 0.000305
0.713546 0.212024 0.000324
0.757189 0.218758 0.000367
0.804501 0.228198 0.000430
0.459155 0.339268 0.000152
0.466161 0.339387 0.000155
0.478848 0.339744 0.000158
0.498433 0.340178 0.000161
0.523951 0.340900 0.000171
0.554613 0.342003 0.000180
0.589243 0.343155 0.000194
0.626857 0.344481 0.000211
0.666339 0.346128 0.000234
0.706890 0.347618 0.000258
0.728079 0.332133 0.000301
0.736211 0.307671 0.000336
0.744414 0.286135 0.000356
0.753743 0.266890 0.000366
0.766315 0.250275 0.000368
0.805028 0.253034 0.000411
0.499060 0.385083 0.000197
0.504871 0.385208 0.000199
0.515606 0.385421 0.000202
0.532281 0.385735 0.000208
0.554528 0.386291 0.000220
0.581667 0.386959 0.000232
0.612585 0.387758 0.000246
0.646697 0.388793 0.000269
0.683082 0.389944 0.000292
0.720826 0.391244 0.000325
0.759567 0.392648 0.000362
0.785500 0.382468 0.000410
0.794354 0.358252 0.000443
0.804526 0.336979 0.000457
0.817640 0.318921 0.000464
0.836783 0.305110 0.000471
0.541205 0.429354 0.000280
0.546240 0.429434 0.000281
0.555052 0.429628 0.000286
0.569259 0.429816 0.000294
0.588353 0.430226 0.000305
0.611957 0.430709 0.000321
0.639412 0.431256 0.000341
0.669996 0.431955 0.000367
0.702843 0.432820 0.000396
0.737472 0.433828 0.000434
0.773277 0.434905 0.000476
0.809664 0.436224 0.000529
0.839656 0.431695 0.000602
0.850645 0.409472 0.000623
0.864445 0.390666 0.000635
0.883526 0.376514 0.000651
0.586345 0.472243 0.000416
0.590476 0.472299 0.000420
0.597904 0.472307 0.000427
0.609770 0.472529 0.000436
0.625888 0.472832 0.000449
0.646389 0.473123 0.000468
0.670230 0.473514 0.000493
0.697459 0.474080 0.000523
0.726786 0.474657 0.000562
0.758066 0.475432 0.000607
0.790800 0.476298 0.000660
0.824045 0.477384 0.000726
0.857720 0.478490 0.000799
0.891002 0.479624 0.000926
0.904996 0.461322 0.000936
0.914553 0.447643 0.000961
0.635599 0.513646 0.000638
0.639163 0.513646 0.000642
0.645287 0.513743 0.000650
0.655082 0.513800 0.000661
0.668677 0.514055 0.000679
0.685881 0.514315 0.000703
0.706606 0.514616 0.000734
0.730010 0.514972 0.000771
0.755975 0.515404 0.000819
0.783792 0.516000 0.000875
0.812952 0.516790 0.000940
0.842941 0.517639 0.001015
0.873666 0.518663 0.001100
0.904425 0.519969 0.001194
0.914553 0.523521 0.001367
0.914553 0.513192 0.001429
0.690439 0.553672 0.000983
0.693209 0.553719 0.000988
0.698158 0.553867 0.000997
0.706232 0.553948 0.001012
0.717433 0.554062 0.001032
0.731591 0.554243 0.001059
0.748826 0.554427 0.001095
0.768899 0.554718 0.001137
0.790960 0.555176 0.001191
0.815158 0.555707 0.001250
0.840693 0.556409 0.001322
0.867225 0.557142 0.001404
0.894663 0.558153 0.001494
0.914553 0.559321 0.001596
0.914553 0.560621 0.001710
0.914553 0.565178 0.001936
0.748715 0.592778 0.001454
0.750835 0.592816 0.001460
0.754848 0.592856 0.001470
0.761300 0.592976 0.001485
0.770380 0.592954 0.001509
0.782065 0.593215 0.001541
0.796272 0.593362 0.001580
0.812952 0.593626 0.001627
0.831598 0.594117 0.001686
0.852276 0.594595 0.001755
0.874160 0.595127 0.001834
0.897315 0.595896 0.001925
0.914553 0.596823 0.002027
0.914553 0.597961 0.002141
0.914553 0.599156 0.002271
0.914553 0.600719 0.002413
0.812650 0.630456 0.002115
0.814296 0.630475 0.002121
0.817577 0.630423 0.002132
0.822640 0.630570 0.002152
0.830034 0.630811 0.002180
0.839451 0.630897 0.002217
0.851169 0.631175 0.002263
0.864967 0.631427 0.002322
0.880618 0.631771 0.002393
0.897703 0.632232 0.002475
0.914553 0.632857 0.002574
0.914553 0.633532 0.002689
0.914553 0.634485 0.002819
0.914553 0.635633 0.002972
0.914553 0.636753 0.003149
0.914553 0.640292 0.003361
0.183816 0.014871 0.000069
0.216264 0.015545 0.000076
0.260909 0.015890 0.000089
0.319161 0.015807 0.000108
0.367413 0.021765 0.000116
0.410475 0.032670 0.000135
0.453216 0.044720 0.000164
0.494975 0.053853 0.000194
0.534916 0.059326 0.000218
0.572646 0.065673 0.000244
0.608572 0.072227 0.000274
0.644261 0.079341 0.000307
0.681661 0.086680 0.000344
0.721677 0.094494 0.000387
0.764402 0.103694 0.000440
0.808423 0.115436 0.000508
0.213180 0.031262 0.000083
0.239900 0.033233 0.000091
0.277126 0.034233 0.000105
0.330738 0.034504 0.000119
0.371033 0.042158 0.000128
0.413174 0.051018 0.000153
0.455650 0.057715 0.000175
0.496775 0.062606 0.000196
0.535974 0.067873 0.000221
0.573290 0.073610 0.000246
0.608905 0.079874 0.000277
0.644324 0.086456 0.000309
0.681769 0.093393 0.000345
0.721776 0.100994 0.000389
0.764482 0.109722 0.000441
0.808514 0.121067 0.000508
0.236472 0.058217 0.000111
0.263297 0.059645 0.000116
0.298647 0.062050 0.000123
0.337207 0.064501 0.000134
0.377759 0.067147 0.000147
0.419201 0.070342 0.000161
0.460134 0.074062 0.000182
0.499749 0.078122 0.000201
0.537938 0.082701 0.000226
0.574496 0.087667 0.000251
0.609527 0.093170 0.000281
0.644655 0.098861 0.000311
0.681865 0.105311 0.000346
0.721598 0.112098 0.000389
0.764294 0.120118 0.000442
0.808319 0.130752 0.000509
0.267805 0.102143 0.000127
0.289817 0.102816 0.000132
0.321814 0.104175 0.000137
0.362906 0.105904 0.000143
0.397553 0.100407 0.000156
0.428588 0.096145 0.000171
0.466568 0.098639 0.000189
0.504085 0.101586 0.000208
0.540657 0.105048 0.000233
0.576045 0.108630 0.000258
0.610232 0.112486 0.000285
0.645112 0.116958 0.000316
0.681954 0.122148 0.000349
0.721742 0.128046 0.000392
0.764184 0.135435 0.000444
0.808316 0.145249 0.000509
0.307600 0.149711 0.000146
0.323494 0.150123 0.000148
0.349494 0.150958 0.000152
0.385037 0.152347 0.000156
0.427133 0.154224 0.000164
0.463533 0.149300 0.000182
0.486140 0.136727 0.000200
0.509290 0.128869 0.000218
0.543936 0.130535 0.000239
0.577859 0.132773 0.000264
0.611048 0.135276 0.000290
0.645579 0.138525 0.000321
0.682024 0.142781 0.000353
0.721487 0.147934 0.000394
0.763866 0.154519 0.000443
0.808488 0.163749 0.000509
0.346460 0.197562 0.000162
0.359221 0.197897 0.000163
0.380538 0.198540 0.000168
0.411106 0.199636 0.000174
0.448510 0.201076 0.000182
0.490303 0.203056 0.000192
0.529338 0.200874 0.000209
0.546898 0.183058 0.000237
0.561343 0.167712 0.000253
0.579519 0.158304 0.000270
0.611772 0.159701 0.000293
0.645544 0.161960 0.000323
0.681758 0.165451 0.000354
0.721113 0.170007 0.000394
0.763461 0.176272 0.000442
0.808310 0.184934 0.000506
0.385897 0.245486 0.000184
0.396089 0.245841 0.000186
0.413822 0.246303 0.000190
0.440095 0.247110 0.000194
0.472762 0.248324 0.000201
0.510504 0.249801 0.000212
0.551763 0.251803 0.000227
0.594222 0.253354 0.000241
0.607406 0.231098 0.000276
0.617177 0.211177 0.000295
0.625265 0.193576 0.000307
0.645301 0.186052 0.000324
0.681079 0.188942 0.000352
0.720357 0.193282 0.000390
0.762761 0.199279 0.000436
0.808251 0.207888 0.000501
0.425004 0.292946 0.000207
0.433445 0.293188 0.000210
0.447956 0.293561 0.000214
0.470447 0.294221 0.000221
0.499181 0.295213 0.000229
0.533073 0.296311 0.000238
0.570735 0.297866 0.000250
0.610989 0.299624 0.000268
0.652304 0.301050 0.000287
0.666913 0.280161 0.000323
0.674771 0.257326 0.000346
0.682024 0.237294 0.000358
0.689843 0.219337 0.000358
0.719003 0.216572 0.000382
0.761845 0.222853 0.000424
0.808231 0.231757 0.000487
0.463780 0.339319 0.000240
0.470710 0.339497 0.000242
0.483108 0.339765 0.000245
0.502010 0.340248 0.000252
0.527124 0.340958 0.000260
0.557471 0.342003 0.000271
0.591500 0.343172 0.000284
0.628529 0.344574 0.000301
0.667743 0.346160 0.000324
0.707731 0.347664 0.000350
0.727319 0.331008 0.000388
0.735090 0.306897 0.000408
0.743072 0.285463 0.000420
0.752187 0.266062 0.000419
0.764464 0.249161 0.000409
0.808533 0.256012 0.000466
0.503196 0.385083 0.000286
0.508875 0.385205 0.000289
0.519465 0.385421 0.000292
0.535767 0.385735 0.000299
0.557684 0.386280 0.000309
0.584356 0.386982 0.000322
0.614915 0.387770 0.000339
0.648597 0.388793 0.000359
0.684489 0.390015 0.000384
0.721956 0.391257 0.000416
0.760312 0.392649 0.000455
0.784602 0.381383 0.000499
0.793527 0.357489 0.000516
0.803404 0.336147 0.000521
0.816327 0.317777 0.000516
0.835080 0.303540 0.000515
0.544903 0.429319 0.000370
0.549869 0.429373 0.000373
0.558659 0.429517 0.000377
0.572494 0.429782 0.000386
0.591205 0.430163 0.000397
0.614523 0.430662 0.000410
0.641654 0.431256 0.000433
0.671902 0.431921 0.000457
0.704456 0.432784 0.000488
0.738645 0.433759 0.000526
0.774182 0.434905 0.000571
0.810201 0.436259 0.000621
0.839059 0.430727 0.000688
0.849799 0.408621 0.000695
0.863437 0.389765 0.000694
0.882167 0.375381 0.000700
0.589782 0.472123 0.000507
0.593920 0.472121 0.000510
0.601193 0.472248 0.000516
0.612965 0.472431 0.000526
0.628829 0.472633 0.000538
0.648936 0.473014 0.000558
0.672699 0.473365 0.000585
0.699346 0.473993 0.000613
0.728482 0.474609 0.000653
0.759458 0.475353 0.000696
0.791748 0.476298 0.000752
0.824837 0.477326 0.000815
0.858221 0.478490 0.000888
0.890462 0.479042 0.001009
0.904259 0.460666 0.001008
0.914553 0.446894 0.001020
0.638804 0.513475 0.000727
0.642219 0.513549 0.000732
0.648252 0.513631 0.000739
0.657978 0.513743 0.000750
0.671536 0.513834 0.000767
0.688496 0.514121 0.000793
0.708835 0.514520 0.000823
0.732087 0.514831 0.000860
0.757690 0.515327 0.000909
0.785089 0.515891 0.000962
0.814086 0.516767 0.001026
0.843923 0.517553 0.001098
0.874235 0.518663 0.001180
0.904954 0.519969 0.001270
0.914553 0.523778 0.001446
0.914553 0.512781 0.001486
0.693019 0.553607 0.001064
0.695637 0.553575 0.001069
0.700538 0.553639 0.001078
0.708456 0.553719 0.001092
0.719431 0.553956 0.001112
0.733673 0.554117 0.001138
0.750640 0.554263 0.001173
0.770422 0.554628 0.001216
0.792310 0.555106 0.001265
0.816327 0.555658 0.001328
0.841574 0.556309 0.001396
0.868137 0.557094 0.001475
0.895222 0.558103 0.001564
0.914553 0.559321 0.001665
0.914553 0.560620 0.001775
0.914553 0.565375 0.001997
0.750177 0.592615 0.001523
0.752404 0.592641 0.001528
0.756271 0.592703 0.001537
0.762756 0.592856 0.001553
0.771743 0.592991 0.001577
0.783429 0.593013 0.001605
0.797582 0.593248 0.001645
0.814022 0.593695 0.001692
0.832762 0.594133 0.001748
0.853031 0.594538 0.001817
0.874872 0.595167 0.001894
0.898022 0.595896 0.001982
0.914553 0.596823 0.002084
0.914553 0.597923 0.002198
0.914553 0.599181 0.002323
0.914553 0.600758 0.002462
0.813332 0.630446 0.002166
0.815191 0.630454 0.002173
0.818350 0.630505 0.002184
0.823452 0.630490 0.002204
0.830636 0.630680 0.002231
0.840174 0.630973 0.002267
0.851787 0.631143 0.002312
0.865501 0.631368 0.002372
0.881103 0.631770 0.002438
0.898334 0.632231 0.002524
0.914553 0.632857 0.002618
0.914553 0.633532 0.002732
0.914553 0.634485 0.002862
0.914553 0.635609 0.003013
0.914553 0.636774 0.003187
0.914553 0.640379 0.003396
0.210284 0.018580 0.000155
0.233957 0.019108 0.000162
0.270040 0.020178 0.000179
0.318431 0.021699 0.000204
0.376184 0.022198 0.000237
0.432384 0.024216 0.000260
0.471839 0.037629 0.000272
0.510564 0.051931 0.000295
0.548462 0.067337 0.000335
0.584906 0.083216 0.000379
0.620353 0.089723 0.000403
0.655464 0.096069 0.000434
0.692301 0.102456 0.000467
0.731598 0.108933 0.000509
0.772964 0.116755 0.000558
0.815660 0.126999 0.000624
0.238704 0.036412 0.000181
0.257274 0.037291 0.000187
0.288021 0.038684 0.000200
0.330916 0.039999 0.000224
0.384869 0.040205 0.000251
0.434213 0.044187 0.000267
0.473223 0.055535 0.000281
0.511627 0.068420 0.000311
0.548946 0.082189 0.000347
0.585798 0.091102 0.000379
0.620659 0.096869 0.000404
0.655581 0.102708 0.000435
0.692388 0.108663 0.000468
0.731517 0.114635 0.000509
0.772891 0.122191 0.000559
0.815587 0.132292 0.000624
0.266603 0.060947 0.000204
0.286961 0.063619 0.000212
0.312289 0.066367 0.000229
0.347657 0.067582 0.000245
0.397756 0.067663 0.000270
0.437297 0.074911 0.000281
0.475264 0.084673 0.000302
0.512896 0.095542 0.000336
0.550796 0.099681 0.000357
0.586723 0.104269 0.000381
0.621128 0.108833 0.000405
0.655838 0.114001 0.000437
0.692338 0.119118 0.000468
0.731500 0.124770 0.000509
0.772670 0.131709 0.000557
0.815523 0.141176 0.000622
0.289495 0.099882 0.000249
0.306841 0.101269 0.000256
0.333915 0.103335 0.000264
0.369338 0.106467 0.000277
0.404910 0.108350 0.000288
0.442384 0.110815 0.000302
0.480064 0.113527 0.000321
0.517299 0.116509 0.000339
0.553397 0.119661 0.000360
0.588117 0.122864 0.000383
0.621714 0.126428 0.000407
0.656074 0.130269 0.000437
0.692388 0.134566 0.000467
0.731541 0.139498 0.000509
0.772334 0.145874 0.000556
0.815288 0.154717 0.000621
0.316923 0.150055 0.000280
0.332893 0.150500 0.000282
0.357740 0.151381 0.000286
0.391784 0.152680 0.000293
0.431667 0.154695 0.000302
0.463067 0.147794 0.000316
0.487568 0.140126 0.000325
0.522134 0.141457 0.000342
0.556484 0.143197 0.000364
0.589669 0.145121 0.000384
0.622409 0.147492 0.000408
0.656258 0.150310 0.000437
0.692245 0.153796 0.000468
0.730999 0.157937 0.000506
0.772128 0.163817 0.000554
0.815170 0.172063 0.000618
0.355693 0.197869 0.000300
0.368276 0.198241 0.000303
0.388568 0.198862 0.000308
0.417657 0.199935 0.000314
0.453349 0.201535 0.000323
0.493866 0.203384 0.000335
0.528260 0.198162 0.000349
0.545537 0.182580 0.000361
0.559863 0.168983 0.000363
0.591137 0.169305 0.000385
0.622788 0.170366 0.000406
0.656175 0.172450 0.000436
0.691829 0.175140 0.000464
0.730461 0.179059 0.000503
0.771330 0.184396 0.000546
0.814899 0.192297 0.000611
0.394496 0.245741 0.000326
0.404012 0.246045 0.000328
0.420932 0.246523 0.000331
0.445926 0.247401 0.000337
0.477583 0.248556 0.000345
0.514396 0.250032 0.000356
0.554690 0.251939 0.000372
0.592926 0.250470 0.000388
0.605798 0.229722 0.000404
0.615494 0.211090 0.000408
0.623448 0.194440 0.000404
0.655628 0.195326 0.000430
0.690686 0.197762 0.000458
0.729405 0.201352 0.000493
0.770464 0.206524 0.000536
0.814537 0.214307 0.000600
0.432376 0.293081 0.000351
0.440590 0.293285 0.000353
0.454734 0.293715 0.000356
0.476254 0.294454 0.000363
0.504085 0.295236 0.000373
0.537030 0.296582 0.000383
0.573905 0.298008 0.000398
0.613479 0.299777 0.000413
