luts/BLADE_RUNNER_2049-BLUE.cube
LUT_3D_SIZE 16
0.019045 0.037648 0.080951
0.042730 0.063072 0.116254
0.072252 0.091795 0.151659
0.114993 0.124809 0.191232
0.161760 0.157822 0.228870
0.206250 0.190204 0.264654
0.248287 0.221910 0.298795
0.288333 0.253721 0.332714
0.326052 0.284770 0.365535
0.362482 0.315550 0.397694
0.398116 0.346360 0.429380
0.434144 0.377783 0.461494
0.470445 0.409865 0.493775
0.507437 0.442631 0.526208
0.546548 0.477265 0.559942
0.595288 0.520450 0.601539
0.035002 0.097895 0.153865
0.059080 0.103623 0.153186
0.095374 0.109595 0.170049
0.130249 0.134949 0.201210
0.171817 0.164274 0.234737
0.213894 0.195322 0.269163
0.254382 0.226333 0.302723
0.292738 0.257008 0.335497
0.329460 0.287472 0.367882
0.365342 0.317809 0.399653
0.400558 0.348285 0.431081
0.436060 0.379403 0.462878
0.472066 0.411174 0.494915
0.509009 0.443854 0.527231
0.547864 0.478315 0.560875
0.596546 0.521460 0.602361
0.054602 0.167415 0.212964
0.070040 0.169461 0.210947
0.129585 0.177171 0.204755
0.185119 0.176899 0.217102
0.214893 0.193843 0.254852
0.245981 0.217265 0.285209
0.278316 0.243849 0.316972
0.311482 0.271213 0.347530
0.343700 0.298687 0.377432
0.376853 0.327009 0.407464
0.410409 0.356362 0.438137
0.444244 0.386219 0.468706
0.479102 0.417170 0.499855
0.515233 0.448946 0.531345
0.553549 0.482854 0.564439
0.601836 0.525670 0.605664
0.092023 0.238813 0.286688
0.103721 0.239947 0.285886
0.148917 0.244691 0.275213
0.214744 0.252829 0.269964
0.266091 0.250544 0.273719
0.294953 0.259705 0.308896
0.319220 0.276767 0.339898
0.344616 0.297489 0.367430
0.370695 0.320219 0.394901
0.399008 0.344931 0.422235
0.429041 0.371621 0.450863
0.460646 0.399453 0.479686
0.493317 0.428384 0.509009
0.527900 0.459074 0.539442
0.565001 0.491981 0.571652
0.612377 0.534026 0.612103
0.144582 0.302596 0.354299
0.153026 0.303383 0.352941
0.184494 0.306336 0.348400
0.230650 0.313438 0.332006
0.289873 0.320669 0.335163
0.338285 0.317372 0.335925
0.365684 0.322493 0.365695
0.386498 0.334940 0.392752
0.407337 0.351213 0.417060
0.430873 0.371345 0.442136
0.456866 0.394257 0.468256
0.484900 0.418961 0.494658
0.514966 0.445716 0.522406
0.547400 0.474414 0.551125
0.582654 0.505733 0.581961
0.628411 0.546574 0.621529
0.196470 0.362249 0.410739
0.202199 0.362865 0.410197
0.224376 0.365045 0.407868
0.258790 0.369663 0.398568
0.300759 0.376642 0.388377
0.356793 0.383052 0.392183
0.405084 0.378354 0.391606
0.430086 0.381314 0.415702
0.449071 0.390474 0.439600
0.469280 0.405153 0.463704
0.491666 0.423472 0.487563
0.516321 0.444886 0.512612
0.543421 0.468716 0.538558
0.573047 0.495117 0.565998
0.606183 0.524573 0.595549
0.650087 0.563913 0.633977
0.242831 0.418892 0.458634
0.246939 0.419224 0.458308
0.263129 0.420941 0.457149
0.289242 0.424137 0.450596
0.323719 0.428950 0.441727
0.365025 0.435283 0.436347
0.417778 0.441153 0.440655
0.464335 0.435964 0.438241
0.489528 0.437210 0.458263
0.509667 0.445607 0.482260
0.530193 0.459090 0.506522
0.552356 0.476492 0.530941
0.576713 0.497000 0.555850
0.603730 0.520721 0.582359
0.634347 0.548031 0.611062
0.676830 0.585710 0.648568
0.285849 0.471975 0.500909
0.288909 0.472355 0.500692
0.300797 0.473630 0.499622
0.321651 0.475670 0.495574
0.350417 0.479262 0.488358
0.384198 0.484278 0.479465
0.424124 0.490043 0.478778
0.473330 0.495246 0.483281
0.516067 0.490700 0.479655
0.546102 0.492045 0.497574
0.568080 0.500265 0.522006
0.589672 0.513182 0.546904
0.612525 0.530099 0.572335
0.637794 0.550819 0.598404
0.666366 0.575586 0.626882
0.706984 0.611613 0.664003
0.327970 0.522650 0.538290
0.330414 0.522873 0.538134
0.339477 0.523696 0.536932
0.356205 0.525140 0.534425
0.380044 0.527527 0.529983
0.408500 0.531116 0.522460
0.439183 0.536555 0.515486
0.478314 0.542018 0.519476
0.524891 0.546932 0.523661
0.566891 0.544459 0.521344
0.600157 0.546673 0.535380
0.624768 0.554828 0.560301
0.648007 0.567952 0.586241
0.672544 0.585175 0.613210
0.700055 0.607262 0.642221
0.739192 0.641632 0.680679
0.370297 0.572163 0.573771
0.371975 0.572304 0.573462
0.379016 0.572773 0.572623
0.392564 0.573845 0.570975
0.412449 0.575751 0.568074
0.436699 0.578552 0.563264
0.463143 0.582672 0.557073
0.493604 0.588012 0.556068
0.530107 0.593694 0.561633
0.574922 0.598045 0.564288
0.617978 0.597411 0.562846
0.653337 0.600807 0.574872
0.680132 0.609754 0.599228
0.705648 0.623496 0.626755
0.733368 0.642629 0.656957
0.771969 0.675555 0.697627
0.412568 0.620857 0.608881
0.413988 0.620989 0.608673
0.419658 0.621444 0.608229
0.431107 0.622361 0.607533
0.447273 0.624018 0.605720
0.468039 0.626091 0.603028
0.491279 0.629262 0.598641
0.517537 0.633563 0.596440
0.547740 0.638566 0.598521
0.582568 0.643976 0.604133
0.624836 0.648390 0.606192
0.669467 0.649358 0.605832
0.706309 0.654473 0.616723
0.736008 0.664876 0.642338
0.764956 0.681186 0.671225
0.803937 0.712536 0.712690
0.455534 0.669867 0.643901
0.456722 0.669871 0.643917
0.461565 0.670278 0.643713
0.471199 0.671113 0.643550
0.484407 0.672386 0.642504
0.502261 0.674082 0.641424
0.522637 0.676596 0.639509
0.545563 0.679961 0.637216
0.571550 0.684099 0.637359
0.601104 0.689049 0.641087
0.634803 0.694263 0.646111
0.675039 0.698595 0.646998
0.720619 0.701599 0.647657
0.760566 0.708714 0.658996
0.792414 0.723008 0.686077
0.833668 0.752628 0.725090
0.498982 0.719216 0.677729
0.499997 0.719373 0.677710
0.504079 0.719659 0.677806
0.511354 0.720209 0.677612
0.522725 0.721265 0.677481
0.537869 0.722748 0.677182
0.556207 0.725050 0.676452
0.576711 0.727734 0.675376
0.599291 0.731215 0.675096
0.624870 0.735310 0.676880
0.653465 0.740269 0.680874
0.686137 0.745354 0.684662
0.725284 0.749412 0.684714
0.771378 0.755273 0.688375
0.812054 0.768526 0.704627
0.856335 0.795290 0.731427
0.540911 0.770774 0.710801
0.541660 0.770706 0.710748
0.544947 0.770980 0.710759
0.551541 0.771595 0.710723
0.561749 0.772389 0.710953
0.574622 0.773697 0.710836
0.590939 0.775372 0.710671
0.609558 0.777864 0.710629
0.630099 0.780725 0.710764
0.652819 0.784308 0.711617
0.678414 0.788510 0.713966
0.706917 0.793470 0.717828
0.737350 0.798414 0.721301
0.775483 0.802135 0.721748
0.820185 0.814107 0.732491
0.869332 0.840997 0.748983
0.586008 0.825657 0.743641
0.586813 0.825729 0.743586
0.590013 0.825792 0.743691
0.595957 0.826204 0.743787
0.604793 0.826963 0.743895
0.617139 0.828021 0.744179
0.632033 0.829444 0.744567
0.649879 0.831313 0.745108
0.669942 0.833683 0.745780
0.691300 0.836930 0.747066
0.713779 0.840715 0.748897
0.738578 0.844945 0.752052
0.764730 0.850098 0.756132
0.792969 0.855165 0.758852
0.826642 0.859214 0.759731
0.867178 0.886692 0.761369
0.629585 0.894463 0.771225
0.630277 0.894461 0.771275
0.632955 0.894694 0.771301
0.638169 0.895154 0.771685
0.646356 0.895902 0.772210
0.657293 0.896951 0.772904
0.671012 0.898459 0.773818
0.687075 0.900597 0.774808
0.705397 0.903016 0.775464
0.725458 0.905983 0.776021
0.747643 0.909714 0.776646
0.771662 0.913649 0.776787
0.797229 0.918283 0.777072
0.824940 0.922941 0.777708
0.853699 0.927379 0.777308
0.868951 0.931708 0.769107
0.027915 0.058271 0.125322
0.050924 0.069838 0.146764
0.076884 0.096859 0.158875
0.115530 0.128096 0.195664
0.161719 0.159920 0.231804
0.206232 0.191979 0.267140
0.248105 0.223380 0.300949
0.287992 0.254695 0.334235
0.325802 0.285635 0.366857
0.362238 0.316256 0.398740
0.397939 0.346933 0.430263
0.433874 0.378268 0.462176
0.470207 0.410269 0.494372
0.507297 0.442975 0.526734
0.546362 0.477582 0.560432
0.595062 0.520651 0.601909
0.035812 0.104028 0.169662
0.059836 0.108128 0.171308
0.102220 0.121203 0.186123
0.138858 0.145293 0.213726
0.180290 0.173954 0.245975
0.220515 0.203074 0.277883
0.260007 0.233741 0.311110
0.297730 0.263701 0.343103
0.333111 0.292888 0.373960
0.368569 0.322624 0.404983
0.403440 0.352659 0.435831
0.438241 0.383025 0.466748
0.474028 0.414409 0.498240
0.510765 0.446512 0.529986
0.549405 0.480631 0.563184
0.597699 0.523283 0.604187
0.056045 0.169676 0.219531
0.076475 0.173376 0.219952
0.131119 0.180192 0.218217
0.189159 0.184404 0.229780
0.220784 0.201439 0.263788
0.251099 0.224621 0.294340
0.282820 0.250308 0.324685
0.315246 0.276988 0.354339
0.347292 0.303982 0.383519
0.379721 0.331596 0.412637
0.412916 0.360321 0.442567
0.446592 0.389770 0.472631
0.480983 0.420186 0.503090
0.516920 0.451651 0.534174
0.555032 0.485117 0.566802
0.602963 0.527486 0.607496
0.092626 0.240290 0.291063
0.112337 0.242683 0.290831
0.154414 0.246923 0.282524
0.216530 0.254754 0.279365
0.267613 0.255108 0.283250
0.297830 0.264911 0.317419
0.322276 0.281910 0.346823
0.347601 0.302420 0.373681
0.373416 0.324804 0.400423
0.401417 0.349077 0.427079
0.431238 0.375291 0.454996
0.462571 0.402661 0.483242
0.495127 0.431233 0.511996
0.529402 0.461485 0.542009
0.566453 0.494170 0.573866
0.613352 0.535641 0.613845
0.144888 0.303391 0.356624
0.159866 0.305438 0.356452
0.190003 0.308396 0.352962
0.235098 0.315137 0.337250
0.291166 0.321970 0.341111
0.339156 0.320421 0.342961
0.367425 0.326116 0.371719
0.388535 0.338699 0.398087
0.409468 0.354982 0.421870
0.432794 0.374820 0.446490
0.458726 0.397425 0.471989
0.486704 0.421905 0.497829
0.516584 0.448270 0.525168
0.548809 0.476706 0.553626
0.583986 0.507824 0.584206
0.629353 0.548227 0.623265
0.196614 0.362867 0.412345
0.207730 0.364546 0.412831
0.229426 0.366820 0.410987
0.262712 0.371213 0.402201
0.303889 0.377746 0.392443
0.357585 0.384157 0.396294
0.405141 0.380700 0.396065
0.431193 0.383979 0.419806
0.450582 0.393312 0.443470
0.470851 0.407957 0.467252
0.493341 0.426191 0.490679
0.517888 0.447426 0.515505
0.544776 0.471009 0.541083
0.574349 0.497207 0.568229
0.607288 0.526402 0.597458
0.651087 0.565469 0.635527
0.242992 0.419281 0.459799
0.251641 0.420730 0.460523
0.267219 0.422342 0.459083
0.292900 0.425348 0.453010
0.326588 0.429951 0.444398
0.367081 0.436173 0.439441
0.418605 0.441885 0.443656
0.464842 0.437564 0.441564
0.490361 0.439221 0.461246
0.510719 0.447708 0.485119
0.531385 0.461200 0.509070
0.553539 0.478535 0.533438
0.577928 0.498982 0.558138
0.604827 0.522496 0.584354
0.635298 0.549642 0.612885
0.677508 0.587070 0.650008
0.286067 0.472362 0.501783
0.292952 0.473454 0.502538
0.304309 0.474667 0.501079
0.324872 0.476717 0.497374
0.352983 0.480199 0.489941
0.386467 0.484951 0.481832
0.425865 0.490615 0.481256
0.473846 0.495918 0.485620
0.516256 0.491932 0.482599
0.546712 0.493640 0.499896
0.568779 0.501856 0.524139
0.590489 0.514826 0.549145
0.613504 0.531801 0.574279
0.638664 0.552400 0.600353
0.667165 0.577026 0.628526
0.707693 0.612877 0.665586
0.328142 0.522980 0.539040
0.333739 0.523894 0.539761
0.342315 0.524505 0.538285
0.358888 0.525893 0.535740
0.382356 0.528281 0.531219
0.410450 0.531846 0.524075
0.441254 0.537106 0.517665
0.479589 0.542417 0.521477
0.525189 0.547312 0.525526
0.566996 0.545372 0.523746
0.600586 0.547902 0.537436
0.625294 0.556195 0.562145
0.648636 0.569305 0.588011
0.673095 0.586529 0.614941
0.700621 0.608508 0.643825
0.739856 0.642735 0.682076
0.370243 0.572344 0.574326
0.374290 0.572903 0.574622
0.381322 0.573350 0.573781
0.395042 0.574430 0.572242
0.414446 0.576368 0.569260
0.438705 0.579051 0.564626
0.464765 0.583135 0.558501
0.494966 0.588435 0.557753
0.531128 0.594044 0.563301
0.575231 0.598361 0.565913
0.617937 0.598123 0.564790
0.653511 0.601751 0.576610
0.680473 0.610725 0.600920
0.706164 0.624595 0.628318
0.733858 0.643700 0.658382
0.772370 0.676495 0.698992
0.412602 0.621003 0.609365
0.416147 0.621496 0.609851
0.421832 0.621914 0.609459
0.433234 0.622930 0.608671
0.449223 0.624445 0.606779
0.469754 0.626464 0.604188
0.492805 0.629681 0.600012
0.518777 0.633856 0.597921
0.548733 0.638849 0.600081
0.583222 0.644269 0.605593
0.625044 0.648647 0.607603
0.669558 0.650002 0.607501
0.706462 0.655301 0.618260
0.736131 0.665695 0.643562
0.765260 0.682001 0.672427
0.804203 0.713244 0.713750
0.455581 0.669897 0.644304
0.458740 0.670313 0.644906
0.463558 0.670672 0.644733
0.473060 0.671512 0.644469
0.486121 0.672710 0.643491
0.503780 0.674456 0.642485
0.523892 0.676996 0.640635
0.546689 0.680233 0.638324
0.572611 0.684432 0.638580
0.601933 0.689214 0.642319
0.635230 0.694319 0.647266
0.675205 0.698973 0.648054
0.720581 0.701969 0.649031
0.760593 0.709310 0.660187
0.792601 0.723864 0.687040
0.833863 0.753199 0.725884
0.499041 0.719380 0.678041
0.501755 0.719656 0.678647
0.505641 0.719896 0.678584
0.512888 0.720546 0.678385
0.524091 0.721530 0.678305
0.539181 0.723188 0.677932
0.557365 0.725278 0.677292
0.577799 0.727813 0.676190
0.600251 0.731418 0.676052
0.625629 0.735490 0.677909
0.654140 0.740401 0.681718
0.686554 0.745445 0.685540
0.725315 0.749574 0.685586
0.771318 0.755604 0.689471
0.812209 0.769112 0.705587
0.856529 0.795748 0.732098
0.540940 0.770774 0.710986
0.542942 0.771072 0.711496
0.546244 0.771108 0.711439
0.552823 0.771651 0.711534
0.562983 0.772635 0.711595
0.575800 0.773806 0.711489
0.592015 0.775522 0.711388
0.610570 0.778014 0.711441
0.630907 0.780982 0.711557
0.653434 0.784639 0.712400
0.679097 0.788817 0.714801
0.707444 0.793510 0.718540
0.737540 0.798568 0.722005
0.775573 0.802155 0.722578
0.820293 0.814291 0.733268
0.869332 0.841334 0.749722
0.586112 0.825597 0.743970
0.588124 0.825768 0.744315
0.591308 0.825923 0.744354
0.597128 0.826243 0.744277
0.605998 0.827142 0.744535
0.618057 0.828066 0.744746
0.632883 0.829599 0.745213
0.650811 0.831313 0.745762
0.670626 0.833826 0.746439
0.691779 0.837079 0.747693
0.714397 0.840822 0.749555
0.738822 0.845111 0.752660
0.765055 0.850207 0.756826
0.793290 0.855207 0.759430
0.826825 0.859480 0.760486
0.867176 0.887011 0.762094
0.629695 0.894509 0.771503
0.631301 0.894669 0.771857
0.633901 0.894701 0.772009
0.639173 0.895185 0.772314
0.647207 0.895817 0.772841
0.658122 0.896847 0.773514
0.671645 0.898687 0.774357
0.687771 0.900580 0.775397
0.705917 0.903055 0.776069
0.725841 0.906243 0.776637
0.748159 0.909730 0.777174
0.771883 0.913716 0.777581
0.797476 0.918389 0.777677
0.825150 0.922831 0.778430
0.853654 0.927367 0.777803
0.868954 0.931828 0.769856
0.031374 0.080793 0.169250
0.045759 0.086457 0.184535
0.111054 0.100329 0.210095
0.125947 0.138237 0.209985
0.162946 0.169019 0.243597
0.205976 0.199098 0.276828
0.246962 0.229137 0.309113
0.287004 0.259507 0.341074
0.324432 0.289160 0.372028
0.361148 0.319181 0.403067
0.397053 0.349487 0.433952
0.432762 0.380202 0.465122
0.469185 0.411926 0.496829
0.506431 0.444383 0.528789
0.545663 0.478835 0.562269
0.594396 0.521814 0.603574
0.034301 0.111336 0.195426
0.057166 0.122747 0.205926
0.115531 0.129864 0.220646
0.140739 0.156409 0.229014
0.179105 0.182692 0.258398
0.218749 0.210376 0.288586
0.258364 0.239152 0.319223
0.296292 0.268132 0.349726
0.331980 0.296580 0.379371
0.367242 0.325394 0.409163
0.402428 0.355019 0.439414
0.437365 0.385084 0.469790
0.472972 0.416100 0.500770
0.509778 0.447920 0.532043
0.548615 0.481889 0.565045
0.596975 0.524413 0.605854
0.061120 0.180010 0.249900
0.080764 0.182221 0.249623
0.132621 0.188544 0.252250
0.194737 0.198356 0.263953
0.226423 0.217065 0.289836
0.257553 0.240129 0.316464
0.289305 0.264570 0.343337
0.321230 0.289866 0.370497
0.352521 0.315332 0.397330
0.384724 0.341997 0.424978
0.416836 0.369150 0.452754
0.450406 0.397556 0.481457
0.484481 0.426856 0.510578
0.519710 0.457433 0.540512
0.557429 0.490249 0.572258
0.604551 0.531379 0.611736
0.097964 0.244576 0.305892
0.117094 0.246628 0.304804
0.163291 0.252395 0.303385
0.219910 0.259860 0.304206
0.271339 0.264282 0.309645
0.301834 0.275640 0.338277
0.326679 0.292922 0.363755
0.351451 0.313116 0.389176
0.377752 0.334808 0.413372
0.405462 0.358358 0.438742
0.435140 0.383558 0.464847
0.465898 0.409889 0.491591
0.498250 0.437673 0.519367
0.532300 0.467074 0.548251
0.568701 0.498838 0.579088
0.614904 0.539356 0.617985
0.145717 0.306602 0.366102
0.161187 0.308648 0.366078
0.199216 0.313245 0.364646
0.242874 0.318903 0.353337
0.294061 0.325784 0.357987
0.340957 0.326970 0.360863
0.370249 0.333819 0.386777
0.391616 0.346817 0.411258
0.412953 0.363197 0.433462
0.436131 0.382672 0.456896
0.461963 0.404553 0.480913
0.489649 0.428382 0.505859
0.519473 0.454048 0.531727
0.551313 0.481952 0.559572
0.585959 0.512307 0.589294
0.630705 0.551756 0.627377
0.197019 0.365369 0.418874
0.208688 0.367040 0.419392
0.237358 0.370790 0.418698
0.269683 0.374914 0.412057
0.309439 0.381031 0.402931
0.359854 0.386857 0.407355
0.405681 0.385793 0.407934
0.433366 0.389830 0.430703
0.453184 0.399619 0.453382
0.473583 0.414129 0.476000
0.496121 0.432189 0.498595
0.520405 0.452975 0.522551
0.547173 0.476095 0.547280
0.576468 0.501848 0.573771
0.609131 0.530478 0.602137
0.652290 0.568748 0.639438
0.243629 0.421200 0.464689
0.252519 0.422613 0.465407
0.273972 0.425534 0.464544
0.299374 0.428460 0.459752
0.332354 0.432844 0.451663
0.372229 0.438297 0.447828
0.420733 0.443873 0.451882
0.465636 0.441324 0.450574
0.491830 0.443805 0.469440
0.512801 0.452585 0.492470
0.533563 0.466045 0.515864
0.555728 0.483250 0.539617
0.579843 0.503423 0.563921
0.606596 0.526503 0.589404
0.636869 0.553199 0.617224
0.678576 0.589971 0.653674
0.286617 0.473772 0.505541
0.293362 0.474827 0.506175
0.310449 0.477171 0.505651
0.330933 0.479301 0.502326
0.358655 0.482540 0.494876
0.391743 0.486910 0.488316
0.430098 0.492200 0.488171
0.475190 0.497509 0.492400
0.516853 0.494812 0.490312
0.547763 0.497262 0.506378
0.570085 0.505529 0.530117
0.592057 0.518672 0.554784
0.615223 0.535507 0.579375
0.640093 0.555811 0.605075
0.668496 0.580281 0.632856
0.708424 0.615515 0.669143
0.328323 0.523956 0.542055
0.333729 0.524714 0.542520
0.347693 0.526373 0.542198
0.364506 0.527783 0.540020
0.387390 0.530207 0.535429
0.415240 0.533688 0.528951
0.446123 0.538437 0.523662
0.482567 0.543644 0.527043
0.526238 0.548518 0.531060
0.567159 0.547672 0.529978
0.601214 0.550477 0.542939
0.626185 0.559168 0.566910
0.649764 0.572253 0.592863
0.674330 0.589487 0.619406
0.701712 0.611258 0.647740
0.740444 0.645047 0.685549
0.370209 0.572984 0.576870
0.374520 0.573482 0.577084
0.386398 0.574956 0.577377
0.400161 0.576057 0.576032
0.419003 0.577934 0.572859
0.442885 0.580590 0.568561
0.468837 0.584290 0.562948
0.498185 0.589486 0.562425
0.533509 0.594802 0.567807
0.576065 0.599295 0.570385
0.618117 0.599900 0.570052
0.653970 0.603919 0.581422
0.681042 0.613056 0.605217
0.706926 0.626927 0.632504
0.734626 0.645988 0.662222
0.773058 0.678530 0.702180
0.412697 0.621544 0.611478
0.416400 0.622019 0.611895
0.426533 0.623275 0.612711
0.438003 0.624261 0.612069
0.453366 0.625674 0.610079
0.473713 0.627694 0.607615
0.496263 0.630721 0.603710
0.521785 0.634794 0.601814
0.551319 0.639677 0.604042
0.584954 0.645069 0.609655
0.625665 0.649466 0.611460
0.669560 0.651397 0.611994
0.706654 0.656835 0.622538
0.736515 0.667491 0.647309
0.765935 0.684007 0.675916
0.804850 0.714986 0.716602
0.456038 0.670471 0.646134
0.459124 0.670793 0.646661
0.467911 0.671901 0.647844
0.476890 0.672677 0.647310
0.489903 0.673817 0.646524
0.507034 0.675483 0.645310
0.526908 0.677726 0.643461
0.549399 0.681174 0.641432
0.575004 0.685072 0.642005
0.603772 0.689952 0.645678
0.636608 0.695042 0.650369
0.675823 0.699661 0.651245
0.721108 0.703153 0.652638
0.760976 0.710646 0.663627
0.792955 0.725278 0.690101
0.834451 0.754425 0.728495
0.499548 0.719774 0.679643
0.502059 0.720079 0.680111
0.508498 0.720759 0.681024
0.515778 0.721244 0.680795
0.527128 0.722350 0.680578
0.542053 0.723982 0.680185
0.560094 0.726080 0.679607
0.580129 0.728743 0.678668
0.602375 0.732072 0.678698
0.627399 0.736122 0.680568
0.655678 0.741030 0.684335
0.687714 0.746090 0.688064
0.725760 0.750129 0.688074
0.771509 0.756644 0.692239
0.812441 0.770250 0.708213
0.856796 0.796840 0.734092
0.541168 0.771031 0.712219
0.543146 0.771330 0.712720
0.548947 0.771835 0.713479
0.555612 0.772342 0.713520
0.565606 0.773209 0.713542
0.578378 0.774572 0.713486
0.594345 0.776188 0.713483
0.612792 0.778651 0.713656
0.632930 0.781423 0.713659
0.655312 0.785067 0.714461
0.680785 0.789121 0.716920
0.708428 0.794083 0.720592
0.738392 0.799097 0.724101
0.776093 0.802829 0.724717
0.820526 0.815129 0.735437
0.869330 0.842012 0.751728
0.586525 0.825960 0.745068
0.588522 0.826093 0.745349
0.593690 0.826547 0.746073
0.599233 0.826882 0.746065
0.608018 0.827468 0.746227
0.620164 0.828476 0.746545
0.634915 0.829845 0.746956
0.652452 0.831846 0.747498
0.672370 0.834264 0.748354
0.693211 0.837446 0.749451
0.715369 0.841389 0.751421
0.739904 0.845442 0.754442
0.765698 0.850568 0.758526
0.793712 0.855587 0.761013
0.827146 0.859803 0.762110
0.867298 0.887395 0.764153
0.630027 0.894675 0.772592
0.631567 0.894914 0.772911
0.635759 0.895189 0.773603
0.640692 0.895389 0.773927
0.648702 0.896034 0.774452
0.659679 0.897268 0.775241
0.672918 0.898721 0.775997
0.688992 0.900724 0.776916
0.707076 0.903369 0.777623
0.726995 0.906228 0.778190
0.748804 0.909937 0.778955
0.772764 0.913890 0.779429
0.798113 0.918728 0.779739
0.825570 0.923263 0.780380
0.853942 0.927573 0.779787
0.868957 0.932158 0.771834
0.032337 0.107043 0.213404
0.043031 0.110939 0.222777
0.093827 0.120244 0.261572
0.183810 0.134139 0.278253
0.189041 0.179201 0.264606
0.211277 0.211789 0.292559
0.247478 0.240286 0.322985
0.286178 0.268555 0.352800
0.323261 0.296600 0.381917
0.359057 0.325158 0.411136
0.395355 0.354424 0.440703
0.431264 0.384556 0.470981
0.467625 0.415430 0.501693
0.504778 0.447281 0.532867
0.544121 0.481386 0.565877
0.593055 0.524197 0.606890
0.035977 0.128838 0.232654
0.055555 0.142663 0.247893
0.104488 0.147255 0.269131
0.187111 0.157008 0.286447
0.198206 0.193949 0.277622
0.221775 0.223039 0.304255
0.257592 0.249875 0.332894
0.294798 0.276949 0.361319
0.330096 0.303598 0.388868
0.365190 0.331412 0.417336
0.400393 0.359768 0.445994
0.435750 0.389073 0.475382
0.471513 0.419517 0.505454
0.508280 0.450874 0.536159
0.547134 0.484416 0.568646
0.595535 0.526767 0.609086
0.056591 0.186981 0.284364
0.077350 0.193106 0.288221
0.131155 0.202579 0.296792
0.200023 0.209435 0.307447
0.224192 0.231134 0.312216
0.253236 0.251885 0.334242
0.285683 0.274169 0.357509
0.317903 0.297697 0.381983
0.349951 0.321953 0.406876
0.382158 0.347257 0.432691
0.415112 0.373806 0.459355
0.448385 0.401254 0.486773
0.482772 0.429972 0.515104
0.518296 0.460223 0.544562
0.556027 0.492620 0.575798
0.603085 0.533529 0.614930
0.105366 0.255293 0.338512
0.123336 0.256818 0.337801
0.167286 0.260948 0.337166
0.222728 0.267821 0.340074
0.276034 0.275878 0.347169
0.303406 0.289907 0.367944
0.328909 0.308122 0.388501
0.354951 0.327725 0.409537
0.380972 0.348127 0.431012
0.409597 0.370910 0.454388
0.438526 0.394535 0.478308
0.469496 0.419731 0.503356
0.501270 0.446283 0.529502
0.534693 0.474443 0.556703
0.570500 0.505107 0.586360
0.615525 0.544054 0.623586
0.152750 0.312273 0.384114
0.167870 0.313889 0.384015
0.203355 0.317698 0.381902
0.249564 0.324572 0.379050
0.297575 0.331577 0.383237
0.344209 0.335458 0.387399
0.372919 0.344178 0.409761
0.394400 0.357782 0.429675
0.415795 0.374357 0.450360
0.439355 0.393333 0.471476
0.465047 0.414443 0.493681
0.492619 0.437265 0.516966
0.522197 0.462036 0.541546
0.553492 0.488857 0.567981
0.587733 0.518314 0.596444
0.631377 0.556285 0.632963
0.198858 0.369486 0.430913
0.210321 0.371013 0.431407
0.238220 0.374641 0.430560
0.277351 0.380175 0.426728
0.316800 0.385689 0.419531
0.363578 0.391320 0.425137
0.407436 0.392462 0.427029
0.435664 0.397731 0.447030
0.455967 0.408211 0.468084
0.476691 0.422911 0.488726
0.498868 0.440585 0.510368
0.522992 0.460731 0.533010
0.549437 0.483148 0.556404
0.578333 0.508079 0.581738
0.610459 0.536027 0.609388
0.652893 0.572972 0.644981
0.243438 0.424399 0.473577
0.252308 0.425705 0.474076
0.274482 0.428620 0.473201
0.307659 0.433014 0.470654
0.340182 0.436889 0.463414
0.378518 0.441853 0.461067
0.423506 0.447271 0.465263
0.466021 0.447058 0.464885
0.493433 0.450130 0.481806
0.514910 0.459239 0.504256
0.535801 0.472771 0.526245
0.557868 0.489654 0.548899
0.581951 0.509519 0.572422
0.608279 0.532098 0.596978
0.638026 0.557993 0.623724
0.678929 0.593735 0.658901
0.286248 0.476391 0.512504
0.293311 0.477310 0.513180
0.311229 0.479665 0.512400
0.339224 0.483067 0.510700
0.366364 0.485940 0.503459
0.398441 0.489814 0.498646
0.435144 0.494845 0.498760
0.477263 0.500039 0.502803
