luts/BLADE_RUNNER_2049-BLUE.cube
LUT_3D_SIZE 6
0.019045 0.037648 0.080951
0.114993 0.124809 0.191232
0.248287 0.221910 0.298795
0.362482 0.315550 0.397694
0.470445 0.409865 0.493775
0.595288 0.520450 0.601539
0.092023 0.238813 0.286688
0.214744 0.252829 0.269964
0.319220 0.276767 0.339898
0.399008 0.344931 0.422235
0.493317 0.428384 0.509009
0.612377 0.534026 0.612103
0.242831 0.418892 0.458634
0.289242 0.424137 0.450596
0.417778 0.441153 0.440655
0.509667 0.445607 0.482260
0.576713 0.497000 0.555850
0.676830 0.585710 0.648568
0.370297 0.572163 0.573771
0.392564 0.573845 0.570975
0.463143 0.582672 0.557073
0.574922 0.598045 0.564288
0.680132 0.609754 0.599228
0.771969 0.675555 0.697627
0.498982 0.719216 0.677729
0.511354 0.720209 0.677612
0.556207 0.725050 0.676452
0.624870 0.735310 0.676880
0.725284 0.749412 0.684714
0.856335 0.795290 0.731427
0.629585 0.894463 0.771225
0.638169 0.895154 0.771685
0.671012 0.898459 0.773818
0.725458 0.905983 0.776021
0.797229 0.918283 0.777072
0.868951 0.931708 0.769107
0.032337 0.107043 0.213404
0.183810 0.134139 0.278253
0.247478 0.240286 0.322985
0.359057 0.325158 0.411136
0.467625 0.415430 0.501693
0.593055 0.524197 0.606890
0.105366 0.255293 0.338512
0.222728 0.267821 0.340074
0.328909 0.308122 0.388501
0.409597 0.370910 0.454388
0.501270 0.446283 0.529502
0.615525 0.544054 0.623586
0.243438 0.424399 0.473577
0.307659 0.433014 0.470654
0.423506 0.447271 0.465263
0.514910 0.459239 0.504256
0.581951 0.509519 0.572422
0.678929 0.593735 0.658901
0.370195 0.574415 0.581726
0.407283 0.578592 0.582236
0.474228 0.586317 0.570243
0.577398 0.600787 0.577851
0.681655 0.616259 0.612226
0.773406 0.680896 0.707074
0.499576 0.720549 0.682615
0.519562 0.722741 0.684707
0.563874 0.727130 0.683435
0.630333 0.737147 0.684819
0.726735 0.751096 0.692284
0.857206 0.798076 0.737504
0.630320 0.895343 0.774970
0.642378 0.896291 0.776861
0.674660 0.899345 0.778902
0.727942 0.907047 0.781017
0.799129 0.919183 0.782780
0.868969 0.932567 0.775292
0.045439 0.199219 0.363478
0.130080 0.214799 0.398642
0.366928 0.247596 0.449457
0.379162 0.355270 0.448493
0.466303 0.438291 0.528298
0.588170 0.540828 0.627196
0.089553 0.282506 0.425519
0.211282 0.308692 0.445162
0.387533 0.325402 0.475331
0.411441 0.397957 0.487207
0.495781 0.466296 0.554530
0.608777 0.559097 0.643387
0.257175 0.444423 0.530250
0.314846 0.449926 0.527897
0.432146 0.463657 0.529229
0.517655 0.486160 0.559908
0.581682 0.532666 0.608226
0.669437 0.605718 0.680325
0.368244 0.583783 0.613326
0.406258 0.586416 0.612498
0.491247 0.595217 0.606387
0.584261 0.608231 0.615005
0.681910 0.628808 0.646993
0.769270 0.688363 0.728950
0.499193 0.726116 0.701633
0.520842 0.727336 0.702581
0.575195 0.732556 0.703265
0.642353 0.741629 0.704981
0.730683 0.755621 0.712738
0.857698 0.801669 0.754374
0.631343 0.900299 0.790283
0.643688 0.900813 0.792095
0.676625 0.903063 0.793959
0.730947 0.909829 0.796369
0.802031 0.921741 0.799596
0.868709 0.935090 0.792909
0.075607 0.288555 0.489339
0.137664 0.294870 0.501790
0.335270 0.306498 0.579899
0.509827 0.353835 0.572264
0.518561 0.464484 0.569426
0.600075 0.568881 0.657351
0.107051 0.333304 0.511536
0.208151 0.359121 0.531363
0.358240 0.370532 0.581967
0.519682 0.401176 0.585464
0.531260 0.493070 0.590063
0.614365 0.586909 0.673065
0.239310 0.460422 0.601887
0.303881 0.471388 0.605390
0.428963 0.488814 0.615046
0.547821 0.505221 0.621408
0.574921 0.561437 0.645868
0.660910 0.631423 0.712398
0.381882 0.601912 0.671130
0.416233 0.603335 0.668841
0.493656 0.609557 0.663261
0.591030 0.622553 0.669896
0.678170 0.641196 0.697242
0.747264 0.690215 0.753367
0.496835 0.737277 0.738469
0.518548 0.738224 0.738567
0.574628 0.742158 0.736975
0.651966 0.749712 0.735157
0.738043 0.763352 0.744628
0.855006 0.801464 0.780529
0.626216 0.908645 0.820301
0.639406 0.909440 0.821827
0.675754 0.911472 0.823565
0.726271 0.914638 0.821746
0.802770 0.924887 0.827047
0.868692 0.939031 0.821889
0.125578 0.375578 0.610351
0.176079 0.379053 0.617481
0.315812 0.394445 0.659166
0.519397 0.402328 0.697984
0.636494 0.465049 0.680860
0.667700 0.594538 0.703003
0.151024 0.403093 0.620513
0.228604 0.421994 0.632367
0.340982 0.436493 0.661198
0.529866 0.443342 0.703261
0.640623 0.496497 0.687230
0.672699 0.613644 0.714162
0.246096 0.501272 0.679792
0.303765 0.512883 0.685164
0.416864 0.529384 0.692899
0.552559 0.538539 0.718431
0.652362 0.574910 0.705950
0.689506 0.662499 0.746457
0.385107 0.628190 0.742143
0.422004 0.632861 0.742704
0.501669 0.641164 0.741752
0.596926 0.646620 0.744173
0.677982 0.671383 0.749441
0.741509 0.723201 0.796704
0.511084 0.753947 0.792215
0.531326 0.754954 0.791541
0.582810 0.758384 0.789198
0.652682 0.765660 0.786515
0.746129 0.778592 0.794828
0.843309 0.796883 0.824555
0.611834 0.920212 0.868288
0.625451 0.921053 0.869071
0.663580 0.923236 0.870397
0.721226 0.926036 0.870128
0.796996 0.930460 0.868773
0.868859 0.942498 0.869757
0.207377 0.480892 0.744646
0.243654 0.483406 0.748809
0.358667 0.494612 0.769882
0.532710 0.499865 0.823422
0.695355 0.527133 0.821150
0.771727 0.603503 0.796552
0.226614 0.501200 0.751089
0.278388 0.510226 0.753959
0.378055 0.520581 0.771754
0.533844 0.530725 0.827229
0.699769 0.552640 0.824020
0.774712 0.622561 0.801432
0.299104 0.578075 0.786574
0.341460 0.584893 0.788979
0.429064 0.589362 0.792311
0.553605 0.602536 0.819439
0.710332 0.617257 0.834958
0.784074 0.673719 0.817219
0.422367 0.690966 0.846801
0.451297 0.694696 0.847989
0.514211 0.697586 0.848472
0.583659 0.690338 0.847337
0.725263 0.702162 0.857465
0.802795 0.745007 0.846512
0.559077 0.806597 0.893034
0.575906 0.808838 0.893861
0.618172 0.812352 0.895207
0.674986 0.813672 0.896357
0.745065 0.805695 0.893049
0.836739 0.831856 0.897306
0.605571 0.933138 0.936360
0.618414 0.933948 0.937160
0.655843 0.935451 0.938602
0.716090 0.937840 0.940798
0.794114 0.939753 0.941354
0.869135 0.946413 0.948512
