luts/DRIVE.cube
LUT_3D_SIZE 16
0.000000 0.000000 0.000000
0.008527 0.000000 0.000000
0.046994 0.000000 0.000000
0.093296 0.000340 0.000000
0.144047 0.006004 0.000000
0.204758 0.010199 0.000000
0.271237 0.014549 0.000000
0.348214 0.022939 0.000000
0.439708 0.037777 0.000000
0.528622 0.052813 0.000000
0.604660 0.065245 0.000000
0.675943 0.076038 0.000000
0.737085 0.087442 0.000789
0.786375 0.096076 0.004083
0.830074 0.104824 0.006807
0.870739 0.114252 0.010936
0.000000 0.022556 0.003032
0.014523 0.020987 0.000000
0.052323 0.027989 0.000000
0.100955 0.034554 0.000000
0.155355 0.040774 0.000000
0.210422 0.047003 0.000000
0.269890 0.054331 0.000000
0.350052 0.061108 0.000000
0.441488 0.074534 0.000000
0.530432 0.089707 0.000000
0.608165 0.103409 0.000000
0.679996 0.116463 0.000000
0.741578 0.129679 0.001793
0.791695 0.139721 0.004827
0.836469 0.148054 0.007041
0.877382 0.156441 0.011650
0.000000 0.062850 0.007206
0.023088 0.062278 0.000000
0.055873 0.062001 0.000000
0.106776 0.068012 0.000000
0.162229 0.074555 0.000000
0.218474 0.082347 0.000000
0.277801 0.092174 0.000000
0.344773 0.104626 0.000000
0.435028 0.118861 0.000000
0.533786 0.132184 0.000000
0.614875 0.146630 0.000000
0.688114 0.160521 0.000140
0.750079 0.174886 0.004647
0.800673 0.185500 0.007795
0.845982 0.195188 0.010524
0.885405 0.205264 0.018208
0.000000 0.101163 0.009721
0.028049 0.101314 0.000000
0.058993 0.102905 0.000000
0.106885 0.102245 0.000000
0.166314 0.108842 0.000000
0.224660 0.117977 0.000000
0.287409 0.130227 0.000000
0.359945 0.144912 0.000000
0.442632 0.163198 0.000000
0.527026 0.182468 0.002770
0.611692 0.200249 0.008867
0.685842 0.216136 0.013671
0.748155 0.230738 0.018788
0.800455 0.242295 0.022554
0.846270 0.254173 0.027488
0.883638 0.265226 0.036291
0.000000 0.141327 0.015959
0.030799 0.141465 0.001322
0.061328 0.144456 0.000000
0.108349 0.144444 0.000000
0.165718 0.147010 0.000000
0.229856 0.155919 0.000000
0.298820 0.169824 0.000000
0.375322 0.186947 0.000000
0.458660 0.205424 0.000000
0.545501 0.222610 0.000000
0.624928 0.242711 0.008306
0.693080 0.261380 0.017525
0.753061 0.277467 0.023841
0.805782 0.290376 0.027480
0.852314 0.303206 0.033838
0.890155 0.312971 0.042114
0.000000 0.184081 0.020777
0.034030 0.184484 0.007161
0.066722 0.188063 0.000785
0.109338 0.192747 0.000000
0.169856 0.191928 0.000000
0.236228 0.197708 0.000000
0.313622 0.213488 0.000000
0.399287 0.232620 0.000000
0.483228 0.250849 0.000000
0.567348 0.268774 0.001218
0.645542 0.286101 0.006543
0.714428 0.302828 0.013961
0.772069 0.319547 0.022414
0.822481 0.333242 0.027549
0.865597 0.346260 0.035662
0.904063 0.356879 0.043535
0.005508 0.231179 0.025052
0.040872 0.232332 0.013270
0.074907 0.235722 0.006750
0.113692 0.241654 0.002447
0.176484 0.245779 0.000252
0.245331 0.245859 0.000000
0.332713 0.262240 0.000000
0.428166 0.282253 0.000275
0.514823 0.300245 0.002331
0.594439 0.317614 0.006547
0.666754 0.334205 0.010582
0.732527 0.349586 0.014927
0.788928 0.362999 0.018402
0.836884 0.375168 0.023302
0.879819 0.387998 0.030329
0.916026 0.396916 0.037905
0.012455 0.280340 0.032273
0.048238 0.282348 0.021310
0.085352 0.286991 0.014397
0.125723 0.295056 0.008229
0.184956 0.303280 0.008227
0.259967 0.308868 0.010018
0.356163 0.317590 0.006213
0.457787 0.335783 0.006033
0.542478 0.352733 0.008390
0.618628 0.369358 0.012277
0.686931 0.384594 0.015464
0.748363 0.399906 0.019563
0.801183 0.412630 0.022552
0.846524 0.424369 0.026890
0.887595 0.436546 0.036197
0.921877 0.443384 0.044695
0.019729 0.334163 0.040701
0.055455 0.337910 0.031001
0.097110 0.343947 0.024964
0.138142 0.353074 0.016448
0.194567 0.362518 0.016183
0.280696 0.378059 0.022808
0.376544 0.384152 0.020934
0.487252 0.400764 0.017431
0.569575 0.412567 0.016407
0.640925 0.426371 0.018976
0.705473 0.439007 0.021195
0.762064 0.452186 0.024535
0.811504 0.463519 0.026787
0.855490 0.475420 0.032494
0.894473 0.484461 0.043086
0.926432 0.489483 0.051930
0.026081 0.393799 0.052477
0.064517 0.399470 0.041354
0.108670 0.407119 0.039484
0.151473 0.418384 0.031347
0.206468 0.428034 0.027855
0.306556 0.444893 0.034273
0.407334 0.461020 0.036394
0.501659 0.470537 0.033787
0.591531 0.481623 0.029299
0.659701 0.488781 0.027869
0.719377 0.496817 0.028382
0.773537 0.507282 0.029812
0.820727 0.516644 0.032463
0.863745 0.525374 0.038806
0.899904 0.531508 0.050203
0.931319 0.534895 0.058659
0.030979 0.459229 0.071263
0.066017 0.465531 0.055947
0.115155 0.473862 0.055998
0.162850 0.484801 0.052616
0.224237 0.499119 0.042561
0.328237 0.509240 0.046121
0.433809 0.526397 0.047303
0.514335 0.537577 0.046123
0.594924 0.548829 0.042216
0.670947 0.555454 0.037930
0.730473 0.558343 0.035435
0.782828 0.563557 0.035042
0.828251 0.570160 0.038532
0.868884 0.575453 0.046825
0.903877 0.578663 0.057979
0.934300 0.579728 0.065676
0.038314 0.525970 0.090656
0.069339 0.532963 0.074054
0.124580 0.541216 0.072306
0.179738 0.551173 0.066851
0.241979 0.565022 0.056878
0.347549 0.577430 0.057052
0.455083 0.587985 0.055283
0.532913 0.601500 0.053765
0.597762 0.611589 0.052832
0.668924 0.621070 0.048663
0.734909 0.623781 0.044065
0.787554 0.624076 0.042643
0.832426 0.625403 0.046845
0.871446 0.626819 0.055966
0.905770 0.626834 0.066993
0.935179 0.625821 0.074169
0.048959 0.591223 0.109405
0.082475 0.598514 0.091099
0.142566 0.607387 0.086727
0.205104 0.618495 0.076263
0.265643 0.631256 0.066155
0.356190 0.644723 0.065677
0.468025 0.651712 0.063139
0.547530 0.663103 0.060769
0.610650 0.672925 0.059360
0.670796 0.681468 0.057395
0.734553 0.688643 0.056127
0.789683 0.687585 0.058011
0.833977 0.681870 0.061245
0.871350 0.677513 0.068492
0.905517 0.674449 0.077733
0.934322 0.672572 0.083644
0.064423 0.653341 0.120911
0.099073 0.660955 0.099312
0.161388 0.668220 0.097539
0.220610 0.678024 0.093480
0.291109 0.693710 0.079730
0.379627 0.707468 0.075698
0.478748 0.714460 0.071788
0.560151 0.720511 0.067620
0.622398 0.728779 0.065479
0.678884 0.738051 0.065341
0.734124 0.745471 0.067325
0.787768 0.745509 0.073020
0.831555 0.738508 0.078372
0.869226 0.729768 0.082593
0.903364 0.723050 0.086740
0.932529 0.719969 0.089950
0.082192 0.709232 0.126800
0.128376 0.716442 0.108965
0.188769 0.723349 0.107544
0.241359 0.729240 0.109840
0.309330 0.744390 0.101780
0.406101 0.765981 0.092585
0.493604 0.772157 0.083829
0.571152 0.775094 0.076281
0.635121 0.780372 0.073274
0.687192 0.788180 0.074714
0.735508 0.794701 0.080498
0.784543 0.795857 0.084308
0.827487 0.791146 0.089636
0.865465 0.783105 0.093312
0.900420 0.775030 0.095311
0.929619 0.768610 0.096156
0.102212 0.758530 0.128619
0.154896 0.765576 0.117565
0.209879 0.770286 0.119665
0.259877 0.775674 0.121047
0.323353 0.788088 0.115599
0.419494 0.811108 0.109304
0.512344 0.820163 0.098275
0.585270 0.824391 0.089031
0.643985 0.826101 0.086377
0.693578 0.830715 0.086421
0.738477 0.836272 0.090226
0.780376 0.839102 0.095746
0.822172 0.837746 0.097100
0.861504 0.833512 0.099012
0.897336 0.824805 0.100780
0.927108 0.815967 0.101140
0.000000 0.000000 0.015997
0.012575 0.000000 0.017628
0.048130 0.000000 0.023947
0.094855 0.000000 0.026780
0.147690 0.000000 0.026724
0.206924 0.000000 0.025420
0.273770 0.001064 0.022597
0.353744 0.007971 0.017910
0.446127 0.026977 0.014001
0.532758 0.042947 0.017978
0.608854 0.055980 0.021546
0.681984 0.067941 0.026476
0.741711 0.079496 0.031034
0.789984 0.088418 0.033612
0.832853 0.097928 0.035998
0.873177 0.108011 0.040591
0.000000 0.021519 0.022967
0.007905 0.022516 0.025770
0.048027 0.024634 0.025037
0.095908 0.028193 0.024094
0.151294 0.034682 0.022320
0.213017 0.041380 0.018741
0.279551 0.048651 0.014291
0.360918 0.056973 0.011805
0.452568 0.072071 0.014641
0.537352 0.086088 0.018811
0.613987 0.099475 0.022299
0.685861 0.111855 0.027512
0.746739 0.124740 0.031835
0.795798 0.134205 0.034389
0.838748 0.143026 0.036897
0.878171 0.151640 0.041737
0.000000 0.064246 0.037678
0.011246 0.065372 0.035650
0.050123 0.066531 0.029792
0.101695 0.067919 0.022582
0.152960 0.074552 0.025650
0.210418 0.083063 0.024819
0.273386 0.092164 0.025004
0.353236 0.102330 0.022935
0.450473 0.113866 0.017239
0.541920 0.128586 0.020122
0.621264 0.143961 0.023876
0.693405 0.158459 0.029642
0.753479 0.172458 0.033835
0.803152 0.182328 0.036377
0.847251 0.192399 0.039650
0.885609 0.201983 0.046819
0.000000 0.104828 0.045860
0.014560 0.105264 0.041661
0.050723 0.106617 0.033707
0.102831 0.104828 0.019426
0.165472 0.110368 0.016255
0.224217 0.119492 0.017636
0.286624 0.131980 0.020809
0.358635 0.146228 0.023980
0.441904 0.164035 0.029438
0.535696 0.182930 0.034550
0.622066 0.200181 0.037551
0.693052 0.216906 0.042869
0.753597 0.231197 0.047644
0.804494 0.243097 0.051770
0.847438 0.255583 0.058312
0.884439 0.266540 0.067907
0.000000 0.145335 0.052395
0.017469 0.145591 0.047625
0.051241 0.147652 0.039658
0.099857 0.149126 0.026138
0.165530 0.149649 0.017436
0.233575 0.157219 0.016264
0.303800 0.171748 0.017475
0.380662 0.188889 0.019951
0.464549 0.207665 0.023627
0.550574 0.226553 0.030997
0.628349 0.246830 0.040735
0.694776 0.264425 0.048248
0.755559 0.280633 0.053540
0.808722 0.294702 0.057720
0.853756 0.307883 0.065680
0.891177 0.317578 0.075054
0.000000 0.188145 0.059166
0.021447 0.188697 0.054001
0.055325 0.191196 0.045464
0.100594 0.196317 0.034520
0.166555 0.196792 0.023320
0.238586 0.201283 0.021207
0.320743 0.216438 0.022089
0.407890 0.235545 0.024081
0.491271 0.253965 0.026407
0.575680 0.272611 0.030442
0.651997 0.289946 0.036624
0.718311 0.308612 0.046486
0.776063 0.325140 0.052949
0.825975 0.339626 0.058984
0.868226 0.352459 0.068284
0.904859 0.361911 0.077447
0.002949 0.235429 0.065780
0.028255 0.236491 0.060081
0.062602 0.239841 0.051239
0.106362 0.245896 0.042700
0.168443 0.250854 0.032512
0.245048 0.252263 0.029982
0.338724 0.267546 0.028300
0.436500 0.286452 0.029608
0.523184 0.304235 0.031511
0.601893 0.322399 0.035932
0.673692 0.338955 0.040008
0.739090 0.355501 0.044687
0.794179 0.369484 0.048681
0.841392 0.382258 0.054203
0.882690 0.394660 0.063896
0.916622 0.401883 0.072669
0.010008 0.285002 0.074383
0.035480 0.286434 0.068009
0.070721 0.290706 0.058503
0.116715 0.299111 0.050795
0.175142 0.309892 0.041443
0.257214 0.315002 0.041197
0.361285 0.324806 0.037429
0.466171 0.342263 0.036427
0.551326 0.358185 0.037925
0.626829 0.375267 0.041779
0.694995 0.391326 0.045287
0.755047 0.407703 0.049995
0.806791 0.420627 0.052987
0.850869 0.432955 0.059315
0.889736 0.442721 0.069602
0.922355 0.448496 0.079266
0.017629 0.339470 0.084158
0.043620 0.341542 0.076807
0.081175 0.347412 0.066101
0.128419 0.357647 0.059644
0.186351 0.371352 0.050510
0.274033 0.385246 0.053996
0.380271 0.392954 0.052458
0.494846 0.410588 0.049505
0.578889 0.421699 0.047920
0.650565 0.435019 0.049679
0.713869 0.447971 0.052316
0.769170 0.461262 0.055320
0.817016 0.473546 0.058542
0.858978 0.483081 0.065738
0.895383 0.490405 0.076690
0.926702 0.494488 0.086122
0.023384 0.400961 0.098601
0.052206 0.403894 0.089361
0.088130 0.411875 0.077662
0.138739 0.422697 0.074412
0.196252 0.437487 0.063200
0.296899 0.451925 0.066136
0.407485 0.468822 0.067936
0.503727 0.479133 0.065372
0.599112 0.491854 0.061448
0.668656 0.499707 0.059950
0.727633 0.507402 0.060016
0.779928 0.516971 0.060989
0.825189 0.525782 0.064693
0.865510 0.531978 0.072434
0.900197 0.536882 0.084105
0.931024 0.539512 0.092707
0.027753 0.466789 0.117590
0.058411 0.470093 0.108299
0.089750 0.478141 0.094273
0.143026 0.487938 0.091522
0.206195 0.502944 0.082068
0.313055 0.516420 0.078656
0.427443 0.532254 0.078743
0.517592 0.546210 0.077010
0.599266 0.558463 0.073592
0.677384 0.566006 0.069229
0.736718 0.568999 0.066773
0.787475 0.573189 0.066992
0.831038 0.577953 0.071801
0.869718 0.581676 0.081047
0.903364 0.583080 0.092862
0.933687 0.584045 0.100522
0.033494 0.532927 0.137480
0.065309 0.536109 0.127818
0.098895 0.544701 0.113803
0.155238 0.553763 0.107276
0.220164 0.564942 0.099364
0.321634 0.583581 0.090139
0.449957 0.594364 0.086859
0.535404 0.609459 0.084007
0.603530 0.620916 0.083037
0.673665 0.630156 0.079529
0.738559 0.632795 0.075654
0.789612 0.632468 0.075026
0.833430 0.632204 0.080555
0.871487 0.631575 0.091515
0.905686 0.631085 0.101869
0.934685 0.629709 0.108591
0.045852 0.597932 0.156085
0.078384 0.601251 0.144867
0.115264 0.609924 0.126826
0.176272 0.618466 0.119900
0.244727 0.630467 0.108520
0.331958 0.648410 0.100110
0.463027 0.659457 0.095392
0.550696 0.670485 0.091386
0.614930 0.680580 0.089284
0.674998 0.688704 0.087526
0.736669 0.694582 0.087764
0.789625 0.692648 0.091920
0.833565 0.686662 0.095966
0.871501 0.681845 0.103075
0.905773 0.678968 0.112210
0.934453 0.677177 0.117294
0.062038 0.659459 0.168889
0.094301 0.663220 0.157106
0.131944 0.670773 0.135692
0.195468 0.678224 0.132609
0.263317 0.689226 0.127525
0.359953 0.710479 0.111758
0.466514 0.720936 0.106293
0.558577 0.726263 0.099292
0.625245 0.735140 0.096010
0.681295 0.743597 0.095947
0.735500 0.750091 0.099511
0.787573 0.748824 0.105844
0.830791 0.742114 0.111623
0.868844 0.734294 0.116184
0.904000 0.728653 0.121335
0.932781 0.724722 0.124049
0.080119 0.713022 0.176227
0.114664 0.718539 0.162722
0.162281 0.726170 0.144622
0.222110 0.732720 0.146432
0.279678 0.739065 0.147678
0.377231 0.762040 0.134511
0.481044 0.776664 0.122130
0.568094 0.781567 0.111105
0.636198 0.785237 0.105824
0.688074 0.792054 0.106619
0.735861 0.798027 0.113259
0.784106 0.798718 0.117123
0.826800 0.794460 0.122123
0.864818 0.787361 0.125545
0.900350 0.779314 0.127561
0.929689 0.772887 0.128748
0.098785 0.760867 0.181452
0.134409 0.767453 0.165454
0.186065 0.773865 0.156112
0.243338 0.779637 0.159523
0.298439 0.785744 0.160942
0.386595 0.803961 0.155692
0.494686 0.821137 0.142945
0.579135 0.827779 0.128101
0.643250 0.829365 0.120789
0.692909 0.833672 0.119083
0.737650 0.839185 0.123302
0.779518 0.842018 0.129316
0.821421 0.840920 0.129840
0.860833 0.837677 0.130726
0.896548 0.828934 0.132485
0.926728 0.819726 0.132885
0.000000 0.000000 0.051934
0.017781 0.000000 0.053127
0.047031 0.000000 0.054140
0.097886 0.000000 0.058759
0.151933 0.000000 0.061527
0.212794 0.000000 0.063031
0.279551 0.001128 0.064053
0.356518 0.008302 0.064446
0.449913 0.019558 0.064180
0.537533 0.029675 0.065089
0.615807 0.039802 0.065162
0.687880 0.050265 0.065107
0.746693 0.059835 0.062270
0.793553 0.071016 0.062967
0.835378 0.083030 0.065625
0.874417 0.095126 0.070779
0.000000 0.030774 0.059773
0.007434 0.027938 0.062170
0.042159 0.024645 0.064328
0.093978 0.028767 0.064641
0.153655 0.030812 0.064195
0.217767 0.032925 0.060598
0.283883 0.035915 0.056448
0.364980 0.041452 0.051565
0.457332 0.055375 0.047606
0.543579 0.071870 0.050499
0.618460 0.085671 0.053403
0.690224 0.099928 0.058183
0.750045 0.114611 0.061751
0.798381 0.124987 0.064110
0.840603 0.134460 0.067004
0.878677 0.143785 0.072578
0.000000 0.064946 0.068013
0.007297 0.066926 0.071100
0.038651 0.069033 0.074367
0.090161 0.068712 0.069025
0.148078 0.071112 0.067346
0.211398 0.077457 0.063939
0.282076 0.084752 0.060817
0.368429 0.093227 0.051398
0.464065 0.106639 0.049595
0.552192 0.121752 0.051789
0.628363 0.136801 0.054965
0.697835 0.151155 0.059843
0.756736 0.164903 0.063153
0.804944 0.175499 0.065240
0.847973 0.186381 0.069508
0.885629 0.195347 0.076758
0.000000 0.108392 0.081635
0.008659 0.110439 0.082907
0.039694 0.112478 0.081968
0.087209 0.112587 0.073368
0.157371 0.111869 0.063507
0.213737 0.119780 0.067890
0.280794 0.130868 0.067419
0.356290 0.144607 0.067197
0.449716 0.160393 0.064350
0.551924 0.176173 0.059275
0.633463 0.193350 0.061278
0.701699 0.211398 0.068751
0.759047 0.227553 0.075372
0.808301 0.240550 0.081140
0.849733 0.253491 0.089810
0.885331 0.262908 0.099977
0.000000 0.151574 0.092780
0.012057 0.152959 0.091322
0.042547 0.153708 0.086451
0.083330 0.155393 0.076672
0.159623 0.153128 0.057901
0.234431 0.159752 0.057454
0.307123 0.174119 0.059052
0.386249 0.191584 0.060000
0.468542 0.210254 0.063882
0.550712 0.229752 0.069813
0.627396 0.248587 0.075027
0.696573 0.266314 0.080331
0.758862 0.283584 0.084216
0.811024 0.298606 0.090212
0.854482 0.311854 0.100764
0.890359 0.321009 0.112355
0.000000 0.195783 0.102325
0.017418 0.196567 0.098241
0.047890 0.197169 0.092295
0.084626 0.200236 0.083124
0.150997 0.202037 0.064947
0.238320 0.205143 0.056587
0.328189 0.219300 0.054631
0.416642 0.238253 0.055596
0.500442 0.256870 0.057709
0.582681 0.276258 0.063005
0.655647 0.294590 0.070520
0.721470 0.313690 0.078820
0.779957 0.330821 0.084751
0.828259 0.345217 0.092498
0.869231 0.357630 0.103893
0.904053 0.366315 0.115707
0.000000 0.243550 0.113860
0.023902 0.243964 0.108349
0.054764 0.245193 0.101678
0.089450 0.249143 0.090834
0.151723 0.258704 0.075958
0.238471 0.257931 0.063428
0.341125 0.272421 0.060449
0.444461 0.290345 0.060242
0.530846 0.307962 0.061523
0.608728 0.326804 0.066310
0.680182 0.344267 0.070729
0.744675 0.361244 0.075118
0.798970 0.376357 0.080238
0.845256 0.389064 0.087212
0.884172 0.400235 0.099592
0.916677 0.406725 0.110191
0.005967 0.294416 0.124551
0.031340 0.294849 0.118855
0.062362 0.296661 0.111883
0.096120 0.302126 0.099888
0.159266 0.316817 0.085418
0.243575 0.323396 0.075353
0.359417 0.332427 0.071143
0.472212 0.350118 0.069134
0.558754 0.364657 0.069147
0.634273 0.381953 0.072624
0.701210 0.398741 0.076383
0.760613 0.415183 0.080717
0.811485 0.428964 0.085061
0.854227 0.440466 0.093494
0.890573 0.448706 0.105597
0.922384 0.453601 0.115200
0.013784 0.351247 0.137307
0.040066 0.351918 0.130688
0.071599 0.354323 0.121642
0.104949 0.361276 0.107435
0.169582 0.379053 0.094985
0.255213 0.395762 0.090291
0.374839 0.403096 0.086627
0.497193 0.420330 0.082894
0.586273 0.431606 0.080780
0.657807 0.443984 0.081647
0.719464 0.456549 0.084156
0.774570 0.470411 0.086825
0.821391 0.482392 0.091842
0.861398 0.490105 0.100653
0.895622 0.495792 0.112868
0.926506 0.499637 0.121703
0.019181 0.413104 0.151835
0.048027 0.414926 0.144674
0.079074 0.418831 0.135784
0.112222 0.426977 0.122040
0.173754 0.444058 0.110876
0.278267 0.463915 0.103787
0.397261 0.478359 0.102906
0.501802 0.487511 0.098645
0.602482 0.501849 0.094301
0.675765 0.510288 0.092270
0.734003 0.517015 0.091684
0.785175 0.526467 0.093417
0.828706 0.534213 0.099261
0.866469 0.538327 0.108156
0.899890 0.541600 0.120239
0.930539 0.544072 0.128441
0.023127 0.478592 0.169152
0.054216 0.481554 0.163093
0.085398 0.485828 0.154380
0.118462 0.493998 0.141511
0.173860 0.506301 0.130990
0.281230 0.528204 0.116125
0.412794 0.541172 0.113902
0.514594 0.554614 0.109348
0.600024 0.568113 0.106040
0.680819 0.575964 0.101521
0.740775 0.578842 0.099293
0.791244 0.582164 0.100370
0.832876 0.585514 0.107147
0.869254 0.587094 0.118106
0.902749 0.588167 0.129063
0.932968 0.588831 0.136809
0.029439 0.544006 0.186873
0.060943 0.546386 0.181419
0.093148 0.550223 0.172189
0.129844 0.558791 0.157891
0.185977 0.569084 0.147443
0.277957 0.586764 0.139247
0.429894 0.604347 0.123041
0.531050 0.616439 0.116761
0.607001 0.630034 0.114421
0.676456 0.639190 0.111433
0.740834 0.641444 0.108955
0.791080 0.639875 0.111035
0.833944 0.637899 0.117509
0.871196 0.636347 0.128134
0.905287 0.635885 0.138326
0.934489 0.634836 0.144914
0.044436 0.608161 0.203707
0.076201 0.610232 0.197050
0.110095 0.615123 0.186450
0.148316 0.622927 0.169490
0.205680 0.630908 0.160889
0.286505 0.645216 0.158047
0.437729 0.670242 0.138266
0.547886 0.677674 0.126138
0.617538 0.688068 0.121521
0.678393 0.696320 0.119362
0.738096 0.700844 0.120855
0.789583 0.697319 0.126741
0.833460 0.691370 0.132513
0.871474 0.686531 0.139618
0.905946 0.683810 0.148071
0.934754 0.681898 0.152309
0.060283 0.667413 0.216408
0.091890 0.669754 0.208242
0.127264 0.674866 0.195933
0.167540 0.681997 0.176993
0.228123 0.689173 0.174851
0.308452 0.701698 0.173771
0.439477 0.728686 0.155858
0.556843 0.735214 0.137550
0.627585 0.742886 0.131538
0.682574 0.749996 0.130281
0.735918 0.754749 0.132940
0.786930 0.752463 0.139095
0.830495 0.746421 0.146838
0.869258 0.739130 0.152455
0.904361 0.733368 0.156596
0.933245 0.729633 0.159114
0.079881 0.720325 0.224898
0.112145 0.721820 0.214723
0.149668 0.728787 0.200986
0.195781 0.736127 0.185909
0.256286 0.742620 0.190383
0.330448 0.752531 0.192596
0.445031 0.776082 0.181017
0.558894 0.788935 0.156648
0.635110 0.791766 0.147035
0.687946 0.796880 0.144000
0.735179 0.802089 0.148140
0.782854 0.802800 0.152092
0.826405 0.798219 0.155636
0.864757 0.791632 0.160003
0.900139 0.783439 0.161936
0.929902 0.777251 0.163915
0.097349 0.766745 0.230630
0.130158 0.768530 0.218844
0.169568 0.775829 0.205867
0.219888 0.782783 0.198826
0.279065 0.789154 0.203396
0.347259 0.798284 0.207859
0.457645 0.818651 0.203563
0.567115 0.832526 0.175005
0.641354 0.834312 0.162412
0.691739 0.837367 0.158792
0.736374 0.842542 0.160203
0.778622 0.845032 0.164447
0.820909 0.844808 0.164521
0.860693 0.841576 0.163698
0.896359 0.833078 0.165934
0.926693 0.823645 0.166665
0.000000 0.000000 0.086814
0.019447 0.000000 0.088253
0.045283 0.000000 0.090129
0.091240 0.000000 0.089232
0.153874 0.000000 0.094075
0.215821 0.000000 0.096951
0.283953 0.002787 0.100595
0.362927 0.010769 0.104383
0.454863 0.021385 0.105831
0.541871 0.031001 0.108438
0.621097 0.040632 0.111086
0.692752 0.051904 0.112818
0.750471 0.061801 0.112304
0.796576 0.068610 0.111090
0.837592 0.076842 0.111360
0.875323 0.086191 0.115442
0.000000 0.037487 0.096904
0.007550 0.033820 0.099917
0.036659 0.024060 0.101696
0.084815 0.028344 0.100253
0.154304 0.031988 0.099187
0.220358 0.034936 0.099523
0.288131 0.037538 0.099291
0.368221 0.042919 0.100173
0.462472 0.052719 0.098313
0.549090 0.062302 0.097813
0.625216 0.072104 0.096843
0.695601 0.083553 0.095134
0.754325 0.096874 0.092709
0.801404 0.109503 0.095137
0.842693 0.121500 0.099814
0.879981 0.130886 0.106680
0.000000 0.071480 0.105987
0.007201 0.072558 0.109587
0.031632 0.072220 0.114550
0.071697 0.068756 0.115903
0.142147 0.073038 0.108634
0.213068 0.077802 0.105601
0.286952 0.080849 0.100958
0.372452 0.081736 0.090747
0.471374 0.090165 0.084109
0.559035 0.106778 0.085291
0.634038 0.122558 0.087695
0.702341 0.138947 0.091669
0.759303 0.154278 0.094474
0.806859 0.166396 0.097325
0.849404 0.178249 0.102750
0.886585 0.187366 0.110608
0.000000 0.108693 0.115488
0.006877 0.111221 0.119251
0.031224 0.114175 0.124516
0.065359 0.117008 0.127940
0.137870 0.114431 0.113675
0.207959 0.119644 0.111532
0.280439 0.128301 0.109060
0.364447 0.139646 0.106203
0.471924 0.151627 0.093248
0.566432 0.166491 0.089584
0.644253 0.183858 0.091391
0.710452 0.201661 0.096220
0.767399 0.216747 0.100189
0.814691 0.229960 0.108073
0.854258 0.242749 0.120393
0.887424 0.254800 0.133952
0.000000 0.154120 0.129721
0.005978 0.156764 0.132604
0.032558 0.159919 0.135683
0.066721 0.162820 0.134704
0.131758 0.161995 0.119144
0.224999 0.164133 0.104879
0.300041 0.176097 0.108242
0.384704 0.192683 0.109040
0.469755 0.210386 0.109540
0.557126 0.228955 0.109022
0.637019 0.247791 0.110140
0.704387 0.266312 0.114950
0.764077 0.285620 0.120054
0.813663 0.301784 0.129346
0.854302 0.314983 0.143855
0.888693 0.325944 0.157065
0.000000 0.201197 0.144245
0.009208 0.203471 0.145384
0.038594 0.206247 0.145105
0.073766 0.207791 0.138412
0.124215 0.210273 0.122961
0.231686 0.210233 0.096848
0.334205 0.223145 0.094742
0.425114 0.242525 0.097734
0.508218 0.262588 0.102636
0.586643 0.282151 0.107316
0.657984 0.300894 0.111942
0.725231 0.320239 0.116334
0.782881 0.338084 0.122625
0.829982 0.353049 0.133708
0.867926 0.366806 0.150237
0.900578 0.377456 0.163981
0.000000 0.250959 0.160558
0.016591 0.252971 0.160171
0.047241 0.255297 0.155984
0.081623 0.256536 0.147636
0.125927 0.262651 0.133551
0.221311 0.264293 0.104733
0.342504 0.277448 0.096368
0.453785 0.294365 0.095151
0.541820 0.313530 0.096931
0.618705 0.333249 0.101443
0.688629 0.351790 0.106469
0.751026 0.369619 0.111438
0.804043 0.385488 0.117981
0.847530 0.398619 0.129222
0.882224 0.410000 0.147312
0.911831 0.421414 0.165004
0.000000 0.303204 0.177379
0.025093 0.305678 0.174971
0.057084 0.308420 0.168762
0.090288 0.310585 0.159980
0.132763 0.319613 0.144103
0.219408 0.333065 0.120749
0.348577 0.337499 0.106565
0.477108 0.358765 0.103808
