luts/DRIVE.cube
LUT_3D_SIZE 6
0.000000 0.000000 0.000000
0.093296 0.000340 0.000000
0.271237 0.014549 0.000000
0.528622 0.052813 0.000000
0.737085 0.087442 0.000789
0.870739 0.114252 0.010936
0.000000 0.101163 0.009721
0.106885 0.102245 0.000000
0.287409 0.130227 0.000000
0.527026 0.182468 0.002770
0.748155 0.230738 0.018788
0.883638 0.265226 0.036291
0.005508 0.231179 0.025052
0.113692 0.241654 0.002447
0.332713 0.262240 0.000000
0.594439 0.317614 0.006547
0.788928 0.362999 0.018402
0.916026 0.396916 0.037905
0.026081 0.393799 0.052477
0.151473 0.418384 0.031347
0.407334 0.461020 0.036394
0.659701 0.488781 0.027869
0.820727 0.516644 0.032463
0.931319 0.534895 0.058659
0.048959 0.591223 0.109405
0.205104 0.618495 0.076263
0.468025 0.651712 0.063139
0.670796 0.681468 0.057395
0.833977 0.681870 0.061245
0.934322 0.672572 0.083644
0.102212 0.758530 0.128619
0.259877 0.775674 0.121047
0.512344 0.820163 0.098275
0.693578 0.830715 0.086421
0.822172 0.837746 0.097100
0.927108 0.815967 0.101140
0.000000 0.000000 0.086814
0.091240 0.000000 0.089232
0.283953 0.002787 0.100595
0.541871 0.031001 0.108438
0.750471 0.061801 0.112304
0.875323 0.086191 0.115442
0.000000 0.108693 0.115488
0.065359 0.117008 0.127940
0.280439 0.128301 0.109060
0.566432 0.166491 0.089584
0.767399 0.216747 0.100189
0.887424 0.254800 0.133952
0.000000 0.250959 0.160558
0.081623 0.256536 0.147636
0.342504 0.277448 0.096368
0.618705 0.333249 0.101443
0.804043 0.385488 0.117981
0.911831 0.421414 0.165004
0.013723 0.426099 0.210613
0.105337 0.435493 0.187040
0.377188 0.493093 0.145133
0.680443 0.522064 0.127592
0.830900 0.542623 0.138731
0.928857 0.551968 0.175219
0.045198 0.620656 0.254844
0.142774 0.629114 0.229164
0.374260 0.670061 0.207060
0.681401 0.706046 0.156644
0.832475 0.697517 0.176725
0.934746 0.687298 0.193545
0.096722 0.773266 0.278077
0.206805 0.784987 0.250772
0.419831 0.815123 0.261158
0.692152 0.845962 0.210237
0.821123 0.849369 0.205708
0.926951 0.829429 0.208052
0.000000 0.021389 0.210613
0.078420 0.002422 0.212901
0.236996 0.005198 0.212245
0.537244 0.034195 0.227503
0.754458 0.067719 0.238452
0.875260 0.098391 0.260551
0.000000 0.132187 0.242515
0.054391 0.139399 0.258292
0.215162 0.132371 0.252913
0.578200 0.160441 0.243610
0.771402 0.207519 0.263320
0.894054 0.247040 0.283092
0.000000 0.256504 0.284439
0.053719 0.270112 0.300350
0.168254 0.292955 0.325151
0.597435 0.379299 0.332013
0.780803 0.425358 0.360042
0.901110 0.448970 0.372454
0.001089 0.456734 0.369325
0.090432 0.481084 0.381926
0.210419 0.509104 0.370847
0.665966 0.567750 0.303864
0.807067 0.593362 0.390473
0.918268 0.603704 0.404784
0.054300 0.662188 0.439455
0.145165 0.668689 0.422399
0.274319 0.678728 0.386948
0.665634 0.739612 0.372889
0.832236 0.732987 0.358360
0.937683 0.725755 0.384037
0.101018 0.800690 0.452888
0.199471 0.805274 0.428250
0.350684 0.823487 0.418494
0.682896 0.868568 0.410464
0.825018 0.880873 0.391262
0.932566 0.857230 0.374238
0.000000 0.054014 0.358278
0.086858 0.017657 0.356220
0.192440 0.021698 0.359060
0.446411 0.036765 0.356508
0.740707 0.078548 0.374515
0.869435 0.112483 0.400141
0.000000 0.172799 0.399427
0.055178 0.174463 0.414029
0.171970 0.125158 0.412916
0.502405 0.172745 0.405252
0.764547 0.226026 0.423414
0.893693 0.274640 0.456270
0.000000 0.296624 0.438776
0.057751 0.310889 0.457763
0.150930 0.322007 0.487383
0.560306 0.389430 0.509500
0.786325 0.441138 0.532888
0.911628 0.468611 0.540486
0.000000 0.465362 0.500121
0.071785 0.490201 0.523678
0.177049 0.527034 0.559327
0.579522 0.601000 0.590484
0.805947 0.643439 0.607167
0.922388 0.662246 0.625291
0.039910 0.668694 0.582884
0.134383 0.687614 0.598381
0.252736 0.708796 0.607586
0.645988 0.764942 0.599069
0.833339 0.777179 0.568795
0.944834 0.777044 0.605470
0.103074 0.818441 0.614137
0.209639 0.832678 0.613282
0.340916 0.849445 0.610398
0.687648 0.892559 0.616069
0.832490 0.902807 0.594633
0.941517 0.889439 0.570206
0.000000 0.074286 0.527027
0.093714 0.031763 0.529080
0.210323 0.032892 0.521476
0.349045 0.036052 0.523033
0.720937 0.090695 0.507388
0.870915 0.125216 0.526988
0.000000 0.207980 0.564133
0.056988 0.199041 0.577064
0.166255 0.152053 0.583201
0.359703 0.166278 0.588356
0.744956 0.247504 0.583658
0.887752 0.289243 0.596492
0.000000 0.353269 0.609967
0.069282 0.369454 0.632999
0.164178 0.381979 0.660896
0.370266 0.372643 0.684809
0.776946 0.453975 0.671346
0.907591 0.485085 0.675777
0.000000 0.511823 0.664686
0.075763 0.528273 0.683676
0.176263 0.550378 0.711229
0.465131 0.599383 0.741619
0.805021 0.664641 0.752488
0.925061 0.686563 0.762013
0.016922 0.668026 0.715592
0.113494 0.686684 0.732959
0.236591 0.709834 0.749806
0.499371 0.763042 0.779833
0.826823 0.814941 0.790317
0.943232 0.825311 0.800027
0.079034 0.817540 0.751657
0.180233 0.833804 0.756783
0.304701 0.850806 0.761510
0.588497 0.900183 0.786609
0.839479 0.922045 0.796026
0.951588 0.921429 0.773576
0.000000 0.108070 0.689131
0.087801 0.061305 0.691409
0.219598 0.059079 0.689228
0.363697 0.062201 0.681038
0.680976 0.111492 0.674021
0.861014 0.149034 0.676753
0.000000 0.243868 0.719824
0.067756 0.240226 0.728905
0.167711 0.208990 0.734369
0.354178 0.214214 0.755480
0.713245 0.270699 0.747339
0.875021 0.304527 0.738256
0.000000 0.397508 0.761066
0.081842 0.411524 0.778211
0.180300 0.416435 0.795166
0.342173 0.407499 0.818360
0.721302 0.459913 0.817963
0.896191 0.496321 0.805490
0.001676 0.539250 0.800407
0.089582 0.553416 0.814336
0.197129 0.567783 0.832003
0.388345 0.594642 0.855211
0.769608 0.669628 0.873532
0.918289 0.686458 0.870272
0.024629 0.675449 0.833661
0.117669 0.690508 0.847379
0.241229 0.706456 0.861183
0.440936 0.739844 0.880908
0.805050 0.823911 0.910500
0.937408 0.834590 0.910379
0.069859 0.814197 0.865230
0.169407 0.826381 0.873987
0.289378 0.841128 0.884779
0.503118 0.877181 0.906099
0.822352 0.930046 0.926769
0.952828 0.939014 0.923439
