luts/DUNKIRK.cube
LUT_3D_SIZE 6
0.000000 0.000000 0.000000
0.115541 0.031379 0.005438
0.339452 0.103072 0.018090
0.514883 0.155821 0.028804
0.661980 0.187803 0.033317
0.773649 0.202127 0.034595
0.011756 0.101410 0.045904
0.134585 0.142792 0.026757
0.371705 0.210717 0.016149
0.550850 0.258792 0.027100
0.699821 0.290138 0.032964
0.810891 0.300752 0.034177
0.064012 0.243264 0.116453
0.124767 0.267980 0.100274
0.404795 0.380284 0.071643
0.589516 0.417740 0.036238
0.748270 0.447137 0.034855
0.860990 0.450366 0.036314
0.167405 0.456278 0.220834
0.212574 0.469360 0.201043
0.376183 0.548077 0.172349
0.653904 0.616104 0.111311
0.780011 0.612889 0.058271
0.902205 0.613530 0.048384
0.212631 0.668213 0.332374
0.248392 0.675532 0.308034
0.355394 0.702753 0.253669
0.675224 0.782178 0.234904
0.843534 0.802016 0.143724
0.927840 0.771719 0.077958
0.232647 0.819015 0.415984
0.269937 0.823541 0.393321
0.362893 0.838389 0.332087
0.636505 0.879403 0.323017
0.838508 0.917218 0.417571
0.936534 0.913858 0.238080
0.003208 0.027020 0.061171
0.098291 0.047962 0.088619
0.337505 0.086634 0.112042
0.516671 0.122335 0.112642
0.656742 0.148596 0.109462
0.765991 0.162780 0.103942
0.017833 0.124496 0.110836
0.116478 0.153201 0.156854
0.362054 0.197198 0.129559
0.548664 0.239967 0.130352
0.701545 0.270158 0.129721
0.813281 0.278025 0.115050
0.064135 0.251287 0.165728
0.156890 0.295015 0.189648
0.397926 0.380708 0.178080
0.585810 0.414930 0.159497
0.755050 0.445391 0.148955
0.872060 0.446556 0.131799
0.159985 0.457453 0.271823
0.227560 0.489595 0.275833
0.369942 0.554048 0.243554
0.644457 0.618609 0.215055
0.780296 0.618695 0.178540
0.910733 0.621551 0.155117
0.205448 0.669573 0.383657
0.266111 0.693124 0.377895
0.372090 0.721778 0.324196
0.666774 0.786953 0.298475
0.838560 0.806243 0.239528
0.928755 0.780265 0.186169
0.222828 0.818993 0.463945
0.260190 0.823497 0.447517
0.332546 0.837908 0.384169
0.619205 0.880378 0.364076
0.836430 0.918805 0.460028
0.932764 0.918577 0.328309
0.013539 0.068978 0.134058
0.084647 0.087279 0.180784
0.319489 0.115767 0.229006
0.524902 0.144690 0.276733
0.646376 0.151668 0.298491
0.745393 0.148303 0.288147
0.031635 0.165545 0.217361
0.115494 0.176356 0.228768
0.360894 0.205342 0.266485
0.560286 0.228126 0.294073
0.687581 0.233728 0.300550
0.788793 0.224020 0.278869
0.091265 0.321548 0.297688
0.181266 0.347459 0.318214
0.409038 0.403841 0.342616
0.593217 0.413271 0.330618
0.743501 0.424445 0.325867
0.863989 0.429435 0.316257
0.153201 0.483783 0.364862
0.219787 0.511704 0.377263
0.413619 0.600271 0.399156
0.641249 0.636533 0.375840
0.770229 0.620431 0.352307
0.906427 0.619793 0.335438
0.186938 0.676996 0.459707
0.249960 0.701654 0.463730
0.445601 0.768134 0.453385
0.655148 0.803857 0.417957
0.829391 0.815358 0.390184
0.924529 0.787456 0.352481
0.201472 0.820917 0.530137
0.233484 0.824216 0.519882
0.293819 0.836854 0.486462
0.582358 0.886017 0.437056
0.831465 0.923251 0.523119
0.927844 0.926195 0.440715
0.036764 0.114993 0.232964
0.089086 0.132582 0.283362
0.290883 0.156685 0.342686
0.501863 0.190966 0.409751
0.652272 0.197503 0.443978
0.728101 0.183881 0.446594
0.055264 0.209710 0.320519
0.123410 0.217828 0.333672
0.320012 0.239138 0.396129
0.537387 0.269605 0.439037
0.689123 0.274241 0.460359
0.760986 0.247333 0.456927
0.110703 0.389955 0.443562
0.180311 0.402133 0.455428
0.365080 0.434281 0.482530
0.620572 0.452728 0.490842
0.763406 0.450334 0.485334
0.845036 0.424168 0.472004
0.157560 0.566947 0.513107
0.217376 0.586119 0.523355
0.407788 0.649992 0.549246
0.683073 0.686598 0.537276
0.792183 0.670141 0.529228
0.896328 0.655596 0.516363
0.166742 0.710022 0.565060
0.222722 0.726989 0.570404
0.420313 0.787042 0.579650
0.681244 0.832133 0.576917
0.831759 0.837942 0.559445
0.916912 0.808198 0.529685
0.171829 0.828939 0.611823
0.200707 0.831560 0.606747
0.240942 0.839336 0.592943
0.521865 0.897915 0.554062
0.821403 0.930045 0.608994
0.916892 0.937184 0.589466
0.066061 0.170818 0.345317
0.109161 0.185438 0.384679
0.245529 0.202031 0.468645
0.466144 0.237653 0.497524
0.637686 0.258864 0.562780
0.733651 0.244702 0.564083
0.087714 0.259325 0.419659
0.145193 0.268736 0.435740
0.265630 0.282720 0.515237
0.492930 0.309471 0.530715
0.665371 0.330437 0.582115
0.751118 0.292603 0.577358
0.113740 0.426425 0.541390
0.181009 0.436718 0.549628
0.343488 0.472355 0.584044
0.554615 0.478198 0.605362
0.732595 0.497431 0.625534
0.827446 0.479333 0.609244
0.142122 0.604138 0.621882
0.197081 0.616135 0.630804
0.377033 0.666572 0.667541
0.630061 0.708326 0.690622
0.801749 0.711940 0.678690
0.878902 0.700621 0.654977
0.144672 0.756647 0.685530
0.198503 0.768175 0.692509
0.404636 0.816909 0.719354
0.656787 0.852409 0.727276
0.831479 0.858309 0.717759
0.899306 0.846112 0.706448
0.146549 0.845964 0.705715
0.170717 0.847809 0.704532
0.198065 0.853138 0.702725
0.445623 0.903444 0.706143
0.804819 0.939998 0.718898
0.900579 0.946339 0.741785
0.094670 0.224558 0.444463
0.130734 0.235410 0.472337
0.213716 0.247946 0.552936
0.425133 0.271119 0.588614
0.590735 0.302542 0.620604
0.717777 0.313085 0.672184
0.112546 0.302745 0.500833
0.152529 0.319212 0.530810
0.232489 0.333359 0.604169
0.437595 0.332206 0.635216
0.607061 0.354928 0.649911
0.723683 0.353485 0.689710
0.129410 0.447597 0.604136
0.163696 0.460403 0.624073
0.252441 0.512481 0.704559
0.462029 0.489653 0.735892
0.652226 0.482052 0.731186
0.776059 0.512270 0.735866
0.124957 0.612438 0.695983
0.144874 0.620019 0.709341
0.252559 0.663463 0.758701
0.576079 0.717780 0.809779
0.741523 0.715616 0.799423
0.844257 0.722547 0.787647
0.127183 0.745672 0.751093
0.149328 0.748207 0.756941
0.283720 0.783825 0.795070
0.609686 0.836245 0.838535
0.796935 0.861224 0.836468
0.879428 0.863828 0.822705
0.135679 0.864771 0.806130
0.173803 0.869893 0.810428
0.359724 0.904703 0.836673
0.643453 0.938954 0.846344
0.806135 0.949582 0.843136
0.889330 0.952980 0.842339
