luts/DUNKIRK.cube
LUT_3D_SIZE 16
0.000000 0.000000 0.000000
0.024560 0.005661 0.000898
0.065326 0.015644 0.002689
0.115541 0.031379 0.005438
0.190560 0.054142 0.009780
0.271228 0.079930 0.014423
0.339452 0.103072 0.018090
0.399079 0.122605 0.022346
0.457470 0.140257 0.025955
0.514883 0.155821 0.028804
0.569006 0.169194 0.031105
0.618084 0.179531 0.032363
0.661980 0.187803 0.033317
0.700909 0.194009 0.033915
0.735687 0.198466 0.034163
0.773649 0.202127 0.034595
0.002682 0.037831 0.011785
0.028403 0.046877 0.008064
0.073532 0.058648 0.006090
0.128297 0.072161 0.007495
0.205734 0.092720 0.010892
0.283604 0.115956 0.014820
0.349603 0.136711 0.018367
0.408634 0.154166 0.022329
0.466734 0.169985 0.026141
0.524112 0.184323 0.028985
0.578235 0.197006 0.031318
0.627743 0.207448 0.032527
0.672147 0.215651 0.033553
0.711516 0.221831 0.034086
0.746369 0.226118 0.034340
0.783948 0.229801 0.034452
0.006954 0.070858 0.027763
0.027071 0.076842 0.020704
0.073627 0.090292 0.015286
0.136199 0.106130 0.011738
0.218196 0.127017 0.010976
0.295693 0.149554 0.013388
0.360608 0.169191 0.016565
0.419318 0.186118 0.020648
0.477739 0.202033 0.024985
0.535432 0.216650 0.028152
0.589686 0.229719 0.030658
0.639343 0.240250 0.032297
0.684106 0.248605 0.033310
0.723498 0.254392 0.033901
0.758551 0.258288 0.034170
0.796157 0.261697 0.034366
0.011756 0.101410 0.045904
0.024252 0.105075 0.039224
0.066159 0.121128 0.032560
0.134585 0.142792 0.026757
0.224621 0.167497 0.017723
0.304688 0.190831 0.014610
0.371705 0.210717 0.016149
0.432664 0.227754 0.019246
0.492608 0.243894 0.023448
0.550850 0.258792 0.027100
0.605133 0.271639 0.029771
0.654838 0.282078 0.031876
0.699821 0.290138 0.032964
0.739190 0.295078 0.033717
0.773744 0.298071 0.034156
0.810891 0.300752 0.034177
0.020644 0.139212 0.065071
0.030753 0.142191 0.062304
0.057200 0.154015 0.054804
0.127102 0.183459 0.050990
0.225048 0.214609 0.041487
0.310920 0.239936 0.026375
0.379510 0.259555 0.021422
0.444121 0.277209 0.021875
0.507268 0.293633 0.023848
0.566877 0.308414 0.026418
0.621605 0.321171 0.028696
0.671860 0.331421 0.031203
0.717124 0.338869 0.032952
0.756398 0.342971 0.033806
0.791015 0.344770 0.034295
0.827628 0.346636 0.034506
0.037082 0.186386 0.088072
0.047685 0.189176 0.085581
0.065195 0.196637 0.080430
0.119148 0.222221 0.075608
0.216350 0.263871 0.074066
0.317563 0.296888 0.056407
0.389006 0.315273 0.036954
0.452668 0.330838 0.029747
0.517941 0.347423 0.029094
0.580049 0.362333 0.029190
0.636359 0.374798 0.029715
0.687544 0.385025 0.031336
0.733523 0.392008 0.033020
0.773403 0.395396 0.034044
0.808276 0.396089 0.034758
0.844790 0.397257 0.035239
0.064012 0.243264 0.116453
0.075909 0.246310 0.113812
0.091469 0.251938 0.107961
0.124767 0.267980 0.100274
0.202819 0.307803 0.099900
0.315610 0.355722 0.096343
0.404795 0.380284 0.071643
0.464850 0.389507 0.047070
0.526110 0.402428 0.037886
0.589516 0.417740 0.036238
0.648020 0.430605 0.035130
0.700995 0.440542 0.034703
0.748270 0.447137 0.034855
0.788702 0.450014 0.035196
0.824149 0.449810 0.035906
0.860990 0.450366 0.036314
0.100540 0.309650 0.148967
0.112854 0.312791 0.145806
0.127900 0.317832 0.139402
0.153065 0.328333 0.130948
0.205119 0.356190 0.122867
0.297994 0.404618 0.124465
0.413520 0.447128 0.115744
0.490615 0.461392 0.085825
0.541105 0.463274 0.057286
0.597152 0.472864 0.046093
0.656414 0.485826 0.043117
0.711486 0.496481 0.041294
0.760610 0.503104 0.040028
0.802634 0.505553 0.039114
0.838566 0.504524 0.038572
0.876001 0.504570 0.038379
0.137802 0.382239 0.184167
0.149481 0.384948 0.180305
0.163532 0.389418 0.173278
0.186370 0.397511 0.165831
0.221344 0.414692 0.153502
0.284709 0.450209 0.147250
0.399926 0.502667 0.148370
0.509407 0.533272 0.133314
0.574406 0.540501 0.098977
0.615122 0.535586 0.067083
0.664743 0.540944 0.054347
0.720035 0.551263 0.050798
0.770995 0.558551 0.048461
0.815036 0.561222 0.046169
0.851160 0.559027 0.043847
0.889755 0.559092 0.042501
0.167405 0.456278 0.220834
0.178453 0.458647 0.216391
0.191511 0.462552 0.208685
0.212574 0.469360 0.201043
0.241633 0.481138 0.189046
0.285810 0.504262 0.174392
0.376183 0.548077 0.172349
0.507549 0.596410 0.171484
0.603737 0.617831 0.149653
0.653904 0.616104 0.111311
0.684653 0.604767 0.076684
0.729675 0.606489 0.062972
0.780011 0.612889 0.058271
0.825058 0.615312 0.054497
0.862169 0.613034 0.051191
0.902205 0.613530 0.048384
0.188732 0.530993 0.258676
0.199599 0.533093 0.253972
0.212111 0.536506 0.246193
0.229894 0.542424 0.235241
0.257261 0.551409 0.224621
0.293312 0.566232 0.207597
0.361482 0.596837 0.195624
0.485187 0.643068 0.197003
0.607360 0.678222 0.192171
0.687805 0.692499 0.164116
0.725181 0.685012 0.122935
0.750673 0.670655 0.086999
0.791423 0.668650 0.072129
0.834403 0.669182 0.065928
0.872314 0.666699 0.060621
0.912513 0.667422 0.056486
0.203575 0.603556 0.296680
0.214283 0.605363 0.291778
0.226296 0.608111 0.284052
0.240596 0.612560 0.271481
0.264339 0.619507 0.257734
0.300170 0.630105 0.242162
0.356054 0.649614 0.223157
0.461342 0.685068 0.216881
0.590010 0.722304 0.218157
0.689775 0.743341 0.208567
0.756417 0.754373 0.175433
0.789077 0.747715 0.134014
0.813135 0.732798 0.097846
0.846890 0.725442 0.080611
0.882463 0.720979 0.072118
0.920993 0.720738 0.066145
0.212631 0.668213 0.332374
0.222928 0.669716 0.327493
0.234404 0.671894 0.319898
0.248392 0.675532 0.308034
0.266553 0.681160 0.288955
0.303825 0.689693 0.273779
0.355394 0.702753 0.253669
0.441785 0.726514 0.237351
0.566008 0.757605 0.235683
0.675224 0.782178 0.234904
0.754338 0.794784 0.220636
0.810376 0.805119 0.184411
0.843534 0.802016 0.143724
0.865611 0.785997 0.107263
0.893262 0.774937 0.087895
0.927840 0.771719 0.077958
0.218438 0.723261 0.363389
0.228818 0.724508 0.358418
0.240517 0.726427 0.351181
0.254885 0.729401 0.339799
0.273272 0.734102 0.321832
0.304608 0.741116 0.300576
0.355772 0.750614 0.282330
0.428119 0.765577 0.260423
0.539506 0.789515 0.250991
0.653719 0.812950 0.252005
0.742964 0.828904 0.248867
0.804986 0.837484 0.231510
0.850894 0.845020 0.194884
0.884869 0.844938 0.152837
0.905432 0.828814 0.114877
0.933323 0.820178 0.093357
0.224542 0.770134 0.389314
0.234869 0.771436 0.384525
0.246649 0.772825 0.377437
0.261223 0.775552 0.366588
0.279878 0.779909 0.349793
0.304728 0.785729 0.323449
0.356781 0.793777 0.307868
0.421831 0.803965 0.285597
0.518069 0.820749 0.270291
0.633864 0.841449 0.274019
0.727489 0.857277 0.281675
0.795516 0.867132 0.284128
0.842312 0.873750 0.274259
0.880517 0.878512 0.236164
0.913808 0.878937 0.180534
0.937676 0.867080 0.129873
0.232647 0.819015 0.415984
0.242838 0.819717 0.411045
0.254925 0.821158 0.403974
0.269937 0.823541 0.393321
0.289208 0.826930 0.377070
0.314043 0.832035 0.351911
0.362893 0.838389 0.332087
0.426178 0.846323 0.312471
0.514723 0.859254 0.300826
0.636505 0.879403 0.323017
0.734241 0.896471 0.357333
0.797141 0.908414 0.389919
0.838508 0.917218 0.417571
0.868965 0.919371 0.415521
0.900812 0.916230 0.342607
0.936534 0.913858 0.238080
0.000743 0.004147 0.019373
0.021808 0.010481 0.027726
0.061032 0.017753 0.033836
0.111214 0.028786 0.038255
0.189146 0.045834 0.040963
0.271396 0.068349 0.042099
0.339993 0.090364 0.043598
0.400258 0.110385 0.045809
0.458667 0.128848 0.048508
0.515478 0.145232 0.051258
0.569015 0.159178 0.053751
0.617631 0.170215 0.055595
0.661444 0.178642 0.056865
0.700567 0.184807 0.057368
0.735238 0.189236 0.057495
0.773286 0.192443 0.057485
0.003625 0.045770 0.037536
0.025640 0.052703 0.044370
0.067493 0.061522 0.047153
0.122449 0.071550 0.045419
0.199035 0.087905 0.047306
0.278217 0.108349 0.048302
0.345711 0.128112 0.050071
0.406272 0.146065 0.052191
0.465747 0.162532 0.054295
0.523901 0.177080 0.056228
0.578146 0.189471 0.057717
0.627588 0.199881 0.058698
0.672207 0.208051 0.059502
0.711754 0.214216 0.059872
0.746968 0.218597 0.059987
0.784944 0.221791 0.058461
0.007947 0.075983 0.049512
0.028807 0.082748 0.052218
0.069389 0.094480 0.058324
0.132246 0.107312 0.053314
0.210895 0.124532 0.052884
0.287578 0.144316 0.053292
0.353791 0.163259 0.054500
0.414382 0.180463 0.056416
0.474858 0.196874 0.058279
0.534313 0.211773 0.059671
0.589792 0.224791 0.060703
0.640127 0.235207 0.061197
0.685476 0.243291 0.061585
0.725311 0.248846 0.061708
0.760590 0.252295 0.061257
0.798069 0.254358 0.058983
0.012328 0.104394 0.061591
0.029839 0.111460 0.063891
0.065997 0.126199 0.067183
0.134284 0.144920 0.064546
0.221364 0.166921 0.060727
0.299114 0.187672 0.058255
0.366185 0.206897 0.058037
0.428458 0.224322 0.058817
0.490317 0.240856 0.060540
0.550346 0.255781 0.061687
0.606006 0.268496 0.062453
0.656745 0.278852 0.062497
0.702324 0.286456 0.062709
0.742101 0.291172 0.062625
0.776944 0.293566 0.062185
0.813909 0.294775 0.059666
0.021146 0.141040 0.078043
0.037724 0.148190 0.080306
0.065350 0.160233 0.079821
0.128722 0.185864 0.080708
0.224424 0.215311 0.077542
0.308769 0.239243 0.068621
0.376515 0.258128 0.064597
0.441745 0.275886 0.063752
0.506388 0.292599 0.063620
0.567651 0.307591 0.063955
0.623882 0.320152 0.064129
0.675036 0.330147 0.063977
0.721020 0.337147 0.064042
0.760614 0.341057 0.063815
0.795476 0.342172 0.063350
0.831937 0.342580 0.060707
0.037251 0.187666 0.100847
0.055481 0.195070 0.102923
0.077462 0.204239 0.100797
0.124127 0.225772 0.097586
0.215675 0.264519 0.099518
0.316304 0.297103 0.090668
0.386993 0.315182 0.078184
0.450844 0.330909 0.072289
0.517471 0.347710 0.070056
0.581122 0.362946 0.068298
0.639005 0.375573 0.066963
0.691567 0.385576 0.066158
0.738550 0.392529 0.065878
0.778741 0.395462 0.065611
0.813881 0.395632 0.064863
0.850067 0.395423 0.062141
0.063565 0.244092 0.129279
0.083395 0.251685 0.130696
0.103958 0.259615 0.127864
0.133830 0.273603 0.120250
0.203197 0.309011 0.118990
0.314160 0.355861 0.118236
0.402814 0.380444 0.103893
0.462527 0.389944 0.087281
0.524632 0.403294 0.079666
0.589655 0.418923 0.075882
0.649881 0.432233 0.072776
0.704508 0.442430 0.070563
0.752984 0.449275 0.069281
0.794329 0.451938 0.068337
0.830286 0.451391 0.066966
0.866966 0.450938 0.063991
0.099493 0.310176 0.162202
0.118705 0.317378 0.162672
0.138073 0.324725 0.158961
0.161916 0.334511 0.150509
0.207975 0.358800 0.141815
0.296534 0.404976 0.142806
0.411555 0.447443 0.136934
0.488118 0.461574 0.116171
0.538509 0.464055 0.096523
0.596030 0.474382 0.086606
0.656836 0.487843 0.082298
0.713773 0.498931 0.078673
0.764462 0.505965 0.075670
0.807562 0.508546 0.073056
0.844453 0.507416 0.070482
0.881830 0.506740 0.067011
0.136440 0.382430 0.198012
0.153302 0.388555 0.197287
0.170851 0.395052 0.192582
0.192607 0.403161 0.184375
0.225257 0.418383 0.172378
0.284080 0.451349 0.164811
0.397450 0.502959 0.166316
0.507020 0.533379 0.154752
0.571990 0.540925 0.128041
0.612733 0.536855 0.105378
0.663867 0.543214 0.094130
0.720665 0.553986 0.089085
0.773492 0.561767 0.084867
0.818820 0.564777 0.080661
0.855950 0.562708 0.076543
0.895091 0.562757 0.072505
0.166192 0.456594 0.235237
0.181137 0.461798 0.233515
0.197226 0.467592 0.228135
0.216366 0.474383 0.218606
0.243940 0.485016 0.206981
0.285670 0.506232 0.192122
0.374162 0.548836 0.188941
0.504966 0.596846 0.189301
0.601613 0.618301 0.171531
0.651942 0.617016 0.139537
0.682531 0.606579 0.114643
0.729033 0.609239 0.102352
0.781158 0.616237 0.096161
0.827365 0.619164 0.090733
0.865528 0.617109 0.085057
0.906434 0.617806 0.080219
0.187416 0.531246 0.273535
0.201624 0.535959 0.271121
0.216570 0.541007 0.265254
0.231728 0.546623 0.253482
0.256801 0.554942 0.241507
0.293175 0.568941 0.225120
0.360520 0.598497 0.212060
0.482493 0.643756 0.213067
0.605443 0.679001 0.209995
0.686082 0.693353 0.186285
0.723506 0.686092 0.150034
0.749387 0.672948 0.124294
0.791077 0.671915 0.110552
0.835597 0.672925 0.102700
0.874620 0.670922 0.095308
0.915484 0.671683 0.088758
0.202357 0.603800 0.311726
0.215473 0.607789 0.308873
0.228801 0.611657 0.302799
0.243340 0.616111 0.291391
0.263192 0.622933 0.273973
0.300176 0.633438 0.259052
0.356060 0.652037 0.239860
0.459367 0.686248 0.232180
0.587583 0.722699 0.234130
0.688426 0.744414 0.226476
0.754787 0.755149 0.197725
0.787783 0.748974 0.160289
0.812168 0.735216 0.133446
0.846890 0.728765 0.117563
0.883421 0.724721 0.107631
0.922593 0.724945 0.099269
0.211278 0.668657 0.347342
0.223516 0.671889 0.344268
0.237053 0.675086 0.338122
0.251899 0.679070 0.327031
0.270281 0.684775 0.309247
0.303918 0.693095 0.289971
0.356264 0.705765 0.270330
0.441107 0.728126 0.252836
0.563680 0.758574 0.250510
0.673591 0.783078 0.250653
0.753624 0.795805 0.238468
0.809342 0.806169 0.206661
0.842692 0.803147 0.168450
0.864824 0.788296 0.140756
0.893103 0.778036 0.122991
0.928438 0.775481 0.111632
0.217061 0.723425 0.378042
0.230131 0.726526 0.374701
0.243994 0.729637 0.368451
0.259052 0.732874 0.357805
0.277802 0.737574 0.340941
0.304989 0.744459 0.316271
0.357488 0.753760 0.298505
0.429077 0.768194 0.276409
0.537834 0.790851 0.265749
0.651790 0.813788 0.266795
0.741669 0.829544 0.264461
0.804088 0.838353 0.249620
0.849875 0.845980 0.217696
0.884237 0.846166 0.178286
0.904663 0.831064 0.146662
0.933477 0.823175 0.126706
0.222993 0.770336 0.403755
0.236140 0.772816 0.400065
0.249828 0.775508 0.393843
0.264942 0.778505 0.383591
0.283753 0.782520 0.367744
0.308423 0.788465 0.342609
0.356934 0.796389 0.322971
0.422441 0.806166 0.301002
0.516642 0.822010 0.284732
0.631576 0.842153 0.288150
0.726412 0.857972 0.296396
0.794851 0.867829 0.300016
0.841604 0.874584 0.293510
0.879426 0.879824 0.260953
0.912944 0.880094 0.207914
0.937394 0.868808 0.158079
0.230574 0.819019 0.430145
0.241298 0.819916 0.425772
0.253326 0.821339 0.419083
0.268195 0.823543 0.409087
0.287299 0.826958 0.393816
0.311745 0.831998 0.370219
0.354702 0.838330 0.344224
0.419405 0.846372 0.324593
0.509493 0.859262 0.312734
0.632715 0.879592 0.334531
0.732435 0.896726 0.369168
0.796240 0.908719 0.402061
0.837924 0.917443 0.430386
0.868570 0.920549 0.431482
0.900049 0.917733 0.364833
0.935430 0.915113 0.266838
0.001250 0.013497 0.040405
0.019919 0.020715 0.050077
0.056224 0.027748 0.057457
0.104852 0.036186 0.064863
0.182467 0.048960 0.071560
0.267226 0.065829 0.074190
0.338048 0.083368 0.074847
0.400027 0.101158 0.075560
0.459320 0.117887 0.076077
0.515997 0.132981 0.076359
0.568096 0.145792 0.076882
0.615900 0.156596 0.077795
0.659424 0.165573 0.078350
0.698187 0.172200 0.078459
0.733211 0.177439 0.078312
0.771025 0.181096 0.078063
0.005481 0.054029 0.060203
0.025988 0.058570 0.064765
0.064698 0.065529 0.070207
0.117467 0.073626 0.073784
0.195746 0.086864 0.077537
0.277527 0.104217 0.078792
0.346856 0.121979 0.079792
0.408772 0.138669 0.080502
0.468996 0.154432 0.081161
0.526774 0.168609 0.081752
0.579992 0.180535 0.082280
0.628197 0.190414 0.082781
0.672214 0.198626 0.083122
0.711088 0.204842 0.083029
0.746287 0.209418 0.081955
0.783728 0.212297 0.079398
0.009378 0.083105 0.071494
0.030927 0.088591 0.075083
0.057948 0.098695 0.100112
0.126483 0.108047 0.087010
0.206926 0.122051 0.084121
0.284788 0.139333 0.084119
0.352087 0.156623 0.084508
0.413897 0.173061 0.085368
0.474895 0.188718 0.086061
0.534381 0.203209 0.086721
0.589652 0.215819 0.087244
0.639654 0.226327 0.087705
0.685170 0.235049 0.087922
0.725187 0.241443 0.087996
0.760669 0.245615 0.086847
0.797776 0.246792 0.082012
0.014104 0.111408 0.081465
0.034495 0.118823 0.086245
0.064363 0.132242 0.100851
0.127480 0.148298 0.103731
0.218904 0.166158 0.093924
0.295462 0.184624 0.092717
0.362181 0.202410 0.092631
0.425020 0.219309 0.092862
0.487692 0.235431 0.093211
0.548670 0.250166 0.093365
0.605126 0.262730 0.093155
0.656267 0.272988 0.092629
0.702415 0.280811 0.092264
0.742823 0.285965 0.091833
0.778032 0.288359 0.090078
0.814268 0.287763 0.083962
0.022770 0.146001 0.095725
0.042542 0.154506 0.100929
0.075525 0.168168 0.105983
0.126878 0.190426 0.113768
0.224228 0.216157 0.108535
0.306921 0.238002 0.104132
0.373847 0.255559 0.101717
0.439089 0.272724 0.100679
0.504001 0.288983 0.099847
0.566285 0.303733 0.098841
0.623452 0.316165 0.097622
0.675198 0.325962 0.096317
0.721699 0.333143 0.095516
0.761988 0.337148 0.094567
0.797081 0.338140 0.092558
0.833496 0.336931 0.086328
0.037782 0.190670 0.116873
0.059530 0.199964 0.122149
0.090288 0.212852 0.125927
0.132991 0.232632 0.126331
0.216089 0.266037 0.127230
0.314859 0.297169 0.122404
0.385008 0.314165 0.114617
0.448719 0.329167 0.110555
0.515879 0.345773 0.108008
0.580400 0.360736 0.105328
0.639326 0.373452 0.102723
0.692480 0.383353 0.100781
0.739889 0.390289 0.099251
0.780884 0.393304 0.097852
0.816339 0.393252 0.095358
0.852449 0.391867 0.089131
0.062840 0.245718 0.144536
0.086401 0.255525 0.149445
0.115604 0.267850 0.151981
0.149338 0.283250 0.148691
0.205906 0.311866 0.145740
0.311825 0.356326 0.146422
0.400522 0.380312 0.136085
0.459898 0.389299 0.124263
0.522574 0.402470 0.118230
0.588555 0.417942 0.114164
0.649941 0.431214 0.110307
0.705580 0.441708 0.107006
0.754970 0.448573 0.104297
0.797145 0.451314 0.101935
0.833569 0.450774 0.098810
0.870174 0.449419 0.092477
0.097295 0.310965 0.177671
0.120549 0.320366 0.181470
0.147384 0.331911 0.182585
0.175766 0.344435 0.177668
0.212709 0.363568 0.169066
0.294613 0.405767 0.168094
0.408332 0.447937 0.165401
0.485008 0.461571 0.148690
0.535338 0.463616 0.133084
0.593688 0.474049 0.125202
0.656209 0.487965 0.120336
0.714355 0.499111 0.115798
0.766304 0.506455 0.111718
0.810332 0.509259 0.107772
0.847820 0.508299 0.103734
0.885472 0.507287 0.097518
0.133753 0.382696 0.214137
0.153971 0.391012 0.216518
0.177662 0.401307 0.216027
0.201360 0.411667 0.209612
0.230012 0.424351 0.198977
0.284398 0.453824 0.189547
0.393195 0.503355 0.190808
0.504030 0.534537 0.183486
0.568733 0.541202 0.160744
0.609528 0.536912 0.141673
0.661959 0.543635 0.132508
0.720636 0.554893 0.126882
0.774271 0.562970 0.121487
0.820876 0.566317 0.116067
0.858813 0.564523 0.110523
0.898454 0.564537 0.104681
0.163626 0.456672 0.251869
0.181188 0.463829 0.253013
0.201779 0.472867 0.251285
0.221271 0.481556 0.243492
0.246644 0.491295 0.231802
0.287348 0.510433 0.217095
0.371338 0.550282 0.211500
0.500650 0.597863 0.213461
0.598190 0.618926 0.200266
0.649086 0.617777 0.172379
0.679791 0.607163 0.150487
0.727496 0.610534 0.140094
0.781154 0.617921 0.133336
0.828686 0.621228 0.126417
0.867744 0.619331 0.119431
0.909050 0.620108 0.112786
0.184963 0.531260 0.290451
0.201365 0.537861 0.290680
0.218938 0.545393 0.287956
0.236876 0.553021 0.279854
0.258447 0.561330 0.264791
0.295501 0.574611 0.249420
0.360024 0.601549 0.234674
0.478033 0.644899 0.234353
0.602085 0.680310 0.233714
0.683430 0.694307 0.214903
0.720803 0.687234 0.182894
0.746993 0.674142 0.159399
0.790361 0.673769 0.147504
0.835754 0.675012 0.138524
0.875826 0.673327 0.129975
0.917206 0.674380 0.121641
0.199725 0.603911 0.328728
0.214651 0.609452 0.328021
0.230744 0.615685 0.324797
0.248826 0.622517 0.316461
0.268233 0.629664 0.299622
0.303082 0.639600 0.282108
0.358123 0.656696 0.262944
0.456582 0.688278 0.252881
0.583839 0.724095 0.254931
0.686486 0.745977 0.249723
0.752669 0.756366 0.226113
0.785707 0.750009 0.192437
0.810750 0.736844 0.167203
0.846522 0.731036 0.152914
0.883628 0.727331 0.142340
0.923563 0.727575 0.132469
0.209008 0.668998 0.364094
0.222557 0.673298 0.362784
0.239727 0.679099 0.359167
0.258421 0.685241 0.350480
0.277990 0.691332 0.334499
0.307781 0.699823 0.311885
0.360617 0.711548 0.293055
0.441585 0.731370 0.273986
0.560039 0.760134 0.270208
0.670777 0.784308 0.271137
0.752484 0.797668 0.261419
0.807511 0.807245 0.234550
0.841125 0.804643 0.199757
0.863683 0.790059 0.173187
0.892927 0.780476 0.156858
0.928720 0.777830 0.144870
0.214526 0.723738 0.394459
0.229152 0.727832 0.392534
0.247574 0.733537 0.388509
0.266774 0.738770 0.379627
0.286796 0.743995 0.364020
0.311972 0.750705 0.338938
0.363192 0.759727 0.320088
0.432717 0.772352 0.297947
0.536110 0.792906 0.285238
0.648914 0.815230 0.286261
0.740288 0.831169 0.285021
0.802556 0.839349 0.272989
0.848316 0.847197 0.246117
0.882903 0.847611 0.210016
0.904080 0.832586 0.177854
0.933191 0.825238 0.159187
0.220115 0.770413 0.419671
0.234836 0.773807 0.417086
0.252907 0.778578 0.412632
0.271349 0.783130 0.403655
0.291167 0.787593 0.388973
0.315986 0.793328 0.365838
0.360320 0.800707 0.342319
0.425100 0.809962 0.320991
0.515729 0.824308 0.303551
0.628685 0.843540 0.306216
0.724672 0.859417 0.315434
0.794180 0.869865 0.320787
0.840759 0.876104 0.317642
0.878061 0.881245 0.290903
0.911653 0.881700 0.241652
0.936600 0.870386 0.189821
0.227456 0.819016 0.445930
0.238104 0.819732 0.441782
0.250418 0.821358 0.436319
0.264963 0.823537 0.426911
0.283541 0.827034 0.412707
0.307624 0.831734 0.391061
0.341979 0.837942 0.358187
0.408506 0.846255 0.338695
0.501329 0.859516 0.326834
0.627283 0.879794 0.347803
0.729758 0.897240 0.382371
0.794845 0.909049 0.415299
0.837234 0.917956 0.444111
0.867992 0.921352 0.448380
0.898998 0.919201 0.388352
0.934150 0.916806 0.296790
0.003208 0.027020 0.061171
0.019092 0.033280 0.070321
0.052498 0.040800 0.079612
0.098291 0.047962 0.088619
0.175132 0.058159 0.099317
0.264271 0.072390 0.106971
0.337505 0.086634 0.112042
0.400108 0.099243 0.114127
0.460066 0.110337 0.112832
0.516671 0.122335 0.112642
0.568099 0.132759 0.112070
0.614573 0.141498 0.110907
0.656742 0.148596 0.109462
0.694519 0.154355 0.107471
0.728741 0.159228 0.105452
0.765991 0.162780 0.103942
0.007531 0.061873 0.081016
0.025008 0.065633 0.084783
0.060365 0.072157 0.093453
0.110615 0.079124 0.099524
0.189344 0.089869 0.107277
0.275720 0.103795 0.111430
0.347270 0.118065 0.113956
0.410099 0.132265 0.115946
0.470881 0.145770 0.116719
0.528517 0.157812 0.116513
0.580838 0.168058 0.115975
0.627994 0.176703 0.115079
0.670659 0.183913 0.113784
0.708915 0.189757 0.112038
0.743342 0.194261 0.109439
0.779999 0.196916 0.105164
0.011873 0.092554 0.097973
0.031194 0.096331 0.100553
0.060897 0.102908 0.114432
0.121916 0.110541 0.113749
0.203459 0.122036 0.115837
0.285554 0.136952 0.118176
0.354751 0.152114 0.120100
0.417516 0.166627 0.121211
0.478818 0.180207 0.121612
0.537653 0.192820 0.121653
0.591272 0.203700 0.121396
0.639763 0.212970 0.120997
0.684004 0.221034 0.120312
0.722951 0.227241 0.119055
0.757973 0.231486 0.115950
0.793911 0.232064 0.107913
0.017833 0.124496 0.110836
0.037779 0.129952 0.114768
0.070854 0.140075 0.128418
0.116478 0.153201 0.156854
0.218026 0.166327 0.128574
0.295493 0.181869 0.129147
0.362054 0.197198 0.129559
0.425014 0.212059 0.130017
0.487830 0.226561 0.130301
0.548664 0.239967 0.130352
0.604659 0.251763 0.130121
0.655633 0.261848 0.129779
0.701545 0.270158 0.129721
0.741952 0.276348 0.129230
0.777440 0.279741 0.126195
0.813281 0.278025 0.115050
0.027069 0.159136 0.123589
0.046423 0.165938 0.128338
0.083216 0.179127 0.137574
0.117502 0.199488 0.166965
0.225187 0.219191 0.148096
0.307114 0.237673 0.143971
0.371953 0.252565 0.142992
0.435739 0.267675 0.142522
0.500539 0.282721 0.141887
0.563213 0.296472 0.140846
0.621005 0.308423 0.139539
0.673427 0.318179 0.138324
0.720545 0.325601 0.137199
0.761265 0.330148 0.135872
0.797212 0.331647 0.132069
0.833171 0.329029 0.119964
0.041030 0.200036 0.140909
0.061292 0.207780 0.146050
0.098360 0.222188 0.154479
0.130311 0.244172 0.174390
0.214759 0.272353 0.174496
0.315019 0.298605 0.162913
0.383468 0.313192 0.157609
0.445802 0.326241 0.154520
0.512552 0.341532 0.152282
0.577513 0.355786 0.149673
0.637083 0.368033 0.147126
0.691010 0.377860 0.144773
0.739281 0.384731 0.142831
0.780814 0.388088 0.140771
0.816992 0.388489 0.136708
0.853463 0.386200 0.125588
0.064135 0.251287 0.165728
0.085689 0.259999 0.170915
0.121540 0.274879 0.178585
0.156890 0.295015 0.189648
0.214710 0.320753 0.187291
0.311326 0.358620 0.184957
0.397926 0.380708 0.178080
0.456452 0.388016 0.168711
0.519155 0.400104 0.163512
0.585810 0.414930 0.159497
0.648482 0.428049 0.155591
0.704770 0.438248 0.152155
0.755050 0.445391 0.148955
0.798086 0.448435 0.145856
0.834690 0.448091 0.141449
0.872060 0.446556 0.131799
0.095292 0.313644 0.197555
0.118055 0.322842 0.202228
0.150889 0.337254 0.208521
0.184561 0.354767 0.213337
0.224231 0.374429 0.209115
0.296365 0.409846 0.204546
0.404039 0.449247 0.203189
0.480790 0.461703 0.191241
