luts/FORD_V_FERRARI.cube
LUT_3D_SIZE 6
0.000000 0.000000 0.000000
0.088736 0.006750 0.000167
0.308000 0.013150 -0.000098
0.521497 0.009174 -0.001804
0.724609 0.015063 -0.001767
0.926170 0.019477 -0.000998
0.007217 0.065371 0.004310
0.154826 0.096270 0.001106
0.380973 0.135484 0.000973
0.580628 0.140018 0.000503
0.774836 0.145778 0.000124
0.960043 0.167939 0.000080
0.134404 0.195266 0.001941
0.241606 0.231631 0.001823
0.423771 0.323510 0.005077
0.609442 0.366236 0.003040
0.797915 0.372389 0.001522
0.979035 0.381196 0.001600
0.318659 0.366926 0.029516
0.406138 0.398742 0.009374
0.499362 0.493590 0.012691
0.644139 0.545602 0.015428
0.806809 0.584972 0.006244
0.986572 0.592598 0.002039
0.477148 0.533567 0.165052
0.549082 0.557581 0.141397
0.610525 0.622002 0.070401
0.693525 0.711289 0.025155
0.841272 0.753832 0.022068
0.988499 0.795634 0.007486
0.574195 0.680860 0.320888
0.645330 0.707553 0.309392
0.714411 0.750739 0.272771
0.759005 0.841681 0.142442
0.865230 0.919541 0.030108
0.980184 0.966704 0.198555
0.003371 0.003673 0.027047
0.067134 0.012007 0.044759
0.299953 0.001235 0.054924
0.514988 0.001459 0.077280
0.719852 0.002954 0.089326
0.919550 0.006634 0.101959
0.018901 0.078748 0.072814
0.105227 0.108180 0.094215
0.416588 0.085917 0.075344
0.603703 0.052426 0.047743
0.787129 0.063953 0.047249
0.962080 0.129677 0.113379
0.029379 0.202169 0.052054
0.157990 0.220063 0.028363
0.424341 0.331811 0.038285
0.629145 0.360291 0.059355
0.820292 0.355972 0.059269
0.982627 0.377338 0.140891
0.224904 0.347082 0.077369
0.342603 0.379914 0.049912
0.487881 0.485620 0.021743
0.645455 0.550337 0.042490
0.815438 0.584629 0.059898
0.989287 0.592215 0.147787
0.409854 0.523400 0.206046
0.499032 0.545605 0.183203
0.606421 0.608449 0.130083
0.688008 0.713389 0.041896
0.841695 0.758103 0.062289
0.989339 0.797759 0.141834
0.522548 0.683619 0.362119
0.616708 0.709847 0.356674
0.704885 0.752435 0.336815
0.768498 0.837401 0.264712
0.859220 0.934596 0.147981
0.979050 0.972661 0.342145
0.024794 0.015448 0.097362
0.063109 0.031902 0.111083
0.214953 0.050716 0.143745
0.452122 0.025276 0.184802
0.682213 0.002648 0.225172
0.896219 0.004749 0.257287
0.050502 0.093226 0.186611
0.083992 0.106643 0.237843
0.289971 0.129841 0.218716
0.528765 0.059565 0.220886
0.741579 0.035214 0.237398
0.945065 0.100979 0.284947
0.071018 0.261812 0.261735
0.104595 0.288656 0.286622
0.352353 0.354845 0.332577
0.652028 0.347123 0.320711
0.862004 0.299352 0.274310
0.980900 0.370824 0.339525
0.092072 0.403106 0.262507
0.123620 0.412970 0.249252
0.398945 0.450274 0.232579
0.634963 0.564234 0.253121
0.839740 0.580122 0.248461
0.990037 0.591655 0.356057
0.244488 0.538905 0.299209
0.314435 0.547050 0.297025
0.535526 0.579564 0.237633
0.672195 0.698103 0.169866
0.840765 0.767451 0.153903
0.989453 0.799566 0.349558
0.418841 0.691396 0.407234
0.528448 0.718706 0.428878
0.656383 0.757527 0.424528
0.769330 0.823643 0.411780
0.855520 0.935312 0.369144
0.980398 0.981874 0.474145
0.068647 0.037845 0.166193
0.099145 0.054194 0.172761
0.190610 0.077906 0.222029
0.360320 0.100691 0.242559
0.575794 0.093453 0.308106
0.831608 0.047618 0.381635
0.078388 0.113492 0.283763
0.112981 0.120559 0.329193
0.236937 0.172805 0.307418
0.410878 0.147818 0.288395
0.621886 0.134601 0.340598
0.882724 0.161743 0.426220
0.099077 0.283861 0.411348
0.134847 0.302387 0.446192
0.277754 0.372162 0.524752
0.556868 0.411742 0.487848
0.777895 0.327508 0.474849
0.960367 0.378608 0.512348
0.114391 0.485327 0.495909
0.151164 0.505308 0.513682
0.288014 0.559481 0.555458
0.575578 0.586174 0.556740
0.842192 0.577364 0.550616
0.983780 0.592130 0.566507
0.206414 0.637570 0.521210
0.242827 0.646708 0.519821
0.350142 0.658654 0.504049
0.579437 0.662740 0.498227
0.816544 0.770424 0.504472
0.987154 0.800359 0.579072
0.327937 0.751193 0.546315
0.416731 0.781193 0.566374
0.547276 0.802597 0.577717
0.700229 0.840913 0.604534
0.848663 0.921181 0.618609
0.976924 0.983597 0.647943
0.113775 0.071158 0.248231
0.145957 0.089021 0.262451
0.204159 0.128299 0.292235
0.372563 0.152062 0.348523
0.504063 0.165311 0.350341
0.704425 0.177881 0.435710
0.110996 0.147903 0.391789
0.155397 0.152307 0.411238
0.229972 0.198407 0.441426
0.439007 0.255852 0.439912
0.547750 0.213342 0.392730
0.757626 0.269604 0.493224
0.125507 0.311472 0.521788
0.157487 0.327627 0.554389
0.245836 0.376826 0.623171
0.504621 0.463351 0.594765
0.675362 0.432104 0.562460
0.844445 0.461099 0.616313
0.123794 0.509816 0.658868
0.163032 0.527690 0.684282
0.268419 0.570088 0.746349
0.548267 0.622955 0.750695
0.733925 0.645628 0.697966
0.910449 0.630048 0.710456
0.175407 0.694841 0.713268
0.217007 0.708824 0.724105
0.297534 0.741094 0.751510
0.537466 0.785420 0.778026
0.747891 0.781408 0.750851
0.965826 0.805644 0.784302
0.271002 0.838220 0.744714
0.361052 0.874744 0.768422
0.502467 0.898087 0.778750
0.658012 0.910448 0.789426
0.800850 0.927919 0.803000
0.964144 0.979067 0.836378
0.160859 0.118459 0.358813
0.192638 0.137540 0.376629
0.245461 0.178307 0.416761
0.421054 0.268389 0.487561
0.566055 0.272648 0.493007
0.657314 0.274869 0.487201
0.151361 0.197611 0.490090
0.187299 0.215967 0.507215
0.246400 0.259581 0.547146
0.440033 0.372767 0.558938
0.612356 0.399907 0.582807
0.716272 0.389299 0.566338
0.154181 0.355286 0.635590
0.202396 0.376377 0.659363
0.277642 0.414471 0.698300
0.459612 0.487370 0.703537
0.650058 0.547303 0.683958
0.773606 0.549088 0.677188
0.152411 0.539764 0.794242
0.223384 0.559399 0.815439
0.331043 0.593591 0.850840
0.531245 0.639307 0.846210
0.686561 0.681778 0.778021
0.818131 0.697829 0.776016
0.167996 0.713138 0.872096
0.250082 0.737203 0.894762
0.369841 0.771839 0.928501
0.604357 0.804495 0.934097
0.764808 0.821144 0.897495
0.882322 0.839256 0.872552
0.213960 0.873523 0.914088
0.316889 0.917145 0.945775
0.475670 0.946113 0.959805
0.650648 0.966264 0.963933
0.805991 0.976056 0.958542
0.939765 0.978301 0.950743
