luts/FORD_V_FERRARI.cube
LUT_3D_SIZE 16
0.000000 0.000000 0.000000
0.013419 0.001245 0.000099
0.040945 0.003490 0.000118
0.088736 0.006750 0.000167
0.154561 0.011074 0.000148
0.229765 0.013884 0.000101
0.308000 0.013150 -0.000098
0.382402 0.011482 -0.001213
0.452926 0.009948 -0.001751
0.521497 0.009174 -0.001804
0.588316 0.010876 -0.002099
0.655985 0.012976 -0.002251
0.724609 0.015063 -0.001767
0.794440 0.016453 -0.001424
0.861413 0.017926 -0.001048
0.926170 0.019477 -0.000998
0.000800 0.013223 0.001125
0.017475 0.016344 0.000731
0.058845 0.022034 0.000553
0.117347 0.028598 0.000426
0.187961 0.034196 0.000382
0.261243 0.037519 0.000275
0.333841 0.038616 0.000163
0.404740 0.037053 -0.000212
0.473958 0.034758 -0.001173
0.541732 0.032577 -0.001875
0.607778 0.034213 -0.002034
0.674107 0.037752 -0.002401
0.741398 0.041599 -0.002172
0.809045 0.045353 -0.002005
0.874507 0.049077 -0.001887
0.937585 0.052882 -0.002217
0.002347 0.035308 0.002691
0.022220 0.040249 0.002261
0.071864 0.046546 0.000836
0.140642 0.059615 0.000731
0.215699 0.069175 0.000708
0.289160 0.074158 0.000560
0.359290 0.076749 0.000419
0.427345 0.077868 0.000342
0.494994 0.077094 0.000202
0.562166 0.074906 -0.000027
0.628206 0.073765 -0.000928
0.694133 0.074791 -0.001668
0.759055 0.078225 -0.002168
0.823894 0.083695 -0.002311
0.887653 0.090288 -0.002601
0.949617 0.097576 -0.002800
0.007217 0.065371 0.004310
0.033852 0.071305 0.003436
0.089442 0.078148 0.001011
0.154826 0.096270 0.001106
0.234217 0.118149 0.001264
0.310113 0.130157 0.001102
0.380973 0.135484 0.000973
0.448792 0.138193 0.000787
0.514778 0.139853 0.000655
0.580628 0.140018 0.000503
0.645760 0.141229 0.000368
0.710892 0.142297 0.000181
0.774836 0.145778 0.000124
0.838427 0.149791 -0.000061
0.900878 0.157125 -0.000394
0.960043 0.167939 0.000080
0.029084 0.102741 0.006667
0.064965 0.109079 0.002412
0.118007 0.118243 0.001070
0.173261 0.138962 0.001257
0.245760 0.164626 0.001750
0.323372 0.190001 0.001850
0.395777 0.203731 0.001667
0.463970 0.209279 0.001420
0.530034 0.212080 0.001197
0.595256 0.214595 0.001028
0.659591 0.217195 0.000880
0.723119 0.220365 0.000734
0.786077 0.223809 0.000631
0.848747 0.227992 0.000461
0.910811 0.232819 0.000368
0.967662 0.240191 0.000635
0.073410 0.147767 0.002906
0.114676 0.153321 0.001509
0.155217 0.162603 0.001267
0.201209 0.184612 0.001377
0.262802 0.214389 0.002064
0.336643 0.242218 0.002842
0.408029 0.267971 0.002962
0.474630 0.282484 0.002508
0.539872 0.288795 0.002128
0.604137 0.291647 0.001746
0.667838 0.293733 0.001415
0.730894 0.296066 0.001182
0.793598 0.298597 0.000992
0.856315 0.301600 0.000795
0.918118 0.304724 0.000666
0.973676 0.310620 0.001268
0.134404 0.195266 0.001941
0.167198 0.202618 0.001542
0.201289 0.212392 0.001589
0.241606 0.231631 0.001823
0.291320 0.267195 0.002665
0.355511 0.297318 0.004067
0.423771 0.323510 0.005077
0.487557 0.347138 0.004828
0.548152 0.360335 0.003994
0.609442 0.366236 0.003040
0.671717 0.368806 0.002361
0.734611 0.370624 0.001834
0.797915 0.372389 0.001522
0.860894 0.374356 0.001183
0.923448 0.376811 0.000998
0.979035 0.381196 0.001600
0.193166 0.248841 0.002666
0.222634 0.256804 0.002385
0.255797 0.267122 0.002318
0.292325 0.284127 0.002841
0.332714 0.318367 0.003699
0.383871 0.356773 0.005298
0.443620 0.379876 0.007508
0.503182 0.401478 0.008365
0.559832 0.421813 0.007342
0.616583 0.434413 0.005645
0.675544 0.440634 0.004116
0.737058 0.443536 0.003037
0.799791 0.445167 0.002280
0.863684 0.446966 0.001611
0.926658 0.448909 0.001291
0.982929 0.452030 0.001660
0.254189 0.306435 0.008211
0.284002 0.314826 0.005654
0.315728 0.325363 0.004629
0.349316 0.340819 0.004656
0.382491 0.370739 0.005723
0.421090 0.409943 0.007673
0.468619 0.439918 0.009888
0.521874 0.456169 0.011848
0.575567 0.474871 0.012236
0.628173 0.493542 0.009975
0.682756 0.505975 0.007319
0.740865 0.512989 0.005253
0.802223 0.516900 0.003596
0.865565 0.519062 0.002650
0.928696 0.520911 0.001902
0.985620 0.522683 0.001793
0.318659 0.366926 0.029516
0.347350 0.375109 0.023251
0.376426 0.384896 0.015372
0.406138 0.398742 0.009374
0.433637 0.423191 0.008597
0.462826 0.458219 0.010361
0.499362 0.493590 0.012691
0.543539 0.515941 0.014722
0.593540 0.528145 0.016081
0.644139 0.545602 0.015428
0.695084 0.563930 0.012336
0.749287 0.577176 0.009036
0.806809 0.584972 0.006244
0.867721 0.589125 0.004137
0.929572 0.591418 0.002764
0.986572 0.592598 0.002039
0.379016 0.425581 0.068634
0.405560 0.433119 0.061124
0.431701 0.441718 0.050835
0.458621 0.453687 0.036585
0.483176 0.474037 0.022294
0.506433 0.504399 0.015223
0.533859 0.539514 0.015318
0.569285 0.570220 0.017941
0.612810 0.587636 0.019601
0.662100 0.598856 0.019991
0.711599 0.615793 0.018180
0.761676 0.633977 0.014081
0.814709 0.647335 0.009628
0.871478 0.655440 0.006402
0.930942 0.659856 0.004283
0.987139 0.661889 0.002781
0.432029 0.481242 0.115520
0.457014 0.488264 0.108835
0.481232 0.496274 0.100024
0.506551 0.506643 0.086970
0.529625 0.523569 0.066091
0.549984 0.549419 0.041383
0.571561 0.582054 0.023618
0.598661 0.615986 0.020063
0.634237 0.642974 0.022526
0.678217 0.657288 0.023242
0.727654 0.667767 0.022176
0.776977 0.684817 0.019141
0.826252 0.703116 0.014597
0.878383 0.717191 0.009855
0.933610 0.725869 0.006117
0.987797 0.729777 0.003986
0.477148 0.533567 0.165052
0.501340 0.540359 0.159059
0.524542 0.548202 0.151377
0.549082 0.557581 0.141397
0.572243 0.571609 0.125918
0.592267 0.593056 0.102356
0.610525 0.622002 0.070401
0.630629 0.655416 0.036688
0.657114 0.687524 0.024421
0.693525 0.711289 0.025155
0.739885 0.724232 0.024903
0.791877 0.735665 0.022948
0.841272 0.753832 0.022068
0.888575 0.772903 0.019346
0.937969 0.787507 0.013253
0.988499 0.795634 0.007486
0.514709 0.583599 0.216426
0.538674 0.590740 0.211517
0.561572 0.598918 0.205255
0.586063 0.608014 0.197310
0.610449 0.619730 0.185751
0.631752 0.637118 0.167312
0.649311 0.661552 0.140294
0.665225 0.692044 0.101828
0.684170 0.725831 0.054098
0.711553 0.757067 0.028675
0.751120 0.779270 0.026675
0.801830 0.791934 0.025305
0.854806 0.805461 0.028406
0.901261 0.825076 0.036289
0.944507 0.844742 0.032868
0.988308 0.859161 0.023753
0.546385 0.632576 0.268767
0.570696 0.640092 0.264980
0.593549 0.648479 0.259918
0.617937 0.657844 0.253558
0.643263 0.668429 0.245074
0.666563 0.682258 0.231295
0.685606 0.702158 0.208294
0.700164 0.729841 0.174060
0.714413 0.763676 0.127806
0.733760 0.798465 0.069052
0.764134 0.828858 0.032033
0.808870 0.848951 0.028511
0.862117 0.861824 0.029350
0.911795 0.877546 0.049901
0.951416 0.898951 0.065238
0.986889 0.918646 0.066469
0.574195 0.680860 0.320888
0.598809 0.688646 0.318302
0.621501 0.697534 0.314640
0.645330 0.707553 0.309392
0.669913 0.718801 0.302168
0.693853 0.732472 0.291388
0.714411 0.750739 0.272771
0.730168 0.776052 0.241783
0.743527 0.807398 0.198541
0.759005 0.841681 0.142442
0.781624 0.875059 0.072621
0.817384 0.902193 0.033338
0.865230 0.919541 0.030108
0.915398 0.933509 0.056672
0.955090 0.952666 0.102786
0.980184 0.966704 0.198555
0.000542 0.000639 0.004315
0.010889 0.002474 0.006316
0.038630 0.004134 0.007101
0.088552 0.005406 0.007116
0.161673 0.004950 0.006155
0.237319 0.003556 0.006268
0.312272 0.002502 0.007650
0.385323 0.002456 0.008975
0.455721 0.003136 0.010327
0.525616 0.004733 0.012076
0.594435 0.006875 0.013593
0.662927 0.009260 0.014925
0.731343 0.011363 0.016798
0.798427 0.013651 0.019527
0.863989 0.015640 0.022730
0.928588 0.017578 0.025087
0.002314 0.015225 0.009440
0.013151 0.019165 0.011359
0.062181 0.020226 0.008859
0.124720 0.019236 0.005555
0.192587 0.018851 0.004017
0.261924 0.018933 0.003813
0.333037 0.017658 0.003861
0.402806 0.015662 0.003774
0.470892 0.014825 0.003944
0.537946 0.016554 0.004257
0.604834 0.019418 0.004890
0.672206 0.022734 0.005833
0.739692 0.026254 0.007073
0.806419 0.029831 0.008754
0.871487 0.033101 0.010581
0.939682 0.050472 0.025328
0.003971 0.037648 0.012878
0.009726 0.043094 0.008786
0.068892 0.048606 0.008005
0.148891 0.058862 0.006517
0.226366 0.064111 0.005982
0.299090 0.064998 0.005693
0.367473 0.064152 0.005675
0.434381 0.061775 0.005793
0.500381 0.059295 0.005922
0.565736 0.057345 0.005970
0.630368 0.059488 0.006272
0.695430 0.063457 0.006868
0.760193 0.069111 0.007757
0.824781 0.075227 0.009090
0.888556 0.081255 0.010067
0.950969 0.092217 0.025237
0.005081 0.066777 0.013455
0.014362 0.071197 0.008769
0.078727 0.079308 0.005607
0.155174 0.097364 0.005269
0.240006 0.118342 0.006885
0.317632 0.127167 0.007243
0.388859 0.129440 0.007481
0.455805 0.129809 0.007731
0.521118 0.129393 0.007864
0.585839 0.127786 0.008267
0.650353 0.127344 0.008672
0.714398 0.127840 0.008945
0.777892 0.130967 0.009522
0.840852 0.137127 0.010149
0.903230 0.145632 0.011126
0.961359 0.160478 0.028032
0.010127 0.104981 0.009464
0.037498 0.107487 0.011052
0.104536 0.117664 0.004415
0.167797 0.138740 0.003859
0.245654 0.165755 0.006014
0.327032 0.190834 0.008075
0.400967 0.202583 0.009053
0.469648 0.206036 0.009644
0.535592 0.207672 0.010022
0.600338 0.209018 0.010373
0.664368 0.210840 0.010927
0.727241 0.213706 0.011306
0.789788 0.216620 0.011949
0.852185 0.220884 0.012451
0.913543 0.226837 0.013447
0.968837 0.236704 0.031893
0.051550 0.146509 0.016674
0.080200 0.151495 0.007426
0.141566 0.161559 0.003905
0.193085 0.181900 0.003610
0.258457 0.214435 0.004965
0.336754 0.243545 0.007848
0.410356 0.269190 0.009972
0.478037 0.282491 0.011624
0.543640 0.287609 0.012190
0.608010 0.289667 0.012670
0.671529 0.291179 0.013031
0.734515 0.293052 0.013542
0.797004 0.295274 0.013969
0.859653 0.297802 0.014475
0.920939 0.301371 0.015373
0.974824 0.308736 0.035279
0.102971 0.193002 0.011559
0.139446 0.198282 0.005213
0.188594 0.210862 0.004246
0.233682 0.228245 0.004165
0.286023 0.264796 0.005248
0.353097 0.298097 0.007798
0.424033 0.324901 0.011046
0.489208 0.348342 0.013546
0.550347 0.360870 0.014557
0.611973 0.365972 0.015088
0.674634 0.367958 0.015364
0.737586 0.369270 0.015699
0.800779 0.370635 0.016017
0.864035 0.372297 0.016516
0.926022 0.374745 0.017198
0.979902 0.380171 0.037925
0.168905 0.244739 0.011387
0.199372 0.251237 0.006144
0.243092 0.264768 0.005265
0.285003 0.280979 0.005378
0.328048 0.314539 0.006406
0.380806 0.356392 0.008746
0.442275 0.381339 0.012474
0.503474 0.402817 0.015502
0.560990 0.422890 0.017112
0.618157 0.434935 0.018000
0.677343 0.440677 0.018123
0.738973 0.443160 0.018386
0.802110 0.444544 0.018436
0.866060 0.445894 0.018649
0.929193 0.447891 0.019156
0.983942 0.451579 0.039518
0.234028 0.301337 0.019730
0.261377 0.308658 0.013256
0.303731 0.322512 0.009492
0.342487 0.337925 0.008079
0.378570 0.366829 0.008853
0.418329 0.407965 0.011329
0.466576 0.440547 0.014524
0.521089 0.457622 0.018153
0.575845 0.476087 0.020907
0.629118 0.494582 0.021425
0.684078 0.506676 0.021375
0.742365 0.513276 0.021421
0.803784 0.516746 0.021268
0.867211 0.518766 0.021288
0.930524 0.520428 0.021331
0.986483 0.522560 0.040226
0.299794 0.361551 0.044133
0.326330 0.369069 0.035982
0.365685 0.382169 0.026218
0.400093 0.396020 0.016582
0.430670 0.419838 0.013156
0.460923 0.455637 0.014377
0.497571 0.492921 0.017485
0.542386 0.517106 0.020557
0.592965 0.529660 0.023707
0.644451 0.546830 0.025503
0.695977 0.564909 0.025522
0.750286 0.577869 0.024869
0.808086 0.585303 0.024302
0.868958 0.589215 0.024180
0.931105 0.591270 0.023960
0.987309 0.592669 0.040491
0.363195 0.421625 0.084090
0.387517 0.428194 0.075753
0.422427 0.439723 0.064757
0.453047 0.451720 0.050801
0.480470 0.471380 0.033547
0.505051 0.501733 0.022088
0.532705 0.538068 0.020654
0.568168 0.570385 0.023846
0.611954 0.589114 0.026803
0.661799 0.600448 0.029018
0.711956 0.617115 0.029961
0.762233 0.634924 0.028804
0.815530 0.647869 0.027437
0.872307 0.655803 0.026620
0.931814 0.660049 0.026375
0.987734 0.662134 0.041456
0.418716 0.478726 0.131289
0.440971 0.484255 0.123120
0.472919 0.494708 0.113619
0.501280 0.505275 0.102088
0.527015 0.521351 0.083732
0.549076 0.546830 0.058507
0.570892 0.579988 0.035544
0.597878 0.615040 0.026819
0.633188 0.643614 0.029718
0.677324 0.658867 0.031956
0.727181 0.669393 0.032976
0.777086 0.685931 0.032979
0.826742 0.703978 0.031813
0.879016 0.717939 0.030128
0.934345 0.726265 0.028928
0.988290 0.730076 0.042312
0.465679 0.532249 0.180865
0.486974 0.537225 0.173225
0.516788 0.547182 0.164864
0.543808 0.556852 0.155607
0.569467 0.570199 0.142266
0.591406 0.590915 0.121746
0.610579 0.619632 0.092848
0.630710 0.653774 0.056581
0.656521 0.687241 0.035194
0.692443 0.712627 0.033679
0.738985 0.726320 0.035169
0.791601 0.737650 0.036314
0.841279 0.755336 0.040269
0.888833 0.774217 0.041641
0.938640 0.788404 0.038342
0.988629 0.796463 0.046593
0.504509 0.583408 0.232385
0.525460 0.588224 0.225523
0.554313 0.598285 0.218775
0.580797 0.608063 0.211237
0.607212 0.619395 0.201091
0.630714 0.635871 0.185029
0.649846 0.659569 0.160906
0.666150 0.690162 0.127458
0.684759 0.724667 0.081469
0.711022 0.757485 0.043845
0.750083 0.781386 0.037149
0.800793 0.794575 0.038045
0.854461 0.807803 0.046458
0.901180 0.826938 0.059278
0.944552 0.846162 0.059754
0.988300 0.860387 0.065422
0.536872 0.633548 0.285182
0.558299 0.638328 0.279174
0.586701 0.648458 0.273812
0.612799 0.658346 0.267648
0.639666 0.668982 0.259772
0.664970 0.682118 0.248005
0.686082 0.701233 0.228207
0.701805 0.728516 0.197644
0.716137 0.762611 0.156004
0.734790 0.798439 0.101946
0.763554 0.830464 0.051792
0.807516 0.852172 0.041097
0.861183 0.865369 0.047252
0.911397 0.880669 0.074071
0.951345 0.901328 0.094743
0.986882 0.920520 0.111669
0.563896 0.682600 0.337572
0.591166 0.690509 0.335635
0.615066 0.699171 0.332176
0.639731 0.709275 0.327512
0.665221 0.720637 0.320913
0.690949 0.734073 0.311741
0.714168 0.751298 0.297250
0.732397 0.775750 0.272145
0.746729 0.807209 0.234133
0.762163 0.842222 0.185099
0.783401 0.877088 0.124976
0.816896 0.906284 0.065102
0.863538 0.925384 0.052917
0.913895 0.939336 0.090512
0.954373 0.957144 0.141910
0.979578 0.968337 0.254838
0.001439 0.001536 0.013355
0.008559 0.004560 0.016002
0.031823 0.006491 0.021064
0.079132 0.007348 0.021974
0.152344 0.005844 0.022059
0.235495 0.001301 0.021937
0.311890 0.000525 0.025651
0.383061 0.000706 0.031166
0.451598 0.001050 0.034753
0.520206 0.001506 0.037851
0.588542 0.002392 0.040732
0.656965 0.003765 0.042948
0.726778 0.006384 0.045882
0.795426 0.009478 0.050460
0.861897 0.012433 0.056168
0.926640 0.015117 0.061777
0.005230 0.017478 0.026245
0.011901 0.021923 0.037171
0.044575 0.023037 0.033172
0.108406 0.019539 0.029324
0.186236 0.013853 0.025472
0.264315 0.006486 0.022348
0.335114 0.004635 0.023938
0.400834 0.005599 0.027728
0.466714 0.006919 0.030748
0.533585 0.008731 0.033381
0.600847 0.011326 0.036052
0.668749 0.014879 0.038578
0.737922 0.019848 0.042218
0.805498 0.024299 0.046878
0.870690 0.028492 0.052913
0.938784 0.046213 0.062930
0.007853 0.041424 0.033354
0.012009 0.047593 0.037062
0.047112 0.054607 0.041186
0.143895 0.058111 0.040914
0.237802 0.051202 0.031379
0.315508 0.035834 0.021358
0.381043 0.025718 0.016666
0.441789 0.023752 0.015848
0.503018 0.025352 0.016066
0.565733 0.028232 0.016636
0.629472 0.031912 0.017511
0.694306 0.035955 0.018586
0.758931 0.040106 0.020279
0.822849 0.043964 0.022465
0.886538 0.047686 0.024570
0.951242 0.085819 0.063534
0.010555 0.072173 0.037332
0.013579 0.077103 0.036238
0.038321 0.086491 0.031463
0.145633 0.101274 0.033719
0.247988 0.119678 0.034853
0.333567 0.118766 0.028343
0.406713 0.110549 0.022716
0.472776 0.101446 0.020502
0.535731 0.094366 0.019678
0.597293 0.091824 0.019608
0.659059 0.093535 0.019920
0.721266 0.097485 0.020501
0.783401 0.103247 0.021342
0.845499 0.110489 0.022644
0.907481 0.119751 0.024218
0.962410 0.149068 0.068155
0.011927 0.108750 0.035951
0.013563 0.114078 0.029616
0.052650 0.119423 0.025353
0.148906 0.137563 0.016387
0.242954 0.168725 0.021713
0.334753 0.193311 0.026684
0.412575 0.199349 0.026274
0.482628 0.197557 0.025006
0.548577 0.194985 0.024173
0.612749 0.193065 0.023980
0.675527 0.193073 0.024221
0.737315 0.194638 0.024514
0.798676 0.196932 0.024859
0.859884 0.202256 0.025551
0.919863 0.211102 0.027568
0.970596 0.230551 0.075449
0.019077 0.150947 0.022277
0.036019 0.153997 0.022986
0.089219 0.159597 0.015710
0.171750 0.176598 0.009139
0.247754 0.213619 0.009717
0.336478 0.246257 0.016729
0.415968 0.271740 0.022607
0.485976 0.281591 0.025867
0.552654 0.283673 0.027113
0.617541 0.283503 0.027491
0.680953 0.283520 0.027584
0.743435 0.284274 0.027758
0.805452 0.285772 0.028096
0.867269 0.288191 0.028647
0.927151 0.292549 0.030496
0.976243 0.306210 0.081654
0.074129 0.192167 0.030963
0.094018 0.196060 0.027354
0.144871 0.204928 0.010354
0.213575 0.223088 0.007043
0.274034 0.258427 0.007022
0.347451 0.299095 0.010818
0.424715 0.327217 0.017792
0.492728 0.350394 0.023707
0.555576 0.360874 0.027434
0.618316 0.364092 0.029395
0.681632 0.364684 0.030247
0.744998 0.365051 0.030608
0.807966 0.365669 0.030907
0.870695 0.366684 0.031414
0.931837 0.369075 0.032774
0.981050 0.379173 0.086723
0.132168 0.240859 0.028363
0.155812 0.246376 0.023812
0.205626 0.256468 0.010358
0.266399 0.275750 0.007930
0.317952 0.306017 0.007773
0.374137 0.354225 0.010649
0.439576 0.383226 0.015919
0.504087 0.404779 0.022020
0.563419 0.424430 0.026686
0.621783 0.435165 0.030107
0.681990 0.439783 0.032097
0.744227 0.441274 0.033028
0.807768 0.441860 0.033399
0.871538 0.442781 0.033729
0.934257 0.444269 0.034697
0.984857 0.451049 0.089782
0.201614 0.295566 0.034764
0.226530 0.301637 0.031715
0.267851 0.312989 0.017674
0.325373 0.332678 0.011738
0.370423 0.359002 0.010051
0.412877 0.403078 0.012641
0.463077 0.440981 0.016781
0.519711 0.459431 0.022256
0.576296 0.477650 0.027257
0.630859 0.495827 0.030551
0.686713 0.507141 0.032852
0.745678 0.512890 0.034755
0.807786 0.515668 0.035851
0.871510 0.517102 0.036179
0.934761 0.518304 0.036700
0.987323 0.522381 0.091286
0.272339 0.355175 0.057980
0.295630 0.361456 0.055192
0.332238 0.372738 0.040731
0.384915 0.391259 0.026673
0.423923 0.413288 0.017067
0.456773 0.450206 0.015831
0.494305 0.490830 0.019141
0.540163 0.518196 0.023165
0.592112 0.531276 0.027896
0.644870 0.548158 0.031853
0.697252 0.565959 0.034459
0.752162 0.578354 0.036028
0.810746 0.585131 0.037414
0.872163 0.588535 0.038353
0.934087 0.590103 0.038889
0.988075 0.592484 0.090875
0.338097 0.415971 0.096996
0.360695 0.421785 0.094097
0.392968 0.431529 0.079950
0.439712 0.447747 0.064851
0.474297 0.465984 0.045799
0.501898 0.496538 0.028553
0.530220 0.534705 0.022973
0.565967 0.569601 0.025705
0.610359 0.590603 0.029735
0.661075 0.601883 0.033412
0.712181 0.618193 0.036280
0.763139 0.635924 0.037420
0.816990 0.648447 0.038352
0.874450 0.655795 0.039438
0.934006 0.659591 0.040350
0.988588 0.661977 0.090024
0.396464 0.474335 0.143635
0.417875 0.479479 0.140251
0.446142 0.487453 0.127009
0.488978 0.502108 0.114016
0.521147 0.517153 0.097974
0.546310 0.542209 0.072852
0.569281 0.576195 0.045845
0.596270 0.613045 0.030335
0.631353 0.643753 0.032113
0.675953 0.660198 0.035064
0.726830 0.670726 0.037644
0.777291 0.686997 0.039713
0.827397 0.704724 0.041063
0.880303 0.718364 0.041397
0.935901 0.726278 0.041699
0.988928 0.730406 0.089251
0.446070 0.529480 0.193213
0.467175 0.534258 0.189802
0.491884 0.540503 0.176926
0.532101 0.554136 0.165538
0.563224 0.567042 0.153418
0.588657 0.587109 0.134384
0.609433 0.615900 0.107199
0.629842 0.650942 0.071308
0.655257 0.685914 0.041823
0.690995 0.713159 0.036394
0.737767 0.727662 0.038835
0.791038 0.738710 0.041720
0.841466 0.756251 0.048604
0.889457 0.775030 0.052055
0.939365 0.788925 0.050370
0.989121 0.797158 0.092251
0.486722 0.582121 0.244689
0.508203 0.586961 0.241653
0.530231 0.591634 0.229243
0.569278 0.605535 0.219838
0.600324 0.617417 0.210243
0.627406 0.633220 0.195617
0.648705 0.656361 0.172809
0.666099 0.687214 0.141177
0.684476 0.722475 0.097727
0.710137 0.757024 0.052746
0.748552 0.782470 0.040450
0.799794 0.796176 0.042418
0.854191 0.809148 0.053483
0.901257 0.828179 0.068347
0.944934 0.847035 0.070705
0.988536 0.861760 0.107906
0.519338 0.633325 0.297313
0.542293 0.638664 0.294898
0.563233 0.641918 0.282959
0.601672 0.655944 0.275264
0.632255 0.667729 0.267379
0.660859 0.680770 0.256547
0.684476 0.699047 0.238619
0.701802 0.726134 0.209692
0.716500 0.760449 0.169627
0.734553 0.797383 0.118363
0.762702 0.830674 0.062549
0.806125 0.853712 0.045137
0.860258 0.867352 0.053277
0.910967 0.882328 0.082764
0.951436 0.902755 0.105062
0.986896 0.922380 0.152305
0.547104 0.683620 0.349929
0.577106 0.691347 0.348466
0.604469 0.700157 0.346016
0.631133 0.710266 0.341907
0.658024 0.721822 0.336134
0.685181 0.735405 0.328408
0.711406 0.751910 0.317173
0.733262 0.774622 0.297716
0.749766 0.805261 0.266734
0.765426 0.840907 0.224215
0.785443 0.877366 0.172808
0.816503 0.909497 0.116964
0.861516 0.930753 0.089442
0.912232 0.944955 0.126020
0.953548 0.961594 0.177366
0.979533 0.970905 0.300061
0.003371 0.003673 0.027047
0.009721 0.007022 0.035778
0.025437 0.010747 0.039055
0.067134 0.012007 0.044759
0.133141 0.011632 0.045475
0.215307 0.006626 0.048948
0.299953 0.001235 0.054924
0.375307 0.000808 0.064093
0.445592 0.001029 0.071203
0.514988 0.001459 0.077280
0.583265 0.001884 0.082000
0.651331 0.002320 0.085949
0.719852 0.002954 0.089326
0.787861 0.003863 0.092253
0.854225 0.004990 0.096306
0.919550 0.006634 0.101959
0.009052 0.019810 0.047040
0.014750 0.022545 0.062245
0.033677 0.027035 0.066659
0.084239 0.026390 0.058780
0.158733 0.021331 0.055755
0.241521 0.012815 0.056251
0.322823 0.005087 0.059205
0.393373 0.005115 0.065521
0.461237 0.006239 0.071273
0.528174 0.007497 0.076127
0.594682 0.008978 0.080168
0.661643 0.010680 0.083285
0.728922 0.012504 0.086351
0.796360 0.014861 0.089726
0.861969 0.017833 0.094533
0.931081 0.034534 0.105162
0.015103 0.043478 0.063744
0.021831 0.047954 0.075510
0.038698 0.056641 0.091856
0.105821 0.062618 0.082397
0.205048 0.054554 0.079048
0.295423 0.035429 0.072518
0.370818 0.018409 0.065318
0.434509 0.016354 0.064254
0.495367 0.017769 0.066103
0.557022 0.019130 0.067671
0.619421 0.020868 0.069152
0.684071 0.023028 0.070432
0.749479 0.026273 0.072751
0.814999 0.030215 0.077355
0.879980 0.035408 0.083339
0.946001 0.071996 0.108753
0.018901 0.078748 0.072814
0.024297 0.083875 0.078439
0.037071 0.095762 0.086840
0.105227 0.108180 0.094215
0.231813 0.119303 0.100365
0.334626 0.110596 0.092631
0.416588 0.085917 0.075344
0.485745 0.059832 0.059203
0.545809 0.051613 0.051187
0.603703 0.052426 0.047743
0.663547 0.054797 0.045867
0.725264 0.059084 0.045729
0.787129 0.063953 0.047249
0.848655 0.068358 0.049513
0.910392 0.072610 0.051057
0.962080 0.129677 0.113379
0.023450 0.119336 0.075906
0.027231 0.123689 0.076180
0.032315 0.133333 0.071611
0.089332 0.144886 0.075086
0.226060 0.172803 0.085356
0.337149 0.197251 0.092744
0.422857 0.195307 0.084258
0.498076 0.184677 0.070404
0.567069 0.169666 0.058281
0.631294 0.156003 0.051033
0.692363 0.150044 0.048380
0.752335 0.149472 0.047767
0.811796 0.153550 0.048230
0.871346 0.162093 0.050512
0.929871 0.174489 0.054333
0.972003 0.216258 0.123587
0.024258 0.158483 0.069382
0.026663 0.162577 0.065960
0.031647 0.170982 0.052035
0.107088 0.178737 0.052384
0.224194 0.209707 0.046152
0.331167 0.251766 0.060423
0.421366 0.276457 0.071173
0.496754 0.280034 0.067989
0.566883 0.276363 0.062901
0.633302 0.271751 0.058738
0.696791 0.268419 0.056089
0.758737 0.266811 0.054891
0.819473 0.267420 0.055185
0.879656 0.270004 0.056527
0.937964 0.274678 0.059798
0.977974 0.300777 0.133320
0.029379 0.202169 0.052054
0.039159 0.206137 0.048795
0.078415 0.209826 0.050248
0.157990 0.220063 0.028363
0.250230 0.247671 0.018280
0.334997 0.299672 0.021792
0.424341 0.331811 0.038285
0.498097 0.353635 0.051441
0.564181 0.360406 0.057123
0.629145 0.360291 0.059355
0.693578 0.358280 0.059578
0.757427 0.356710 0.059282
0.820292 0.355972 0.059269
0.882257 0.356251 0.060002
0.941695 0.358432 0.062718
0.982627 0.377338 0.140891
0.090886 0.243841 0.058684
0.114087 0.246638 0.059774
0.146588 0.252970 0.046860
0.217451 0.267529 0.020880
0.296046 0.294602 0.013037
0.360917 0.346820 0.013620
0.433830 0.386253 0.021741
