luts/HER.cube
LUT_3D_SIZE 6
0.012353 0.014789 0.006600
0.134248 0.017009 0.004244
0.346942 0.025064 0.002102
0.544110 0.040390 0.001281
0.700249 0.059759 0.001056
0.823087 0.080186 0.001016
0.012353 0.122279 0.006600
0.145072 0.122279 0.006600
0.379962 0.145998 0.012925
0.544696 0.185316 0.011730
0.692333 0.203328 0.006838
0.814477 0.211144 0.004803
0.012353 0.313170 0.006600
0.180306 0.313170 0.006600
0.371932 0.313170 0.006600
0.641731 0.317750 0.023909
0.737473 0.348753 0.040621
0.831673 0.360299 0.035863
0.012353 0.517126 0.006600
0.199567 0.517126 0.006600
0.403379 0.517126 0.006600
0.580964 0.517126 0.006600
0.849898 0.475154 0.043115
0.907444 0.488414 0.050217
0.012353 0.691783 0.006600
0.200265 0.691783 0.006600
0.404632 0.691783 0.006600
0.582602 0.691783 0.006600
0.746351 0.691783 0.006600
1.033823 0.615124 0.054699
0.012353 0.835586 0.006600
0.193084 0.835586 0.006600
0.392873 0.835586 0.006600
0.566611 0.835586 0.006600
0.726357 0.835586 0.006600
0.876399 0.835586 0.006600
0.012353 0.014789 0.071006
0.145099 0.014789 0.071006
0.372261 0.014883 0.087634
0.572104 0.022595 0.065054
0.722185 0.042509 0.046357
0.840243 0.064955 0.034350
0.012353 0.122279 0.071006
0.145072 0.122279 0.071006
0.355037 0.130823 0.055990
0.550255 0.143941 0.040689
0.705315 0.158011 0.031407
0.827438 0.171664 0.025774
0.012353 0.313170 0.090128
0.145072 0.313170 0.071006
0.371932 0.313170 0.071006
0.610382 0.321219 0.097054
0.725676 0.343835 0.090694
0.827604 0.352906 0.068491
0.012353 0.517126 0.101191
0.145072 0.517126 0.071006
0.393962 0.517126 0.071006
0.580964 0.517126 0.071006
0.824295 0.481664 0.130491
0.893395 0.489918 0.116501
0.012353 0.691783 0.101615
0.145099 0.691783 0.071006
0.392650 0.691783 0.071006
0.578881 0.691783 0.071006
0.746351 0.691783 0.071006
1.004403 0.622083 0.147862
0.012353 0.835586 0.097415
0.145072 0.835586 0.071006
0.381276 0.835586 0.071006
0.562004 0.835586 0.071006
0.724701 0.835586 0.071006
0.876399 0.835586 0.071006
0.012353 0.014789 0.219153
0.180306 0.014789 0.219153
0.371932 0.014789 0.219153
0.580964 0.014789 0.243869
0.747134 0.015827 0.219945
0.868620 0.028494 0.174807
0.012353 0.149104 0.219153
0.145072 0.122279 0.219153
0.371932 0.122279 0.219153
0.580989 0.122292 0.236066
0.741966 0.128271 0.202670
0.858885 0.144322 0.165468
0.012353 0.313170 0.219153
0.145072 0.313170 0.219153
0.371932 0.313170 0.219153
0.561695 0.322610 0.201757
0.714167 0.332714 0.180970
0.835411 0.341525 0.166256
0.012353 0.517126 0.243869
0.145072 0.517126 0.236410
0.371932 0.517126 0.219153
0.580964 0.517126 0.219153
0.782116 0.492888 0.256800
0.867480 0.498672 0.238910
0.012353 0.691783 0.244829
0.145099 0.691783 0.235278
0.371932 0.691783 0.219153
0.572912 0.691783 0.219153
0.746351 0.691783 0.219153
0.960843 0.633538 0.287792
0.012353 0.835586 0.235483
0.145072 0.835586 0.226400
0.371932 0.835586 0.219153
0.558358 0.835586 0.219153
0.723472 0.835586 0.219153
0.876398 0.835586 0.219153
0.012353 0.014789 0.398544
0.199568 0.014789 0.398544
0.403379 0.014789 0.398544
0.580964 0.014789 0.398544
0.746351 0.014789 0.400063
0.877412 0.014948 0.378238
0.012353 0.164164 0.398544
0.145072 0.122279 0.398544
0.393961 0.122279 0.398544
0.580964 0.122279 0.398544
0.746351 0.122279 0.396642
0.876917 0.123313 0.369769
0.012353 0.342489 0.398544
0.145072 0.333580 0.398544
0.371932 0.313170 0.398544
0.580964 0.313170 0.398544
0.746372 0.313232 0.390593
0.871868 0.318038 0.347549
0.012353 0.517126 0.398544
0.145072 0.517126 0.398544
0.371932 0.517126 0.398544
0.580964 0.517126 0.398544
0.733046 0.523108 0.391709
0.847440 0.533005 0.367112
0.012353 0.691783 0.400063
0.145099 0.691783 0.396642
0.371932 0.691783 0.390982
0.580964 0.691783 0.398544
0.746351 0.691783 0.398544
0.912690 0.659010 0.441855
0.012353 0.835586 0.385154
0.145072 0.835586 0.380843
0.371932 0.835586 0.377533
0.580964 0.835586 0.398544
0.731598 0.835586 0.398544
0.876398 0.835586 0.398544
0.012353 0.014789 0.563586
0.200265 0.014789 0.563586
0.404632 0.014789 0.563586
0.582602 0.014789 0.563586
0.746351 0.014789 0.563586
0.876399 0.014789 0.542533
0.012353 0.164770 0.563586
0.145072 0.122279 0.563586
0.392650 0.122279 0.563586
0.578881 0.122279 0.563586
0.746351 0.122279 0.563586
0.876398 0.122279 0.540830
0.012353 0.343654 0.563586
0.145072 0.332414 0.563586
0.371932 0.313170 0.563586
0.572912 0.313170 0.563586
0.746351 0.313170 0.563586
0.876398 0.313170 0.539589
0.012353 0.518801 0.563586
0.145072 0.515085 0.563586
0.371932 0.508925 0.563586
0.580964 0.517126 0.563586
0.746351 0.517126 0.563586
0.876443 0.517388 0.545991
0.012353 0.691783 0.563586
0.145099 0.691783 0.563586
0.371932 0.691783 0.563586
0.580964 0.691783 0.563586
0.746351 0.691783 0.563586
0.871976 0.693173 0.567416
0.012353 0.835586 0.542533
0.145072 0.835586 0.540830
0.371932 0.835586 0.539589
0.580964 0.835586 0.548237
0.746351 0.835586 0.563586
0.876398 0.835586 0.563586
0.012353 0.014789 0.705517
0.193084 0.014789 0.705517
0.392873 0.014789 0.705517
0.566611 0.014789 0.705517
0.726357 0.014789 0.705517
0.876398 0.014789 0.705517
0.012353 0.159069 0.705517
0.145072 0.122279 0.705517
0.381276 0.122279 0.705517
0.562004 0.122279 0.705517
0.724701 0.122279 0.705517
0.876399 0.122279 0.705517
0.012353 0.332585 0.705517
0.145099 0.321834 0.705517
0.371932 0.313170 0.705517
0.558358 0.313170 0.705517
0.723472 0.313170 0.705517
0.876398 0.313170 0.705517
0.012353 0.502548 0.705517
0.145072 0.497850 0.705517
0.371932 0.494147 0.705517
0.580964 0.517126 0.705517
0.731598 0.517126 0.705517
0.876398 0.517126 0.705517
0.012353 0.670191 0.705517
0.145099 0.668384 0.705517
0.371932 0.666948 0.705517
0.580964 0.675900 0.705517
0.746351 0.691783 0.705517
0.876398 0.691783 0.705517
0.012353 0.835586 0.705517
0.145072 0.835586 0.705517
0.371932 0.835586 0.705517
0.580964 0.835586 0.705517
0.746351 0.835586 0.705517
0.876398 0.835586 0.705517
