luts/HER.cube
LUT_3D_SIZE 16
0.012353 0.014789 0.006600
0.039076 0.014789 0.006600
0.078977 0.015660 0.005302
0.134248 0.017009 0.004244
0.203515 0.018892 0.003364
0.274984 0.021553 0.002652
0.346942 0.025064 0.002102
0.417060 0.029473 0.001712
0.483339 0.034665 0.001451
0.544110 0.040390 0.001281
0.599898 0.046517 0.001171
0.651945 0.053008 0.001100
0.700249 0.059759 0.001056
0.745646 0.066760 0.001030
0.787706 0.073797 0.001018
0.823087 0.080186 0.001016
0.012353 0.035768 0.006600
0.039076 0.035768 0.006600
0.092135 0.035694 0.008002
0.144187 0.039632 0.007676
0.204781 0.045649 0.006279
0.272042 0.052104 0.004660
0.342616 0.058669 0.003595
0.412537 0.065286 0.002913
0.479042 0.071835 0.002468
0.540100 0.078103 0.002161
0.596236 0.084290 0.001942
0.648611 0.090463 0.001784
0.697187 0.096697 0.001667
0.742841 0.102852 0.001582
0.785124 0.108720 0.001523
0.820742 0.113634 0.001478
0.012353 0.071211 0.006600
0.041567 0.071211 0.006600
0.082892 0.071211 0.006600
0.163776 0.071458 0.008475
0.235852 0.076261 0.009892
0.290847 0.089277 0.010041
0.352012 0.103048 0.009017
0.415483 0.115294 0.007143
0.478381 0.125211 0.005674
0.537578 0.132803 0.004665
0.592891 0.138916 0.003981
0.645012 0.144203 0.003509
0.693736 0.148877 0.003172
0.739317 0.153138 0.002924
0.781750 0.157085 0.002731
0.817600 0.159821 0.002571
0.012353 0.122279 0.006600
0.043768 0.122279 0.006600
0.088654 0.122279 0.006600
0.145072 0.122279 0.006600
0.242630 0.124024 0.008986
0.328728 0.128542 0.013310
0.379962 0.145998 0.012925
0.436089 0.161494 0.014976
0.491410 0.175009 0.014022
0.544696 0.185316 0.011730
0.595929 0.192985 0.009639
0.645398 0.198779 0.008021
0.692333 0.203328 0.006838
0.737109 0.207014 0.005961
0.778928 0.209880 0.005309
0.814477 0.211144 0.004803
0.012353 0.180353 0.006600
0.046130 0.180353 0.006600
0.094951 0.180353 0.006600
0.156500 0.180353 0.006600
0.219609 0.180353 0.006600
0.322964 0.184052 0.009578
0.421069 0.186310 0.017467
0.471370 0.204030 0.015363
0.517398 0.220511 0.019793
0.565620 0.232362 0.022485
0.610873 0.242193 0.021165
0.655075 0.249866 0.018309
0.698221 0.255487 0.015428
0.740007 0.259689 0.013047
0.779943 0.262602 0.011144
0.814143 0.263187 0.009638
0.012353 0.244606 0.006600
0.048793 0.244606 0.006600
0.102030 0.244606 0.006600
0.168890 0.244606 0.006600
0.234682 0.244606 0.006600
0.295624 0.244606 0.006600
0.403186 0.248615 0.010158
0.510143 0.246723 0.021814
0.560066 0.261728 0.018165
0.596412 0.277118 0.023166
0.635480 0.288147 0.029297
0.675897 0.296328 0.031815
0.713987 0.303374 0.030039
0.751342 0.308910 0.026569
0.787690 0.312613 0.022849
0.819268 0.313281 0.019479
0.012353 0.313170 0.006600
0.051361 0.313170 0.006600
0.108875 0.313170 0.006600
0.180306 0.313170 0.006600
0.248631 0.313170 0.006600
0.312026 0.313170 0.006600
0.371932 0.313170 0.006600
0.480633 0.315458 0.010647
0.592736 0.307756 0.025801
0.641731 0.317750 0.023909
0.672862 0.330808 0.024771
0.703255 0.341597 0.033938
0.737473 0.348753 0.040621
0.771770 0.354374 0.042552
0.803960 0.358933 0.040208
0.831673 0.360299 0.035863
0.012353 0.383318 0.006600
0.053492 0.383318 0.006600
0.114656 0.383318 0.006600
0.189645 0.383318 0.006600
0.259947 0.383318 0.006600
0.325308 0.383318 0.006600
0.387142 0.383318 0.006600
0.446282 0.383318 0.006600
0.553095 0.381873 0.010999
0.666434 0.367432 0.028819
0.716939 0.371939 0.030473
0.746236 0.382018 0.025559
0.769694 0.392130 0.036368
0.796796 0.399140 0.046506
0.826522 0.403185 0.053072
0.851367 0.404266 0.053668
0.012353 0.452128 0.006600
0.055031 0.452128 0.006600
0.118774 0.452128 0.006600
0.196056 0.452128 0.006600
0.267817 0.452128 0.006600
0.334504 0.452128 0.006600
0.397709 0.452128 0.006600
0.458202 0.452128 0.006600
0.516621 0.452128 0.006600
0.618461 0.445618 0.011177
0.732044 0.425685 0.030670
0.786316 0.424350 0.037035
0.815105 0.431255 0.029279
0.834422 0.439976 0.036563
0.854567 0.446451 0.050034
0.874532 0.447717 0.059293
0.012353 0.517126 0.006600
0.055862 0.517126 0.006600
0.121015 0.517126 0.006600
0.199567 0.517126 0.006600
0.272063 0.517126 0.006600
0.339510 0.517126 0.006600
0.403379 0.517126 0.006600
0.464573 0.517126 0.006600
0.523619 0.517126 0.006600
0.580964 0.517126 0.006600
0.677864 0.506467 0.011239
0.791472 0.482090 0.031707
0.849898 0.475154 0.043115
0.878540 0.479002 0.036885
0.896426 0.485130 0.035255
0.907444 0.488414 0.050217
0.012353 0.578312 0.006600
0.056199 0.578312 0.006600
0.121961 0.578312 0.006600
0.200908 0.578312 0.006600
0.273850 0.578312 0.006600
0.341591 0.578312 0.006600
0.405763 0.578312 0.006600
0.467242 0.578312 0.006600
0.526643 0.578312 0.006600
0.584086 0.578312 0.006600
0.640039 0.578312 0.006600
0.733205 0.564418 0.011281
0.845111 0.536710 0.032007
0.908337 0.524484 0.048349
0.941042 0.524624 0.044725
0.960035 0.525283 0.035246
0.012353 0.636546 0.006600
0.056246 0.636546 0.006600
0.122057 0.636546 0.006600
0.201035 0.636546 0.006600
0.273959 0.636546 0.006600
0.341779 0.636546 0.006600
0.406004 0.636546 0.006600
0.467541 0.636546 0.006600
0.526884 0.636546 0.006600
0.584449 0.636546 0.006600
0.640300 0.636546 0.006600
0.695271 0.636546 0.006600
0.784013 0.620145 0.011217
0.894278 0.589554 0.031871
0.974140 0.572043 0.052486
1.010553 0.565697 0.052142
0.012353 0.691783 0.006600
0.056045 0.691783 0.006600
0.121524 0.691783 0.006600
0.200265 0.691783 0.006600
0.272967 0.691783 0.006600
0.340628 0.691783 0.006600
0.404632 0.691783 0.006600
0.465956 0.691783 0.006600
0.525206 0.691783 0.006600
0.582602 0.691783 0.006600
0.638505 0.691783 0.006600
0.693083 0.691783 0.006600
0.746351 0.691783 0.006600
0.831786 0.673028 0.011190
0.943523 0.639720 0.031398
1.033823 0.615124 0.054699
0.012353 0.744167 0.006600
0.055692 0.744167 0.006600
0.120567 0.744167 0.006600
0.198784 0.744166 0.006600
0.271198 0.744167 0.006600
0.338504 0.744166 0.006600
0.402254 0.744166 0.006600
0.463332 0.744166 0.006600
0.522245 0.744166 0.006600
0.579354 0.744167 0.006600
0.634901 0.744167 0.006600
0.689197 0.744167 0.006600
0.742273 0.744167 0.006600
0.794338 0.744167 0.006600
0.875385 0.723201 0.011077
0.993050 0.685060 0.030085
0.012353 0.793611 0.006600
0.055182 0.793612 0.006600
0.119212 0.793611 0.006600
0.196638 0.793612 0.006600
0.268652 0.793611 0.006600
0.335444 0.793611 0.006600
0.398798 0.793612 0.006600
0.459409 0.793612 0.006600
0.517928 0.793612 0.006600
0.574660 0.793612 0.006600
0.629822 0.793612 0.006600
0.683777 0.793612 0.006600
0.736345 0.793612 0.006600
0.788268 0.793612 0.006600
0.838984 0.793612 0.006600
0.911349 0.767306 0.010841
0.012353 0.835586 0.006600
0.054301 0.835586 0.006600
0.116854 0.835586 0.006600
0.193084 0.835586 0.006600
0.264193 0.835586 0.006600
0.330269 0.835586 0.006600
0.392873 0.835586 0.006600
0.452717 0.835586 0.006600
0.510567 0.835586 0.006600
0.566611 0.835586 0.006600
0.621091 0.835586 0.006600
0.674433 0.835586 0.006600
0.726357 0.835586 0.006600
0.777525 0.835586 0.006600
0.827641 0.835586 0.006600
0.876399 0.835586 0.006600
0.012353 0.014789 0.017315
0.039076 0.014789 0.017315
0.082892 0.014789 0.018376
0.145096 0.014842 0.018829
0.216626 0.015766 0.015651
0.286552 0.018127 0.012975
0.356920 0.021568 0.011059
0.425707 0.026000 0.009581
0.490920 0.031260 0.008387
0.550715 0.037142 0.007410
0.605785 0.043444 0.006610
0.657158 0.050157 0.005956
0.704992 0.057154 0.005421
0.749990 0.064390 0.004980
0.791565 0.071697 0.004621
0.826447 0.078341 0.004314
0.012353 0.035768 0.017315
0.039076 0.035768 0.017315
0.081822 0.036082 0.016654
0.137532 0.037695 0.014390
0.206508 0.039786 0.012267
0.277649 0.042560 0.010295
0.349227 0.046132 0.008572
0.419169 0.050514 0.007173
0.485194 0.055573 0.006092
0.545750 0.061104 0.005291
0.601455 0.066988 0.004688
0.653267 0.073242 0.004230
0.701568 0.079750 0.003877
0.746853 0.086487 0.003604
0.788910 0.093278 0.003396
0.824172 0.099434 0.003248
0.012353 0.071211 0.018376
0.039076 0.071211 0.017315
0.082892 0.071211 0.017315
0.159863 0.071020 0.020637
0.222326 0.078002 0.020052
0.283757 0.088773 0.018150
0.348809 0.100443 0.014779
0.415430 0.110720 0.011977
0.480038 0.119314 0.009952
0.540134 0.126189 0.008511
0.595873 0.132005 0.007469
0.648025 0.137166 0.006680
0.696604 0.141921 0.006059
0.742262 0.146455 0.005561
0.784447 0.150641 0.005157
0.820024 0.153711 0.004837
0.012353 0.122279 0.019330
0.039076 0.122279 0.017315
0.087193 0.122279 0.017315
0.145072 0.122279 0.017315
0.240131 0.123776 0.021399
0.317715 0.130714 0.025183
0.372941 0.146557 0.023920
0.431906 0.160889 0.023446
0.489087 0.173490 0.020283
0.544003 0.182914 0.016826
0.596325 0.189939 0.014058
0.646535 0.195389 0.011962
0.693918 0.199707 0.010406
0.738871 0.203240 0.009235
0.780889 0.206116 0.008340
0.816510 0.207393 0.007639
0.012353 0.180353 0.020358
0.039076 0.180353 0.017315
0.092203 0.180353 0.017315
0.155361 0.180353 0.017315
0.219609 0.180353 0.017315
0.320548 0.184145 0.022226
0.411540 0.188584 0.031870
0.463991 0.205356 0.028511
0.513557 0.220483 0.030641
0.562984 0.231891 0.030953
0.609101 0.241210 0.027769
0.654317 0.248443 0.023744
0.698264 0.253704 0.020145
0.740475 0.257675 0.017243
0.780737 0.260402 0.014955
0.815232 0.260910 0.013157
0.012353 0.244606 0.021539
0.039076 0.244606 0.017315
0.098013 0.244606 0.017315
0.166827 0.244606 0.017315
0.233936 0.244606 0.017315
0.295624 0.244606 0.017315
0.400844 0.248884 0.023090
0.501697 0.248985 0.038476
0.552609 0.263460 0.033451
0.592027 0.277740 0.035863
0.633194 0.287922 0.039896
0.673947 0.296048 0.040275
0.712662 0.302839 0.036912
0.750753 0.307988 0.032321
0.787587 0.311413 0.027879
0.819380 0.312118 0.024013
0.012353 0.313170 0.022683
0.039076 0.313170 0.017315
0.103692 0.313170 0.017315
0.177528 0.313170 0.017315
0.247328 0.313170 0.017315
0.311493 0.313170 0.017315
0.371932 0.313170 0.017315
0.478395 0.315918 0.023823
0.585200 0.309955 0.044358
0.634422 0.319886 0.041321
0.667956 0.331897 0.039672
0.700384 0.341858 0.046040
0.735845 0.348619 0.050959
0.770375 0.354236 0.051018
0.802888 0.358561 0.047300
0.830883 0.359736 0.041939
0.012353 0.383318 0.023648
0.039076 0.383318 0.017315
0.108523 0.383318 0.017315
0.186262 0.383318 0.017315
0.258192 0.383318 0.017315
0.324403 0.383318 0.017315
0.386765 0.383318 0.017315
0.446282 0.383318 0.017315
0.550879 0.382297 0.024356
0.659742 0.369486 0.048799
0.709641 0.374133 0.050375
0.740710 0.383475 0.043097
0.766448 0.392709 0.050234
0.794858 0.399266 0.058112
0.825282 0.403144 0.063073
0.850180 0.404087 0.062125
0.012353 0.452128 0.024342
0.039076 0.452128 0.017315
0.111958 0.452128 0.017315
0.192348 0.452128 0.017315
0.265775 0.452128 0.017315
0.333343 0.452128 0.017315
0.397090 0.452128 0.017315
0.457927 0.452128 0.017315
0.516621 0.452128 0.017315
0.616428 0.446105 0.024645
0.725795 0.427606 0.051562
0.779222 0.426711 0.059168
0.809035 0.433123 0.049172
0.830736 0.440967 0.052566
0.852329 0.446876 0.062956
0.872983 0.447943 0.070056
0.012353 0.517126 0.024724
0.039076 0.517126 0.017315
0.113818 0.517126 0.017315
0.195584 0.517126 0.017315
0.269845 0.517126 0.017315
0.338196 0.517126 0.017315
0.402616 0.517126 0.017315
0.464143 0.517126 0.017315
0.523494 0.517126 0.017315
0.580964 0.517126 0.017315
0.675970 0.507011 0.024735
0.785756 0.484000 0.053122
0.843090 0.477590 0.066953
0.872319 0.481133 0.059279
0.892107 0.486491 0.054105
0.904707 0.489087 0.064807
0.012353 0.578312 0.024880
0.039076 0.578312 0.017315
0.114566 0.578312 0.017315
0.196845 0.578312 0.017315
0.271484 0.578312 0.017315
0.340164 0.578312 0.017315
0.404766 0.578312 0.017315
0.466652 0.578312 0.017315
0.526245 0.578312 0.017315
0.583980 0.578312 0.017315
0.640039 0.578312 0.017315
0.731371 0.565064 0.024812
0.839833 0.538520 0.053662
0.901732 0.526953 0.073223
0.932348 0.526892 0.069007
0.952930 0.527090 0.057249
0.012353 0.636546 0.024898
0.039076 0.636546 0.017315
0.114644 0.636546 0.017315
0.196958 0.636546 0.017315
0.271610 0.636546 0.017315
0.340269 0.636546 0.017315
0.405032 0.636546 0.017315
0.466828 0.636546 0.017315
0.526422 0.636546 0.017315
0.584110 0.636546 0.017315
0.640193 0.636546 0.017315
0.695271 0.636546 0.017315
0.782387 0.620561 0.024736
0.889603 0.591120 0.053634
0.965139 0.574591 0.077974
1.001712 0.567992 0.077480
0.012353 0.691783 0.024810
0.039076 0.691783 0.017315
0.114158 0.691783 0.017315
0.196185 0.691783 0.017315
0.270603 0.691783 0.017315
0.339045 0.691783 0.017315
0.403634 0.691783 0.017315
0.465229 0.691783 0.017315
0.524661 0.691783 0.017315
0.582312 0.691783 0.017315
0.638191 0.691783 0.017315
0.692857 0.691783 0.017315
0.746351 0.691783 0.017315
0.830138 0.673663 0.024698
0.937267 0.641399 0.053040
1.025220 0.617374 0.080571
0.012353 0.744166 0.024648
0.039076 0.744167 0.017315
0.113348 0.744167 0.017315
0.194703 0.744167 0.017315
0.268801 0.744166 0.017315
0.336910 0.744166 0.017315
0.401206 0.744167 0.017315
0.462567 0.744167 0.017315
0.521681 0.744166 0.017315
0.578939 0.744167 0.017315
0.634577 0.744167 0.017315
0.689013 0.744167 0.017315
0.742218 0.744167 0.017315
0.794338 0.744167 0.017315
0.874014 0.723681 0.024531
0.987395 0.686575 0.051409
0.012353 0.793611 0.024415
0.039076 0.793611 0.017315
0.112170 0.793611 0.017315
0.192743 0.793611 0.017315
0.266245 0.793611 0.017315
0.333908 0.793611 0.017315
0.397693 0.793611 0.017315
0.458586 0.793611 0.017315
0.517391 0.793611 0.017315
0.574234 0.793611 0.017315
0.629597 0.793611 0.017315
0.683650 0.793611 0.017315
0.736344 0.793611 0.017315
0.788132 0.793611 0.017315
0.838984 0.793611 0.017315
0.910039 0.767945 0.024161
0.012353 0.835586 0.024023
0.039076 0.835586 0.017315
0.110165 0.835586 0.017315
0.189181 0.835586 0.017315
0.261883 0.835586 0.017315
0.328735 0.835586 0.017315
0.391718 0.835586 0.017315
0.451922 0.835586 0.017315
0.509939 0.835586 0.017315
0.566142 0.835586 0.017315
0.620782 0.835586 0.017315
0.674131 0.835586 0.017315
0.726281 0.835586 0.017315
0.777421 0.835586 0.017315
0.827608 0.835586 0.017315
0.876399 0.835586 0.017315
0.012353 0.014789 0.037703
0.041567 0.014789 0.037703
0.082892 0.014789 0.037703
0.145072 0.014789 0.040607
0.219609 0.014789 0.043846
0.295496 0.015118 0.042615
0.368553 0.016616 0.037108
0.437374 0.020195 0.032354
0.501755 0.025113 0.028537
0.560663 0.030877 0.025337
0.614893 0.037233 0.022615
0.665403 0.044032 0.020313
0.712549 0.051153 0.018330
0.756849 0.058532 0.016628
0.797913 0.066017 0.015141
0.832576 0.072860 0.013809
0.012353 0.037732 0.037703
0.039076 0.035768 0.037703
0.082892 0.035768 0.037703
0.145072 0.035768 0.039857
0.219573 0.035860 0.041598
0.293048 0.037091 0.037672
0.363928 0.040005 0.033389
0.432448 0.044142 0.029798
0.497165 0.049146 0.026694
0.556551 0.054761 0.023940
0.611193 0.060843 0.021513
0.662164 0.067332 0.019400
0.709599 0.074125 0.017582
0.754255 0.081189 0.016008
0.795501 0.088312 0.014640
0.830253 0.094868 0.013419
0.012353 0.071211 0.037703
0.039076 0.071211 0.037703
0.082892 0.071211 0.037703
0.141903 0.072106 0.036506
0.210001 0.074696 0.032239
0.280738 0.077837 0.028297
0.352005 0.081674 0.024631
0.421605 0.086273 0.021401
0.487462 0.091452 0.018714
0.547770 0.097000 0.016553
0.603292 0.102656 0.014812
0.654994 0.108492 0.013391
0.703223 0.114311 0.012227
0.748222 0.120126 0.011268
0.790261 0.125904 0.010487
0.825528 0.130971 0.009895
0.012353 0.122279 0.040607
0.039076 0.122279 0.039857
0.082892 0.122279 0.037703
0.145072 0.122279 0.037703
0.236203 0.121917 0.044551
0.300300 0.131205 0.043199
0.361729 0.143273 0.040245
0.423782 0.155050 0.034553
0.485341 0.164646 0.029126
0.543425 0.171943 0.024901
0.597908 0.177612 0.021737
0.649314 0.182319 0.019294
0.697504 0.186320 0.017406
0.742850 0.189915 0.015900
0.784977 0.193077 0.014665
0.820508 0.194985 0.013673
0.012353 0.180353 0.043846
0.039076 0.180353 0.042423
0.082892 0.180353 0.037703
0.151621 0.180353 0.037703
0.219609 0.180353 0.037703
0.318921 0.182349 0.045940
0.397745 0.189502 0.053077
0.451819 0.204576 0.049219
0.506248 0.217315 0.048483
0.557036 0.227911 0.043907
0.605533 0.236055 0.037944
0.652727 0.242192 0.032555
0.698053 0.246751 0.028197
0.741678 0.250261 0.024779
0.782532 0.252730 0.022072
0.817604 0.253317 0.019968
0.012353 0.244606 0.047567
0.039076 0.244606 0.045457
0.082892 0.244606 0.037703
0.159447 0.244606 0.037703
0.231405 0.244606 0.037703
0.295624 0.244606 0.037703
0.399416 0.247637 0.046936
0.490183 0.250081 0.063752
0.541078 0.263997 0.057093
0.584061 0.276530 0.057230
0.628006 0.285540 0.058014
0.669716 0.293414 0.054217
0.709843 0.299586 0.048181
0.749175 0.304123 0.042013
0.786978 0.307188 0.036607
0.819605 0.307542 0.032103
0.012353 0.313170 0.051210
0.039076 0.313170 0.048436
0.082892 0.313170 0.037703
0.166971 0.313170 0.037703
0.242552 0.313170 0.037703
0.309639 0.313170 0.037703
0.371932 0.313170 0.037703
0.476972 0.314905 0.047829
0.575742 0.311149 0.072322
0.624070 0.321007 0.066760
0.659705 0.331980 0.064086
0.694979 0.340793 0.066951
0.731985 0.346930 0.068597
0.767045 0.352336 0.065339
0.800511 0.356424 0.059409
0.829434 0.357249 0.052453
0.012353 0.383318 0.054368
0.039076 0.383318 0.051020
0.082892 0.383318 0.037703
0.173185 0.383318 0.037703
0.251676 0.383318 0.037703
0.321066 0.383318 0.037703
0.385367 0.383318 0.037703
0.446282 0.383318 0.037703
0.549273 0.381898 0.048430
0.651738 0.370819 0.078422
0.699933 0.375747 0.078094
0.732280 0.384480 0.070086
0.760483 0.392667 0.073330
0.790889 0.398392 0.077543
0.822151 0.401969 0.079310
0.847572 0.402994 0.075940
0.012353 0.452128 0.056651
0.039076 0.452128 0.052910
0.082892 0.452128 0.037703
0.177484 0.452128 0.037703
0.258032 0.452128 0.037703
0.328955 0.452128 0.037703
0.394713 0.452128 0.037703
0.456956 0.452128 0.037703
0.516622 0.452128 0.037703
0.614840 0.445974 0.048731
0.718984 0.428810 0.082109
0.770132 0.428683 0.088227
0.800852 0.434607 0.077595
0.824466 0.441638 0.078070
0.848054 0.446746 0.083746
0.870051 0.447274 0.087740
0.012353 0.517126 0.057896
0.039076 0.517126 0.053932
0.082892 0.517126 0.037703
0.179699 0.517126 0.037703
0.261332 0.517126 0.037703
0.333135 0.517126 0.037703
0.399607 0.517126 0.037703
0.462405 0.517126 0.037703
0.522697 0.517126 0.037703
0.580964 0.517126 0.037703
0.674403 0.506900 0.048820
0.779803 0.485251 0.084155
0.834464 0.479809 0.096766
0.864343 0.483079 0.088409
0.885496 0.487738 0.082058
0.899903 0.489611 0.087456
0.012353 0.578312 0.058411
0.039076 0.578312 0.054330
0.082892 0.578312 0.037703
0.180580 0.578312 0.037703
0.262534 0.578312 0.037703
0.334574 0.578312 0.037703
0.401270 0.578312 0.037703
0.464453 0.578312 0.037703
0.525031 0.578312 0.037703
0.583359 0.578312 0.037703
0.640039 0.578312 0.037703
0.729832 0.565200 0.048888
0.834420 0.539878 0.084898
0.893517 0.529264 0.103657
0.923122 0.529093 0.098768
0.943231 0.528856 0.087077
0.012353 0.636546 0.058468
0.039076 0.636546 0.054374
0.082892 0.636546 0.037703
0.180434 0.636546 0.037703
0.262412 0.636546 0.037703
0.334489 0.636546 0.037703
0.401208 0.636546 0.037703
0.464277 0.636546 0.037703
0.524787 0.636546 0.037703
0.583198 0.636546 0.037703
0.639850 0.636546 0.037703
0.695271 0.636546 0.037703
0.780625 0.620896 0.048732
0.884600 0.592528 0.084991
0.954576 0.576830 0.108916
0.990764 0.570418 0.107793
0.012353 0.691783 0.058158
0.039076 0.691783 0.054092
0.082892 0.691783 0.037703
0.179752 0.691783 0.037703
0.261386 0.691783 0.037703
0.333189 0.691783 0.037703
0.399664 0.691783 0.037703
0.462588 0.691783 0.037703
0.522818 0.691783 0.037703
0.581067 0.691783 0.037703
0.637551 0.691783 0.037703
0.692752 0.691783 0.037703
0.746351 0.691783 0.037703
0.828668 0.673800 0.048648
0.930828 0.642759 0.084436
1.015346 0.619697 0.111937
0.012353 0.744166 0.057662
0.039076 0.744167 0.053632
0.082892 0.744166 0.037703
0.178618 0.744166 0.037703
0.259667 0.744167 0.037703
0.331040 0.744167 0.037703
0.397085 0.744167 0.037703
0.459680 0.744167 0.037703
0.519648 0.744166 0.037703
0.577563 0.744167 0.037703
0.633672 0.744167 0.037703
0.688527 0.744167 0.037703
0.741909 0.744167 0.037703
0.794338 0.744167 0.037703
0.872417 0.724056 0.048406
0.981409 0.688039 0.082676
0.012353 0.793611 0.056895
0.039076 0.793611 0.053006
0.082892 0.793611 0.037703
0.176921 0.793611 0.037703
0.257295 0.793611 0.037703
0.328136 0.793611 0.037703
0.393698 0.793611 0.037703
0.455706 0.793611 0.037703
0.515196 0.793611 0.037703
0.572711 0.793611 0.037703
0.628408 0.793611 0.037703
0.682888 0.793611 0.037703
0.735843 0.793611 0.037703
0.787982 0.793611 0.037703
0.838984 0.793611 0.037703
0.908705 0.768084 0.047879
0.012353 0.835586 0.055580
0.039076 0.835586 0.051917
0.082892 0.835586 0.037703
0.174237 0.835586 0.037703
0.253345 0.835586 0.037703
0.323144 0.835586 0.037703
0.387827 0.835586 0.037703
0.449082 0.835586 0.037703
0.507847 0.835586 0.037703
0.564593 0.835586 0.037703
0.619594 0.835586 0.037703
0.673293 0.835586 0.037703
0.725685 0.835586 0.037703
0.777085 0.835586 0.037703
0.827400 0.835586 0.037703
0.876399 0.835586 0.037703
0.012353 0.014789 0.071006
0.043768 0.014789 0.071006
0.088654 0.014789 0.071006
0.145099 0.014789 0.071006
0.219609 0.014789 0.077062
0.295624 0.014789 0.083732
0.372261 0.014883 0.087634
0.446046 0.015542 0.081700
0.512864 0.017923 0.073212
0.572104 0.022595 0.065054
0.625833 0.028548 0.057806
0.675790 0.035292 0.051599
0.722185 0.042509 0.046357
0.765774 0.050074 0.041878
0.806182 0.057782 0.037956
0.840243 0.064955 0.034350
0.012353 0.039464 0.071006
0.039076 0.035768 0.071006
0.087193 0.035768 0.071006
0.145072 0.035768 0.071006
0.219609 0.035768 0.076428
0.295624 0.035768 0.082620
0.371932 0.036135 0.083948
0.444256 0.037569 0.077711
0.509787 0.041092 0.070214
0.568741 0.046140 0.062957
0.622559 0.052060 0.056364
0.672700 0.058596 0.050639
0.719271 0.065530 0.045705
0.763082 0.072751 0.041437
0.803817 0.080130 0.037675
0.837991 0.086979 0.034210
0.012353 0.076000 0.071006
0.039076 0.074783 0.071006
0.082892 0.071211 0.071006
0.145099 0.071211 0.071006
0.219609 0.071211 0.074468
0.295475 0.071443 0.076892
0.369065 0.073321 0.071699
0.438139 0.077116 0.065409
0.502597 0.082076 0.059433
0.561566 0.087703 0.053786
0.615798 0.093760 0.048795
0.666548 0.100142 0.044332
0.713600 0.106554 0.040439
0.757988 0.112976 0.037005
0.799021 0.119250 0.033943
0.833686 0.124886 0.031197
0.012353 0.122279 0.071006
0.039076 0.122279 0.071006
0.082892 0.122279 0.071006
0.145072 0.122279 0.071006
0.216525 0.123215 0.070217
0.284316 0.127148 0.062505
0.355037 0.130823 0.055990
0.424372 0.134976 0.050122
0.490118 0.139366 0.044991
0.550255 0.143941 0.040689
0.605617 0.148603 0.037096
0.657312 0.153260 0.034021
0.705315 0.158011 0.031407
0.750537 0.162818 0.029151
0.792222 0.167497 0.027256
0.827438 0.171664 0.025774
0.012353 0.180353 0.077062
0.039076 0.180353 0.076428
0.082892 0.180353 0.074468
0.145099 0.180353 0.071006
0.219609 0.180353 0.071006
0.314219 0.179723 0.082019
0.378303 0.189116 0.079592
0.437409 0.200319 0.075645
0.495002 0.210552 0.067860
0.549969 0.218443 0.059262
0.602438 0.224340 0.051979
0.652635 0.228987 0.046248
0.699814 0.232640 0.041729
0.744668 0.235773 0.038123
0.786472 0.238349 0.035191
0.821927 0.239540 0.032879
0.012353 0.244606 0.083732
0.039076 0.244606 0.082620
0.082892 0.244606 0.078646
0.145072 0.244606 0.071006
0.226712 0.244606 0.071006
0.295624 0.244606 0.071006
0.398138 0.244882 0.083841
0.474974 0.250274 0.092990
0.525781 0.262877 0.086952
0.573821 0.272824 0.085022
0.619520 0.281025 0.080090
0.663317 0.287749 0.072260
0.705949 0.292870 0.064188
0.747382 0.296643 0.056839
0.786870 0.299078 0.050721
0.820676 0.299395 0.045824
0.012353 0.313170 0.090128
0.039076 0.313170 0.088556
0.082892 0.313170 0.082677
0.145072 0.313170 0.071006
0.233550 0.313170 0.071006
0.306287 0.313170 0.071006
0.371932 0.313170 0.071006
0.476060 0.312911 0.084433
0.563565 0.311629 0.104669
0.610382 0.321219 0.097054
0.648408 0.330881 0.094293
0.687610 0.338082 0.093948
0.725676 0.343835 0.090694
0.762152 0.348870 0.084036
0.797171 0.352317 0.076227
0.827604 0.352906 0.068491
0.012353 0.383318 0.095399
0.039076 0.383318 0.093456
0.082892 0.383318 0.086090
0.145072 0.383318 0.071006
0.239158 0.383318 0.071006
0.314893 0.383318 0.071006
0.382993 0.383318 0.071006
0.446282 0.383318 0.071006
