luts/INTERSTELLAR-MILLER'S_PLANET.cube
LUT_3D_SIZE 16
0.000000 0.000000 0.000000
0.031236 0.000892 0.000101
0.083258 0.002988 0.000505
0.148547 0.006080 0.001305
0.217903 0.010075 0.002564
0.291014 0.014922 0.004334
0.368352 0.020593 0.006667
0.449722 0.027052 0.009602
0.535372 0.034313 0.013194
0.623554 0.042357 0.017487
0.709436 0.051189 0.022522
0.788396 0.060813 0.028360
0.856385 0.071233 0.035036
0.915301 0.082484 0.042625
0.960850 0.094457 0.051146
0.991852 0.106630 0.060606
0.007060 0.014485 0.000326
0.032636 0.014718 0.000420
0.083990 0.015925 0.000817
0.149037 0.018211 0.001611
0.218246 0.021611 0.002867
0.291256 0.026097 0.004636
0.368526 0.031575 0.006966
0.449933 0.037952 0.009903
0.535541 0.045216 0.013497
0.623643 0.053269 0.017788
0.709579 0.061944 0.022827
0.788469 0.071180 0.028659
0.856506 0.080954 0.035343
0.915249 0.091445 0.042940
0.960932 0.102328 0.051458
0.991903 0.113496 0.060908
0.018567 0.049656 0.001651
0.038551 0.049800 0.001741
0.087067 0.050459 0.002129
0.151019 0.053111 0.002911
0.219624 0.057038 0.004157
0.292341 0.062278 0.005921
0.369378 0.068651 0.008249
0.450650 0.076014 0.011182
0.536208 0.084314 0.014778
0.624280 0.093205 0.019079
0.710033 0.101789 0.024123
0.788760 0.109691 0.029971
0.856709 0.116940 0.036666
0.915515 0.124104 0.044273
0.961119 0.131592 0.052807
0.992004 0.139629 0.062283
0.032755 0.103643 0.004281
0.048864 0.103769 0.004370
0.094823 0.104284 0.004753
0.154982 0.105285 0.005529
0.222474 0.110446 0.006765
0.294585 0.117072 0.008522
0.371282 0.124801 0.010849
0.452197 0.133256 0.013784
0.537538 0.142340 0.017391
0.625456 0.151452 0.021698
0.710980 0.159509 0.026766
0.789511 0.165842 0.032632
0.857297 0.170406 0.039337
0.915918 0.174181 0.046988
0.961363 0.177988 0.055545
0.992154 0.182319 0.065081
0.049095 0.167046 0.008445
0.062733 0.167122 0.008534
0.106140 0.167486 0.008916
0.165035 0.168245 0.009689
0.226927 0.169454 0.010927
0.298085 0.177162 0.012682
0.374133 0.186077 0.015015
0.454660 0.195757 0.017963
0.539688 0.206055 0.021583
0.627195 0.216105 0.025919
0.712437 0.224431 0.031005
0.790556 0.229954 0.036902
0.858101 0.232635 0.043668
0.916588 0.233707 0.051348
0.961717 0.234394 0.059980
0.992438 0.235450 0.069536
0.067356 0.236208 0.014360
0.079413 0.236257 0.014448
0.120730 0.236568 0.014833
0.177824 0.237167 0.015607
0.239549 0.238125 0.016850
0.302936 0.239481 0.018613
0.378131 0.249811 0.020958
0.458094 0.260980 0.023926
0.542615 0.272795 0.027569
0.629721 0.284141 0.031940
0.714539 0.293088 0.037064
0.792245 0.298206 0.043022
0.859340 0.299396 0.049833
0.917469 0.298256 0.057600
0.962387 0.296406 0.066305
0.992693 0.294654 0.075786
0.087391 0.311299 0.022237
0.098425 0.311360 0.022325
0.137495 0.311637 0.022709
0.192652 0.312108 0.023492
0.254143 0.312931 0.024744
0.318202 0.314043 0.026529
0.383425 0.315525 0.028896
0.462663 0.328262 0.031890
0.546640 0.341730 0.035573
0.633193 0.354449 0.039991
0.717228 0.364066 0.045171
0.794292 0.368926 0.051216
0.860987 0.368862 0.058105
0.918679 0.365800 0.065956
0.963153 0.361674 0.074628
0.993189 0.357509 0.083757
0.109118 0.392104 0.032280
0.119421 0.392166 0.032372
0.155695 0.392390 0.032761
0.208991 0.392834 0.033551
0.270149 0.393509 0.034828
0.334778 0.394483 0.036629
0.401078 0.395776 0.039032
0.468345 0.397405 0.042070
0.551638 0.412561 0.045812
0.637316 0.426583 0.050302
0.720594 0.436813 0.055562
0.796983 0.441393 0.061675
0.863074 0.440163 0.068665
0.920153 0.435312 0.076449
0.964224 0.429083 0.084731
0.993714 0.422687 0.093450
0.132182 0.478670 0.044757
0.141456 0.478745 0.044855
0.175061 0.478930 0.045244
0.226559 0.479256 0.046055
0.287292 0.479959 0.047340
0.352445 0.480812 0.049188
0.419748 0.481947 0.051626
0.488313 0.483360 0.054736
0.557560 0.485058 0.058536
0.642455 0.500397 0.063098
0.724771 0.511101 0.068455
0.800319 0.515302 0.074588
0.865535 0.512782 0.081299
0.922054 0.506147 0.088634
0.965333 0.497982 0.096517
0.994242 0.489524 0.104813
0.155537 0.568450 0.059908
0.163915 0.568465 0.060021
0.195067 0.568622 0.060409
0.244592 0.568934 0.061231
0.304469 0.569544 0.062573
0.369665 0.570213 0.064447
0.437578 0.571235 0.066955
0.507028 0.572454 0.070106
0.577482 0.573993 0.073908
0.648447 0.575727 0.078372
0.729751 0.586759 0.083442
0.803990 0.590261 0.089146
0.868405 0.586398 0.095456
0.924194 0.578086 0.102389
0.966756 0.567943 0.109854
0.994966 0.557558 0.117737
0.179193 0.655958 0.077774
0.186656 0.655999 0.077866
0.215160 0.656026 0.078250
0.261986 0.656366 0.079063
0.320102 0.656806 0.080320
0.384358 0.657428 0.082101
0.451993 0.658130 0.084432
0.521608 0.659231 0.087353
0.592234 0.660484 0.090891
0.663639 0.661864 0.095014
0.735376 0.663646 0.099769
0.808337 0.666216 0.105092
0.871705 0.660806 0.111042
0.926727 0.650638 0.117600
0.968421 0.638635 0.124673
0.995729 0.626333 0.132168
0.203229 0.735842 0.096900
0.209767 0.735827 0.096991
0.235245 0.735889 0.097360
0.278423 0.736114 0.098075
0.333548 0.736491 0.099246
0.395603 0.736911 0.100898
0.461739 0.737479 0.103073
0.530196 0.738360 0.105775
0.599899 0.739192 0.109063
0.670619 0.740472 0.112901
0.741719 0.741684 0.117344
0.813188 0.742962 0.122383
0.875384 0.735889 0.127993
0.929377 0.723923 0.134197
0.970095 0.709841 0.140905
0.996644 0.695742 0.148010
0.227675 0.804683 0.116972
0.233252 0.804717 0.117043
0.255492 0.804798 0.117397
0.294305 0.804857 0.118082
0.345255 0.805203 0.119151
0.403906 0.805523 0.120690
0.467218 0.805996 0.122718
0.533345 0.806531 0.125252
0.601187 0.807257 0.128331
0.670119 0.808216 0.131937
0.739691 0.809088 0.136138
0.809615 0.810273 0.140876
0.879749 0.811530 0.146163
0.932528 0.797510 0.152040
0.972090 0.781528 0.158456
0.997569 0.765602 0.165211
0.252671 0.865007 0.138081
0.257414 0.864924 0.138153
0.276484 0.865001 0.138463
0.310693 0.865196 0.139090
0.356907 0.865331 0.140104
0.411436 0.865673 0.141542
0.471096 0.866016 0.143435
0.534137 0.866493 0.145837
0.599290 0.867045 0.148720
0.665755 0.867764 0.152132
0.733042 0.868531 0.156086
0.800934 0.869495 0.160561
0.869154 0.870488 0.165605
0.935892 0.871608 0.171222
0.974325 0.853737 0.177316
0.998413 0.835882 0.183726
0.278013 0.919078 0.160009
0.281999 0.919110 0.160088
0.298287 0.919141 0.160396
0.328250 0.919231 0.161022
0.369683 0.919407 0.161934
0.419664 0.919688 0.163281
0.475347 0.919967 0.165093
0.534869 0.920318 0.167315
0.596888 0.920740 0.170078
0.660557 0.921373 0.173337
0.725311 0.922070 0.177062
0.790965 0.922774 0.181302
0.856752 0.923645 0.186075
0.922595 0.924657 0.191417
0.976670 0.925651 0.197232
0.999268 0.906219 0.203406
0.303657 0.969692 0.182748
0.307027 0.969646 0.182815
0.321001 0.969782 0.183059
0.347082 0.969807 0.183645
0.384071 0.969988 0.184573
0.429513 0.970196 0.185845
0.481090 0.970436 0.187537
0.536859 0.970705 0.189635
0.595665 0.971166 0.192293
0.656380 0.971560 0.195297
0.718435 0.972236 0.198871
0.781455 0.972967 0.202896
0.845025 0.973660 0.207483
0.909254 0.974555 0.212632
0.965307 0.975460 0.218131
0.999902 0.976470 0.224306
0.001879 0.000410 0.003896
0.031383 0.001101 0.003984
0.083340 0.003127 0.004459
0.148598 0.006188 0.005388
0.217927 0.010166 0.006844
0.291022 0.015000 0.008881
0.368301 0.020660 0.011537
0.449749 0.027118 0.014833
0.535407 0.034373 0.018814
0.623568 0.042414 0.023487
0.709457 0.051232 0.028796
0.788416 0.060868 0.034728
0.856398 0.071275 0.041295
0.915248 0.082527 0.048656
0.960858 0.094511 0.056889
0.991857 0.106698 0.066063
0.007461 0.014567 0.004197
0.032777 0.014798 0.004286
0.084062 0.015772 0.004667
0.149082 0.017693 0.005442
0.218240 0.020630 0.006683
0.291293 0.024560 0.008438
0.368561 0.029470 0.010767
0.449960 0.035302 0.013705
0.535509 0.042031 0.017304
0.623656 0.049640 0.021616
0.709681 0.058090 0.026676
0.788488 0.067412 0.032545
0.856518 0.077566 0.039264
0.915260 0.088598 0.046898
0.960941 0.100162 0.055467
0.991909 0.111934 0.065004
0.018770 0.049698 0.005570
0.038321 0.049845 0.005572
0.087140 0.050515 0.005953
0.151076 0.052901 0.006727
0.219666 0.056484 0.007965
0.292381 0.061294 0.009720
0.369364 0.067193 0.012048
0.450677 0.074065 0.014985
0.536199 0.081888 0.018594
0.624268 0.090381 0.022914
0.710055 0.098821 0.027984
0.788779 0.106809 0.033855
0.856721 0.114362 0.040590
0.915524 0.121926 0.048251
0.961129 0.129867 0.056825
0.992010 0.138314 0.066360
0.032890 0.103702 0.008320
0.048150 0.103798 0.008175
0.094559 0.104329 0.008556
0.155049 0.105341 0.009329
0.222509 0.110220 0.010563
0.294601 0.116546 0.012323
0.371349 0.123945 0.014654
0.452224 0.132048 0.017601
0.537519 0.140848 0.021219
0.625445 0.149693 0.025545
0.711002 0.157607 0.030627
0.789531 0.163931 0.036534
0.857309 0.168639 0.043282
0.915929 0.172629 0.050978
0.961372 0.176724 0.059581
0.992159 0.181308 0.069146
0.049204 0.167061 0.012685
0.061526 0.167137 0.012337
0.105470 0.167532 0.012718
0.164804 0.168267 0.013494
0.226952 0.169476 0.014727
0.298089 0.176942 0.016493
0.374143 0.185647 0.018836
0.454658 0.195052 0.021796
0.539666 0.205116 0.025424
0.627208 0.214970 0.029785
0.712458 0.223155 0.034901
0.790575 0.228655 0.040830
0.858114 0.231389 0.047630
0.916599 0.232599 0.055364
0.961726 0.233460 0.064040
0.992443 0.234708 0.073582
0.067440 0.236237 0.018876
0.077726 0.236324 0.018265
0.119621 0.236603 0.018645
0.177251 0.237187 0.019426
0.239332 0.238168 0.020672
0.302987 0.239508 0.022450
0.378166 0.249612 0.024804
0.458121 0.260602 0.027786
0.542651 0.272216 0.031447
0.629734 0.283392 0.035839
0.714562 0.292165 0.040995
0.792254 0.297288 0.046988
0.859352 0.298500 0.053848
0.917481 0.297519 0.061651
0.962395 0.295713 0.070383
0.992698 0.294084 0.079690
0.087458 0.311357 0.027089
0.096304 0.311370 0.026179
0.136017 0.311619 0.026562
0.191817 0.312167 0.027348
0.253692 0.312938 0.028602
0.318051 0.314066 0.030403
0.383411 0.315516 0.032775
0.462691 0.328104 0.035792
0.546613 0.341429 0.039489
0.633188 0.354005 0.043940
0.717249 0.363487 0.049141
0.794300 0.368305 0.055201
0.860999 0.368246 0.062155
0.918689 0.365234 0.070037
0.963162 0.361189 0.078581
0.993186 0.357106 0.087550
0.109184 0.392140 0.037516
0.116975 0.392201 0.036279
0.153956 0.392395 0.036671
0.207892 0.392870 0.037466
0.269452 0.393493 0.038740
0.334404 0.394472 0.040553
0.400969 0.395812 0.042963
0.468373 0.397441 0.046038
0.551575 0.412404 0.049795
0.637329 0.426329 0.054298
0.720617 0.436456 0.059586
0.796980 0.440954 0.065735
0.863086 0.439696 0.072728
0.920164 0.434894 0.080373
0.964233 0.428709 0.088525
0.993610 0.422414 0.097081
0.132243 0.478683 0.050391
0.138886 0.478769 0.048830
0.173118 0.478962 0.049227
0.225236 0.479260 0.050022
0.286415 0.479934 0.051321
0.351837 0.480754 0.053184
0.419392 0.481949 0.055637
0.488194 0.483393 0.058751
0.557600 0.485091 0.062582
0.642469 0.500320 0.067187
0.724792 0.510879 0.072531
0.800314 0.515028 0.078511
0.865547 0.512468 0.085145
0.922064 0.505856 0.092343
0.965341 0.497718 0.100099
0.994246 0.489378 0.108282
0.155597 0.568442 0.065936
0.161307 0.568478 0.064063
0.193034 0.568664 0.064489
0.243111 0.568946 0.065304
0.303475 0.569556 0.066642
0.368967 0.570226 0.068521
0.437115 0.571277 0.071026
0.506775 0.572449 0.074136
0.577370 0.574005 0.077867
0.648461 0.575739 0.082224
0.729857 0.586688 0.087213
0.804009 0.590086 0.092844
0.868417 0.586172 0.099071
0.924181 0.577832 0.105906
0.966763 0.567732 0.113269
0.994971 0.557369 0.121060
0.179239 0.655972 0.083574
0.184234 0.655985 0.081729
0.213182 0.656040 0.082134
0.260514 0.656380 0.082915
0.319032 0.656820 0.084157
0.383605 0.657442 0.085917
0.451491 0.658145 0.088220
0.521241 0.659245 0.091084
0.592054 0.660499 0.094545
0.663586 0.661884 0.098625
0.735538 0.663705 0.103293
0.808329 0.666111 0.108560
0.871674 0.660604 0.114447
0.926737 0.650558 0.120918
0.968428 0.638494 0.127920
0.995733 0.626221 0.135346
0.203276 0.735870 0.102165
0.207775 0.735854 0.100582
0.233550 0.735919 0.100923
0.277105 0.736141 0.101652
0.332550 0.736518 0.102790
0.394854 0.736938 0.104422
0.461224 0.737506 0.106554
0.529773 0.738387 0.109248
0.599665 0.739128 0.112481
0.670493 0.740408 0.116282
0.741649 0.741598 0.120680
0.813208 0.742989 0.125656
0.875396 0.735983 0.131212
0.929387 0.723865 0.137345
0.970103 0.709908 0.144021
0.996648 0.695640 0.151069
0.227707 0.804695 0.121599
0.231773 0.804729 0.120384
0.254165 0.804810 0.120727
0.293257 0.804869 0.121396
0.344426 0.805214 0.122470
0.403272 0.805534 0.123993
0.466744 0.806007 0.125985
0.532980 0.806542 0.128483
0.600933 0.807269 0.131531
0.669886 0.808144 0.135131
0.739503 0.809099 0.139271
0.809556 0.810284 0.143965
0.879761 0.811541 0.149224
0.932540 0.797525 0.155034
0.972098 0.781475 0.161402
0.997572 0.765593 0.168101
0.252689 0.865017 0.142078
0.256388 0.864935 0.141261
0.275557 0.865012 0.141565
0.309972 0.865207 0.142218
0.356313 0.865342 0.143236
0.410925 0.865684 0.144640
0.470731 0.866027 0.146542
0.533883 0.866504 0.148907
0.599101 0.867056 0.151754
0.665630 0.867775 0.155147
0.732987 0.868542 0.159045
0.800984 0.869443 0.163491
0.869119 0.870499 0.168525
0.935901 0.871619 0.174062
0.974333 0.853721 0.180137
0.998416 0.835868 0.186506
0.278029 0.919089 0.163461
0.281454 0.919120 0.163051
0.297785 0.919152 0.163329
0.327827 0.919241 0.163944
0.369360 0.919418 0.164886
0.419313 0.919699 0.166213
0.475123 0.919979 0.167996
0.534693 0.920329 0.170234
0.596761 0.920750 0.172939
0.660489 0.921383 0.176164
0.725263 0.922080 0.179857
0.790904 0.922785 0.184090
0.856716 0.923656 0.188859
0.922584 0.924667 0.194153
0.976677 0.925661 0.199991
0.999270 0.906226 0.206086
0.303695 0.969625 0.185725
0.306874 0.969641 0.185588
0.320829 0.969792 0.185854
0.346930 0.969817 0.186463
0.383970 0.969999 0.187374
0.429418 0.970214 0.188607
0.480983 0.970449 0.190255
0.536841 0.970716 0.192398
0.595602 0.971177 0.194990
0.656346 0.971571 0.198025
0.718410 0.972247 0.201551
0.781441 0.972978 0.205581
0.845026 0.973671 0.210169
0.909255 0.974470 0.215201
0.965314 0.975471 0.220715
0.999903 0.976481 0.226830
0.004902 0.001362 0.020189
0.032415 0.001879 0.020280
0.083644 0.003698 0.020659
0.148818 0.006644 0.022238
0.218084 0.010548 0.024610
0.291136 0.015331 0.027854
0.368419 0.020958 0.031936
0.449809 0.027392 0.036794
0.535512 0.034623 0.042475
0.623624 0.042646 0.048785
0.709481 0.051455 0.055304
0.788386 0.061079 0.061687
0.856450 0.071465 0.067838
0.915295 0.082717 0.074168
0.960894 0.094679 0.080817
0.991883 0.106839 0.087989
0.009042 0.015136 0.020489
0.033366 0.015132 0.020577
0.084378 0.016101 0.020962
0.149278 0.018011 0.022379
0.218425 0.020926 0.024533
0.291390 0.024842 0.027500
0.368634 0.029731 0.031252
0.450031 0.035549 0.035758
0.535616 0.042265 0.041051
0.623700 0.049860 0.047002
0.709687 0.058309 0.053263
0.788437 0.067616 0.059570
0.856521 0.077756 0.065863
0.915306 0.088798 0.072508
0.960956 0.100339 0.079519
0.991861 0.112072 0.087062
0.019632 0.049924 0.021785
0.038850 0.050073 0.021870
0.087445 0.050735 0.022259
0.151274 0.052061 0.023042
0.219787 0.054164 0.024293
0.292489 0.057108 0.026074
0.369495 0.060939 0.028438
0.450739 0.065688 0.031440
0.536269 0.071357 0.035121
0.624296 0.077958 0.039530
0.710088 0.085488 0.044713
0.788844 0.093905 0.050728
0.856773 0.102905 0.057621
0.915508 0.112503 0.065479
0.961074 0.122536 0.074189
0.992013 0.132902 0.083343
0.033482 0.103861 0.025187
0.048604 0.103987 0.025124
0.093472 0.104499 0.024896
0.155248 0.105517 0.025678
0.222634 0.109279 0.026931
0.294710 0.114273 0.028718
0.371343 0.120242 0.031096
0.452288 0.126952 0.034103
0.537586 0.134372 0.037802
0.625475 0.142082 0.042236
0.710958 0.149281 0.047433
0.789614 0.155597 0.053473
0.857361 0.160976 0.060400
0.915975 0.166045 0.068269
0.961324 0.171372 0.076879
0.992187 0.177282 0.085950
0.049644 0.167186 0.030505
0.061905 0.167289 0.030238
0.102628 0.167651 0.029122
0.163776 0.168403 0.029908
0.227101 0.169590 0.031175
0.298213 0.176134 0.032974
0.374151 0.183703 0.035360
0.454724 0.192110 0.038390
0.539748 0.201144 0.042106
0.627266 0.210126 0.046560
0.712461 0.217685 0.051806
0.790650 0.223052 0.057878
0.858115 0.226087 0.064845
0.916646 0.227946 0.072702
0.961763 0.229633 0.081152
0.992465 0.231738 0.090049
0.067808 0.236363 0.037959
0.078054 0.236405 0.037419
0.114833 0.236715 0.035172
0.174933 0.237289 0.035976
0.238446 0.238256 0.037243
0.303071 0.239603 0.039055
0.378267 0.248905 0.041471
0.458194 0.258994 0.044522
0.542729 0.269786 0.048266
0.629763 0.280249 0.052769
0.714584 0.288492 0.058047
0.792230 0.293359 0.064166
0.859404 0.294774 0.071193
0.917527 0.294151 0.078878
0.962434 0.292899 0.087095
0.992714 0.291938 0.095750
0.087763 0.311418 0.047642
0.096596 0.311494 0.046809
0.129656 0.311683 0.043272
0.188180 0.312227 0.044070
0.251766 0.312998 0.045358
0.317256 0.314133 0.047193
0.383512 0.315606 0.049617
0.462724 0.327468 0.052717
0.546720 0.340044 0.056501
0.633224 0.352021 0.061057
0.717353 0.361011 0.066402
0.794383 0.365613 0.072557
0.861051 0.365575 0.079375
0.918736 0.362875 0.086746
0.963197 0.359169 0.094696
0.993146 0.355496 0.103078
0.109443 0.392214 0.059711
0.117217 0.392253 0.058537
0.146313 0.392488 0.053604
0.203102 0.392905 0.054427
0.266562 0.393587 0.055743
0.332814 0.394565 0.057605
0.400309 0.395886 0.060077
0.468434 0.397509 0.063218
0.551707 0.411873 0.067072
0.637417 0.425163 0.071633
0.720792 0.434892 0.076883
0.797063 0.439123 0.082760
0.863108 0.437807 0.089250
0.920209 0.433135 0.096350
0.964144 0.427229 0.103998
0.993631 0.421256 0.112077
0.132467 0.478830 0.074241
0.139070 0.478835 0.072780
0.164540 0.478966 0.066471
0.219532 0.479365 0.067323
0.282681 0.479981 0.068624
0.349536 0.480862 0.070538
0.418162 0.482020 0.072992
0.487635 0.483473 0.076078
0.557673 0.485183 0.079772
0.642560 0.499849 0.084098
0.724887 0.509982 0.089044
0.800308 0.513780 0.094649
0.865598 0.511201 0.100815
0.922110 0.504672 0.107595
0.965347 0.496649 0.114929
0.994267 0.488512 0.122710
0.155796 0.568491 0.090046
0.161513 0.568504 0.088458
0.184017 0.568730 0.081551
0.236763 0.568994 0.082360
0.299119 0.569585 0.083609
0.366016 0.570333 0.085371
0.435261 0.571297 0.087670
0.505686 0.572497 0.090566
0.576909 0.574032 0.094031
0.648554 0.575793 0.098120
0.729826 0.586315 0.102791
0.804091 0.589462 0.108069
0.868469 0.585383 0.113963
0.924157 0.577027 0.120446
0.966797 0.567040 0.127463
0.994994 0.556866 0.134931
0.179416 0.656004 0.106356
0.184414 0.655992 0.104779
0.204599 0.656164 0.098009
0.254150 0.656442 0.098717
0.314496 0.656880 0.099909
0.380455 0.657529 0.101543
0.449255 0.658162 0.103701
0.519818 0.659334 0.106431
0.591239 0.660519 0.109688
0.663177 0.661970 0.113525
0.735425 0.663633 0.117953
0.808306 0.665802 0.122966
0.871725 0.660170 0.128577
0.926737 0.650060 0.134781
0.968369 0.637995 0.141492
0.995752 0.625844 0.148619
0.203413 0.735890 0.123056
0.207893 0.735881 0.121667
0.226177 0.735851 0.115719
0.271416 0.736261 0.116408
0.328318 0.736634 0.117487
0.391802 0.736937 0.119042
0.458982 0.737532 0.121063
0.528190 0.738316 0.123627
0.598591 0.739210 0.126696
0.669919 0.740390 0.130356
0.741445 0.741614 0.134536
0.813258 0.743107 0.139312
0.875447 0.735698 0.144633
0.929431 0.723588 0.150543
0.970136 0.709638 0.156960
0.996667 0.695595 0.163779
0.227848 0.804744 0.140245
0.231893 0.804778 0.139157
0.248571 0.804774 0.134582
0.288709 0.804918 0.135228
0.340974 0.805263 0.136276
0.400710 0.805557 0.137721
0.464780 0.806056 0.139617
0.531508 0.806591 0.142045
0.599920 0.807318 0.144951
0.669219 0.808193 0.148410
0.739042 0.809148 0.152379
0.809420 0.810228 0.156931
0.879811 0.811590 0.161977
0.932528 0.797435 0.167657
0.972132 0.781418 0.173800
0.997588 0.765453 0.180303
0.252816 0.864950 0.158440
0.256512 0.864982 0.157685
0.271836 0.865058 0.154624
0.306858 0.865253 0.155245
0.353837 0.865389 0.156207
0.408984 0.865731 0.157586
0.469276 0.865997 0.159414
0.532752 0.866474 0.161691
0.598276 0.867102 0.164455
0.665029 0.867823 0.167717
0.732563 0.868588 0.171518
0.800743 0.869463 0.175826
0.868977 0.870481 0.180712
0.935943 0.871665 0.186074
0.974268 0.853656 0.191983
0.998428 0.835864 0.198206
0.278200 0.919134 0.177760
0.281577 0.919166 0.177326
0.295760 0.919199 0.175680
0.326026 0.919288 0.176245
0.367942 0.919464 0.177198
0.418213 0.919744 0.178455
0.474227 0.920027 0.180187
0.533961 0.920376 0.182381
0.596252 0.920798 0.184991
0.660138 0.921430 0.188123
0.725023 0.922126 0.191731
0.790704 0.922790 0.195876
0.856685 0.923701 0.200502
0.922610 0.924645 0.205676
0.976607 0.925707 0.211399
0.999282 0.906248 0.217285
0.303825 0.969655 0.198133
0.306963 0.969695 0.198002
0.320203 0.969755 0.197611
0.346388 0.969867 0.198142
0.383433 0.970046 0.199021
0.429061 0.970261 0.200279
0.480692 0.970501 0.201877
0.536596 0.970768 0.203957
0.595452 0.971127 0.206439
0.656280 0.971618 0.209476
0.718376 0.972283 0.212899
0.781414 0.972853 0.216802
0.845031 0.973718 0.221315
0.909282 0.974522 0.226205
0.965356 0.975526 0.231645
0.999899 0.976440 0.237578
0.008616 0.002764 0.054232
0.034306 0.003177 0.054324
0.086192 0.004772 0.054743
0.149194 0.007529 0.055529
0.218346 0.011307 0.059787
0.291364 0.016002 0.065485
0.368638 0.021560 0.072420
0.449998 0.027936 0.080080
0.535618 0.035136 0.088350
0.623684 0.043129 0.096711
0.709580 0.051906 0.104177
0.788410 0.061491 0.110059
0.856506 0.071895 0.114322
0.915293 0.083116 0.117814
0.960945 0.095053 0.121337
0.991855 0.107174 0.125335
0.011767 0.016198 0.054550
0.034535 0.015800 0.054636
0.086521 0.016756 0.055049
0.149680 0.018642 0.055857
0.218673 0.021530 0.059878
0.291613 0.025409 0.065274
0.368788 0.030268 0.071892
0.450153 0.036057 0.079231
0.535753 0.042748 0.087209
0.623878 0.050314 0.095334
0.709804 0.058744 0.102606
0.788462 0.068027 0.108472
0.856572 0.078170 0.112853
0.915334 0.089186 0.116559
0.960946 0.100689 0.120329
0.991906 0.112392 0.124597
0.021312 0.051714 0.055907
0.039908 0.051599 0.055998
0.088056 0.051188 0.056404
0.151671 0.052513 0.057215
0.220103 0.054612 0.060312
0.292709 0.057546 0.064510
0.369724 0.061364 0.069765
0.450893 0.066108 0.075747
0.536381 0.071767 0.082401
0.624438 0.078362 0.089357
0.710203 0.085869 0.095922
0.788921 0.094292 0.101717
0.856879 0.103256 0.106623
0.915500 0.112823 0.111292
0.961148 0.122844 0.116221
0.992007 0.133210 0.121663
0.034643 0.104231 0.058672
0.049513 0.104340 0.058757
0.094055 0.104864 0.059177
0.155667 0.105885 0.059999
0.222938 0.107488 0.061306
0.294916 0.109764 0.063178
0.371490 0.112718 0.065664
0.452444 0.116407 0.068835
0.537791 0.120804 0.072674
0.625577 0.125879 0.077137
0.711131 0.131666 0.082253
0.789669 0.138106 0.087982
0.857407 0.145211 0.094349
0.916007 0.152911 0.101286
0.961398 0.161162 0.108775
0.992158 0.169936 0.116802
0.050549 0.167445 0.065963
0.062682 0.167521 0.065840
0.103181 0.167904 0.065359
0.161810 0.168653 0.064435
0.227373 0.169855 0.065760
0.298425 0.174489 0.067648
0.374403 0.179982 0.070147
0.454886 0.186202 0.073264
0.539824 0.193075 0.077018
0.627398 0.200187 0.081402
0.712540 0.206589 0.086409
0.790822 0.211748 0.092035
0.858221 0.215591 0.098294
0.916642 0.218943 0.105146
0.961820 0.222434 0.112533
0.992441 0.226429 0.120446
0.068521 0.236549 0.075876
0.078715 0.236613 0.075501
0.115372 0.236924 0.073902
0.170170 0.237501 0.070762
0.236688 0.238447 0.072088
0.303326 0.239826 0.073932
0.378473 0.247457 0.076382
0.458359 0.255859 0.079402
0.542887 0.264980 0.083051
0.629951 0.273921 0.087305
0.714679 0.281130 0.092203
0.792278 0.285676 0.097713
0.859483 0.287453 0.103811
0.917556 0.287798 0.110536
0.962400 0.287750 0.117787
0.992761 0.288075 0.125543
0.088384 0.311626 0.087652
0.097172 0.311611 0.086977
0.130125 0.311862 0.084342
0.180720 0.312365 0.078959
0.247927 0.313190 0.080238
0.315791 0.314347 0.082005
0.383774 0.315848 0.084352
0.462913 0.326220 0.087272
0.546831 0.337356 0.090799
0.633311 0.348067 0.094931
0.717431 0.356122 0.099665
0.794432 0.360327 0.105005
0.861098 0.360396 0.110970
0.918764 0.358276 0.117505
0.963268 0.355396 0.124606
0.993183 0.352738 0.132183
0.109983 0.392382 0.100845
0.117732 0.392374 0.099975
0.146746 0.392598 0.096305
0.193228 0.393061 0.088868
0.260776 0.393744 0.090088
0.329668 0.394717 0.091789
0.398972 0.396044 0.094042
0.468565 0.397668 0.096852
