luts/INTERSTELLAR-CORNFIELD.cube
LUT_3D_SIZE 6
0.000000 0.001933 0.013614
0.254932 0.018548 0.009271
0.448053 0.052994 0.010505
0.610630 0.085997 0.011162
0.746304 0.113585 0.011478
0.872006 0.148633 0.014962
0.000000 0.103527 0.049725
0.162700 0.115226 0.025166
0.430421 0.150018 0.009351
0.635269 0.183602 0.009224
0.777931 0.207951 0.009546
0.891845 0.232515 0.009736
0.000000 0.261713 0.096345
0.112103 0.281659 0.100294
0.408429 0.291747 0.042515
0.651776 0.337812 0.019172
0.805972 0.355211 0.012916
0.909176 0.360624 0.012342
0.014738 0.439932 0.152146
0.112242 0.449190 0.153485
0.427028 0.530380 0.145616
0.658370 0.487380 0.068648
0.827627 0.522069 0.058704
0.926673 0.553716 0.065973
0.045415 0.609509 0.194378
0.152051 0.625897 0.198485
0.452622 0.698349 0.202176
0.705119 0.735881 0.178588
0.841143 0.669988 0.119558
0.940324 0.679860 0.114813
0.067503 0.750949 0.229638
0.180042 0.764146 0.228102
0.414379 0.807338 0.230311
0.642072 0.844020 0.217427
0.845751 0.847338 0.183635
0.947905 0.799684 0.153306
0.000000 0.015600 0.163868
0.270971 0.018730 0.138006
0.465672 0.038749 0.123408
0.607717 0.052874 0.092192
0.726293 0.062879 0.090160
0.850653 0.113965 0.090435
0.000000 0.148885 0.197737
0.134621 0.153629 0.173107
0.410654 0.189326 0.137562
0.637434 0.221677 0.113848
0.783422 0.238719 0.089439
0.895024 0.263990 0.086677
0.003844 0.311543 0.239821
0.074967 0.290099 0.210768
0.401123 0.313211 0.155608
0.659253 0.330960 0.093621
0.814155 0.336079 0.082404
0.911681 0.349945 0.082958
0.026610 0.482378 0.277071
0.097175 0.470286 0.252320
0.363839 0.517167 0.250237
0.657573 0.491378 0.132047
0.841965 0.533988 0.120356
0.936334 0.530990 0.114594
0.055531 0.637416 0.298359
0.135277 0.639789 0.290044
0.376776 0.689155 0.301174
0.684671 0.742093 0.253967
0.856130 0.687681 0.189537
0.953085 0.701785 0.187706
0.071566 0.763216 0.311981
0.143998 0.764920 0.303710
0.361144 0.801834 0.331130
0.619376 0.840322 0.289744
0.836664 0.864894 0.262371
0.954764 0.815136 0.225720
0.000000 0.098081 0.320709
0.172269 0.010483 0.249202
0.456411 0.052533 0.247114
0.616713 0.071863 0.236676
0.734323 0.065907 0.227789
0.845135 0.090727 0.204010
0.001217 0.222562 0.345725
0.070451 0.195007 0.330083
0.404904 0.172712 0.251425
0.622922 0.191654 0.229064
0.756719 0.194497 0.198491
0.876033 0.249402 0.180775
0.010276 0.333849 0.368868
0.072366 0.330277 0.364957
0.331384 0.355467 0.340456
0.611149 0.380516 0.281127
0.798190 0.402566 0.249468
0.907647 0.406941 0.227292
0.034250 0.502933 0.412647
0.102088 0.511155 0.408186
0.245760 0.508226 0.390672
0.629624 0.538115 0.323065
0.841579 0.542656 0.256933
0.933914 0.519209 0.229941
0.062918 0.659852 0.438269
0.132405 0.664323 0.423536
0.270860 0.677659 0.422992
0.625186 0.743244 0.414846
0.856713 0.711809 0.301653
0.957846 0.728077 0.275385
0.078356 0.782145 0.455778
0.146325 0.780317 0.430229
0.293241 0.795804 0.441155
0.577234 0.839030 0.433965
0.817940 0.871239 0.363655
0.957043 0.832512 0.303910
0.005333 0.148269 0.452658
0.159773 0.022690 0.363077
0.367238 0.050424 0.360623
0.615731 0.085151 0.357489
0.744275 0.103747 0.349331
0.858353 0.128025 0.343136
0.010542 0.282588 0.482268
0.072333 0.263138 0.483079
0.295850 0.174128 0.390955
0.623896 0.200774 0.361590
0.768884 0.215983 0.347796
0.866469 0.225996 0.324725
0.018891 0.377089 0.499095
0.084493 0.388155 0.509981
0.229612 0.381133 0.498101
0.603490 0.364073 0.400400
0.781483 0.361081 0.355063
0.884582 0.377033 0.323535
0.035663 0.501597 0.526875
0.108303 0.523522 0.543078
0.221315 0.532580 0.546130
0.570803 0.583177 0.519583
0.814289 0.595408 0.455322
0.929838 0.584808 0.413680
0.071514 0.678954 0.577105
0.141848 0.690313 0.578016
0.227051 0.696452 0.568618
0.511474 0.732690 0.571133
0.836867 0.756411 0.510595
0.958704 0.756924 0.476725
0.084728 0.797733 0.590011
0.152225 0.798159 0.573474
0.242199 0.799050 0.554744
0.519315 0.836833 0.563656
0.796844 0.885739 0.536940
0.959326 0.862279 0.479642
0.015792 0.187393 0.571725
0.166348 0.043488 0.468620
0.340056 0.054051 0.460855
0.547897 0.087182 0.464859
0.745110 0.112034 0.463512
0.866821 0.144846 0.458349
0.020095 0.334094 0.604317
0.082978 0.304898 0.605215
0.253437 0.191693 0.519056
0.495121 0.188238 0.475649
0.770371 0.219283 0.468161
0.884744 0.251396 0.459004
0.029813 0.429706 0.621771
0.096196 0.437742 0.631082
0.204895 0.419746 0.626215
0.474611 0.349179 0.534077
0.785978 0.358225 0.474588
0.897968 0.381916 0.466864
0.043741 0.530589 0.644050
0.114020 0.546162 0.656298
0.196276 0.562435 0.669021
0.460356 0.583528 0.657106
0.797473 0.565384 0.554348
0.908271 0.553873 0.520416
0.072420 0.673587 0.682865
0.145630 0.692021 0.696129
0.222739 0.708178 0.705819
0.414337 0.737973 0.724027
0.794614 0.803373 0.694401
0.953729 0.795120 0.646355
0.095134 0.817222 0.716859
0.163575 0.822479 0.715664
0.230617 0.824464 0.708229
0.372515 0.832239 0.701443
0.742151 0.885316 0.675368
0.959319 0.898349 0.634930
0.019006 0.245514 0.679941
0.188001 0.063691 0.560166
0.352776 0.063750 0.550685
0.502670 0.086472 0.551852
0.720770 0.121477 0.557904
0.870737 0.158884 0.561027
0.028777 0.373374 0.706133
0.088981 0.334893 0.703562
0.258371 0.208803 0.612181
0.461980 0.189985 0.567120
0.726602 0.224718 0.561103
0.885124 0.260653 0.563681
0.041199 0.473628 0.726370
0.104999 0.470263 0.727187
0.194861 0.433117 0.716656
0.434249 0.337590 0.624810
0.719333 0.349288 0.570381
0.898327 0.386178 0.570770
0.054668 0.569581 0.747267
0.121276 0.572943 0.749991
0.189849 0.578513 0.756298
0.387375 0.564632 0.742846
0.712908 0.521861 0.633435
0.915920 0.554827 0.619956
0.074595 0.681504 0.775508
0.142401 0.686425 0.779040
0.213483 0.698049 0.787049
0.356019 0.723033 0.806156
0.725242 0.775238 0.785236
0.943481 0.781141 0.746046
0.095298 0.805482 0.804962
0.164701 0.813940 0.810813
0.234380 0.822479 0.816243
0.356887 0.840037 0.828615
0.494593 0.865321 0.846475
0.949071 0.950519 0.813545
