luts/INTERSTELLAR-MILLER'S_PLANET.cube
LUT_3D_SIZE 6
0.000000 0.000000 0.000000
0.148547 0.006080 0.001305
0.368352 0.020593 0.006667
0.623554 0.042357 0.017487
0.856385 0.071233 0.035036
0.991852 0.106630 0.060606
0.032755 0.103643 0.004281
0.154982 0.105285 0.005529
0.371282 0.124801 0.010849
0.625456 0.151452 0.021698
0.857297 0.170406 0.039337
0.992154 0.182319 0.065081
0.087391 0.311299 0.022237
0.192652 0.312108 0.023492
0.383425 0.315525 0.028896
0.633193 0.354449 0.039991
0.860987 0.368862 0.058105
0.993189 0.357509 0.083757
0.155537 0.568450 0.059908
0.244592 0.568934 0.061231
0.437578 0.571235 0.066955
0.648447 0.575727 0.078372
0.868405 0.586398 0.095456
0.994966 0.557558 0.117737
0.227675 0.804683 0.116972
0.294305 0.804857 0.118082
0.467218 0.805996 0.122718
0.670119 0.808216 0.131937
0.879749 0.811530 0.146163
0.997569 0.765602 0.165211
0.303657 0.969692 0.182748
0.347082 0.969807 0.183645
0.481090 0.970436 0.187537
0.656380 0.971560 0.195297
0.845025 0.973660 0.207483
0.999902 0.976470 0.224306
0.008616 0.002764 0.054232
0.149194 0.007529 0.055529
0.368638 0.021560 0.072420
0.623684 0.043129 0.096711
0.856506 0.071895 0.114322
0.991855 0.107174 0.125335
0.034643 0.104231 0.058672
0.155667 0.105885 0.059999
0.371490 0.112718 0.065664
0.625577 0.125879 0.077137
0.857407 0.145211 0.094349
0.992158 0.169936 0.116802
0.088384 0.311626 0.087652
0.180720 0.312365 0.078959
0.383774 0.315848 0.084352
0.633311 0.348067 0.094931
0.861098 0.360396 0.110970
0.993183 0.352738 0.132183
0.156193 0.568603 0.130545
0.223627 0.569131 0.113612
0.431509 0.571381 0.118319
0.648619 0.575879 0.127674
0.868476 0.583773 0.142079
0.994964 0.555901 0.161402
0.228120 0.804809 0.173813
0.279946 0.805018 0.161727
0.461037 0.806095 0.165797
0.667987 0.808230 0.174023
0.879776 0.811594 0.186771
0.997621 0.765416 0.204083
0.304010 0.969764 0.221685
0.345830 0.969858 0.221043
0.480530 0.970425 0.224679
0.656298 0.971713 0.231927
0.845159 0.973718 0.243250
0.999908 0.976535 0.258938
0.022683 0.009319 0.239075
0.167642 0.012895 0.239961
0.369863 0.025549 0.243362
0.624544 0.046360 0.284643
0.856969 0.074680 0.301139
0.992026 0.109537 0.289701
0.042061 0.119829 0.241847
0.158348 0.108233 0.242594
0.372777 0.114991 0.246114
0.626384 0.127998 0.279773
0.857784 0.147124 0.293542
0.992222 0.171650 0.285749
0.092550 0.312791 0.253450
0.183078 0.313636 0.254269
0.384994 0.317005 0.257609
0.634037 0.323869 0.264419
0.861427 0.334738 0.275184
0.993243 0.349699 0.290137
0.158881 0.569388 0.305820
0.225571 0.569959 0.300344
0.408820 0.572139 0.280297
0.649426 0.576702 0.286862
0.868765 0.576689 0.297264
0.995033 0.556880 0.311713
0.230033 0.805167 0.335320
0.281561 0.805377 0.329452
0.444708 0.806414 0.315038
0.662753 0.808614 0.321289
0.880168 0.812050 0.331227
0.997562 0.767263 0.344964
0.305501 0.969893 0.349025
0.347185 0.970007 0.348725
0.491846 0.970627 0.361575
0.662781 0.971862 0.367501
0.848344 0.973943 0.376862
0.999937 0.976743 0.390021
0.040054 0.019033 0.491559
0.191287 0.021916 0.492115
0.409403 0.033083 0.494563
0.626147 0.052728 0.499583
0.857639 0.080286 0.519327
0.992204 0.114186 0.489939
0.054889 0.140312 0.493483
0.163729 0.112942 0.494039
0.404186 0.119506 0.496489
0.627917 0.132208 0.501450
0.858460 0.150966 0.517066
0.992409 0.175136 0.488300
0.100716 0.348522 0.501704
0.187787 0.342263 0.502248
0.387475 0.319396 0.504700
0.635658 0.326219 0.509621
0.862250 0.336978 0.512783
0.993496 0.351907 0.491645
0.164209 0.570962 0.518133
0.229446 0.571489 0.518680
0.411168 0.573712 0.521025
0.650903 0.578160 0.525764
0.869560 0.585354 0.533346
0.995298 0.595178 0.543751
0.233863 0.805881 0.542928
0.284768 0.806155 0.540692
0.446871 0.807185 0.535871
0.674354 0.809401 0.550748
0.880835 0.812747 0.557875
0.997791 0.785263 0.567828
0.308457 0.970368 0.528386
0.349832 0.970483 0.528283
0.493841 0.971185 0.535884
0.705175 0.972403 0.583962
0.866992 0.974299 0.590716
0.999988 0.977093 0.600079
0.060125 0.031700 0.745440
0.202980 0.034150 0.745847
0.422573 0.044097 0.747069
0.641736 0.062470 0.749649
0.858846 0.089041 0.753688
0.992587 0.121368 0.707652
0.071987 0.150482 0.746514
0.171944 0.120170 0.746899
0.413807 0.126503 0.748097
0.639459 0.138762 0.750678
0.859748 0.156997 0.754825
0.992826 0.180591 0.707142
0.112963 0.359450 0.750845
0.195030 0.350408 0.751056
0.391296 0.323053 0.752345
0.634854 0.329878 0.754915
0.863370 0.340565 0.758844
0.993771 0.355394 0.709999
0.172449 0.580145 0.759202
0.235560 0.577523 0.759507
0.414812 0.570543 0.760808
0.653358 0.580625 0.763238
0.870715 0.587708 0.767155
0.995548 0.597485 0.735296
0.239856 0.807118 0.772417
0.289802 0.807225 0.772569
0.450362 0.808362 0.773796
0.676563 0.810425 0.776098
0.881999 0.813925 0.779945
0.997903 0.818627 0.785087
0.313231 0.971012 0.733881
0.354105 0.971126 0.734012
0.497053 0.971729 0.737678
0.707255 0.973000 0.760115
0.896934 0.975029 0.796862
1.000033 0.977475 0.801861
0.082525 0.047181 0.928558
0.200900 0.049352 0.928623
0.403807 0.058340 0.929371
0.610280 0.075505 0.930815
0.814955 0.100716 0.933185
0.993061 0.131117 0.936503
0.092401 0.148636 0.928982
0.183009 0.129981 0.929211
0.397921 0.135993 0.929878
0.608067 0.147682 0.931368
0.814556 0.165207 0.933735
0.993233 0.188197 0.937066
0.128746 0.341370 0.931397
0.204885 0.335134 0.931575
0.396775 0.328309 0.932304
0.609216 0.335060 0.933672
0.816766 0.345660 0.936136
0.994164 0.360324 0.939473
0.183336 0.547676 0.936367
0.243868 0.545483 0.936502
0.420027 0.545171 0.937247
0.656706 0.584040 0.938728
0.838765 0.591065 0.941041
0.995884 0.600810 0.944302
0.247904 0.758864 0.944086
0.296645 0.758488 0.944323
0.455120 0.760252 0.944889
0.679742 0.778911 0.946460
0.883529 0.815526 0.948586
0.998239 0.820229 0.951832
0.319797 0.971935 0.954855
0.360086 0.972132 0.955053
0.501554 0.972701 0.955698
0.710316 0.973991 0.957116
0.898463 0.976041 0.959362
1.000033 0.977475 0.960942
