luts/INTERSTELLAR-CORNFIELD.cube
LUT_3D_SIZE 16
0.000000 0.001933 0.013614
0.050692 0.001933 0.010109
0.166724 0.006082 0.010528
0.254932 0.018548 0.009271
0.324878 0.029199 0.009743
0.387998 0.041385 0.010161
0.448053 0.052994 0.010505
0.504994 0.064329 0.010758
0.560320 0.075941 0.010957
0.610630 0.085997 0.011162
0.657506 0.095179 0.011313
0.702884 0.104602 0.011404
0.746304 0.113585 0.011478
0.790291 0.124744 0.011716
0.831797 0.135606 0.012329
0.872006 0.148633 0.014962
0.000000 0.015713 0.020817
0.019626 0.016218 0.015087
0.114918 0.022701 0.009743
0.218320 0.037901 0.009293
0.299675 0.049657 0.009224
0.371590 0.063620 0.009224
0.439544 0.077781 0.009259
0.503678 0.091680 0.009541
0.565081 0.105604 0.009922
0.620223 0.117647 0.010226
0.669404 0.127753 0.010446
0.715815 0.137284 0.010602
0.759462 0.146259 0.010669
0.802790 0.155809 0.010610
0.843922 0.164982 0.010558
0.879573 0.174542 0.011635
0.000000 0.053247 0.034031
0.012644 0.057656 0.036615
0.080340 0.057596 0.020031
0.187932 0.070949 0.011273
0.280691 0.081572 0.009362
0.360835 0.093491 0.009225
0.434517 0.106777 0.009224
0.503197 0.120175 0.009224
0.568845 0.134111 0.009248
0.626506 0.146129 0.009485
0.677673 0.156472 0.009779
0.724310 0.165838 0.009976
0.768291 0.174769 0.010058
0.810770 0.184216 0.010036
0.852024 0.193354 0.009965
0.885363 0.200977 0.010056
0.000000 0.103527 0.049725
0.011555 0.105531 0.052159
0.063506 0.118136 0.048577
0.162700 0.115226 0.025166
0.261393 0.124772 0.014516
0.348286 0.140010 0.010672
0.430421 0.150018 0.009351
0.504620 0.160440 0.009224
0.574576 0.172701 0.009224
0.635269 0.183602 0.009224
0.687966 0.192571 0.009247
0.734607 0.200237 0.009395
0.777931 0.207951 0.009546
0.819566 0.216533 0.009552
0.860346 0.225395 0.009536
0.891845 0.232515 0.009736
0.000000 0.156058 0.065495
0.011658 0.154958 0.065543
0.050462 0.165607 0.068721
0.146163 0.185701 0.055466
0.244718 0.174930 0.031674
0.337275 0.182927 0.019687
0.422775 0.199702 0.014099
0.503320 0.211703 0.010361
0.579979 0.221689 0.009280
0.644278 0.229767 0.009224
0.698721 0.236902 0.009224
0.745688 0.243072 0.009224
0.788050 0.248644 0.009224
0.828751 0.255632 0.009278
0.868651 0.263636 0.009315
0.897843 0.269309 0.009374
0.000000 0.208153 0.079841
0.013853 0.205330 0.078940
0.046919 0.212688 0.082978
0.125205 0.233521 0.078827
0.241184 0.250482 0.061295
0.325986 0.233115 0.036899
0.416328 0.240326 0.024256
0.499247 0.256742 0.017809
0.579708 0.274749 0.013465
0.649554 0.285302 0.010672
0.707100 0.289814 0.009539
0.755420 0.292526 0.009246
0.798012 0.295957 0.009264
0.837499 0.300536 0.009321
0.876193 0.306757 0.009398
0.903999 0.311515 0.009490
0.000000 0.261713 0.096345
0.018821 0.257454 0.094385
0.050735 0.263534 0.097894
0.112103 0.281659 0.100294
0.225241 0.307407 0.086561
0.331655 0.310309 0.066736
0.408429 0.291747 0.042515
0.495674 0.299132 0.029846
0.580008 0.317373 0.022502
0.651776 0.337812 0.019172
0.712686 0.349943 0.016233
0.763057 0.354089 0.014217
0.805972 0.355211 0.012916
0.845007 0.356034 0.012339
0.881741 0.359054 0.012438
0.909176 0.360624 0.012342
0.000594 0.317363 0.114097
0.026009 0.312933 0.111600
0.057117 0.317473 0.113423
0.105288 0.332165 0.118515
0.208675 0.358294 0.111889
0.327817 0.384384 0.099463
0.418846 0.370700 0.073411
0.490912 0.351714 0.048740
0.579510 0.361145 0.034927
0.653972 0.378503 0.029058
0.716659 0.398252 0.026907
0.768551 0.413792 0.026922
0.812696 0.420958 0.026010
0.851712 0.422373 0.024473
0.886993 0.422503 0.023344
0.914226 0.420879 0.022047
0.005895 0.377263 0.132778
0.034395 0.372490 0.130129
0.065809 0.375717 0.130248
0.103091 0.387458 0.135312
0.191298 0.412739 0.137556
0.316523 0.441847 0.123547
0.429207 0.463096 0.114935
0.503994 0.435161 0.082855
0.577476 0.417923 0.056256
0.656294 0.426654 0.043926
0.721155 0.441103 0.038778
0.774821 0.459412 0.039449
0.820428 0.476707 0.042292
0.860150 0.486982 0.043784
0.894114 0.491482 0.043700
0.920114 0.490561 0.041602
0.014738 0.439932 0.152146
0.044773 0.435264 0.149616
0.077465 0.438853 0.148933
0.112242 0.449190 0.153485
0.181914 0.472618 0.161991
0.312428 0.503142 0.150637
0.427028 0.530380 0.145616
0.527129 0.541430 0.132327
0.590951 0.501362 0.092848
0.658370 0.487380 0.068648
0.726574 0.495127 0.058883
0.781492 0.507347 0.056733
0.827627 0.522069 0.058704
0.867506 0.535963 0.061737
0.900836 0.547556 0.064970
0.926673 0.553716 0.065973
0.025964 0.502118 0.170775
0.057081 0.500066 0.170547
0.091293 0.502957 0.168615
0.126402 0.512990 0.172099
0.189781 0.535054 0.181931
0.318597 0.564912 0.174452
0.433577 0.591160 0.168332
0.531696 0.613468 0.164853
0.619210 0.609524 0.143686
0.670450 0.567713 0.106989
0.730736 0.557600 0.087525
0.787434 0.561580 0.079546
0.833828 0.569178 0.077274
0.873528 0.578207 0.077670
0.906348 0.589376 0.080657
0.931868 0.598976 0.083122
0.036297 0.558580 0.184402
0.068113 0.559749 0.187014
0.104512 0.563100 0.185378
0.139927 0.572268 0.187192
0.205182 0.594807 0.197075
0.333448 0.624889 0.192862
0.444754 0.648632 0.187638
0.537684 0.670237 0.185544
0.628616 0.685137 0.176488
0.693895 0.663226 0.150530
0.738644 0.627301 0.120547
0.791180 0.618232 0.104943
0.838765 0.619005 0.097850
0.879306 0.623397 0.095682
0.911633 0.631273 0.097126
0.936525 0.639958 0.099891
0.045415 0.609509 0.194378
0.076879 0.612700 0.198639
0.116112 0.617662 0.198241
0.152051 0.625897 0.198485
0.220005 0.648329 0.207427
0.346325 0.677002 0.205365
0.452622 0.698349 0.202176
0.541974 0.717385 0.199373
0.626316 0.733508 0.193721
0.705119 0.735881 0.178588
0.754290 0.705883 0.154390
0.794259 0.676985 0.131624
0.841143 0.669988 0.119558
0.883392 0.669728 0.113976
0.915619 0.673790 0.113438
0.940324 0.679860 0.114813
0.053386 0.656543 0.204741
0.082808 0.659802 0.205814
0.124705 0.664986 0.205865
0.161475 0.673466 0.205955
0.228562 0.694162 0.214367
0.348248 0.719759 0.214871
0.449961 0.738697 0.211924
0.536375 0.755412 0.208618
0.620528 0.772655 0.204891
0.694681 0.781158 0.195457
0.761078 0.773558 0.178671
0.804649 0.744591 0.158057
0.841597 0.721257 0.140566
0.884966 0.716017 0.131786
0.918812 0.716948 0.129115
0.943127 0.720073 0.128925
0.059876 0.699893 0.214387
0.087308 0.702102 0.212013
0.131252 0.707293 0.210544
0.168622 0.715434 0.211625
0.228761 0.732900 0.220893
0.338147 0.756163 0.222826
0.436503 0.772963 0.220000
0.520212 0.787476 0.216432
0.603333 0.803497 0.212571
0.678362 0.816575 0.207652
0.750621 0.821113 0.195189
0.807491 0.806093 0.178683
0.849396 0.780152 0.160736
0.884133 0.761038 0.147675
0.920572 0.758327 0.142682
0.945635 0.759120 0.141017
0.067503 0.750949 0.229638
0.091016 0.751866 0.225720
0.137774 0.756940 0.225620
0.180042 0.764146 0.228102
0.240011 0.778208 0.234234
0.330278 0.794736 0.233974
0.414379 0.807338 0.230311
0.489657 0.817948 0.226163
0.567632 0.830830 0.221410
0.642072 0.844020 0.217427
0.711897 0.855393 0.212503
0.783059 0.859488 0.200285
0.845751 0.847338 0.183635
0.887097 0.821092 0.168095
0.920040 0.802989 0.157780
0.947905 0.799684 0.153306
0.000000 0.001933 0.060630
0.049530 0.001933 0.053885
0.174934 0.004414 0.048804
0.267182 0.012413 0.038485
0.336270 0.021250 0.036381
0.395390 0.031600 0.035603
0.451517 0.043276 0.035056
0.505757 0.054131 0.034626
0.558676 0.065097 0.034391
0.608092 0.075184 0.034227
0.654580 0.084313 0.034219
0.699154 0.093073 0.034489
0.741324 0.101058 0.034956
0.785474 0.115907 0.036404
0.827470 0.133335 0.038826
0.869571 0.152760 0.042253
0.000000 0.017757 0.066199
0.017140 0.025020 0.069992
0.110967 0.032720 0.051834
0.213433 0.050748 0.047709
0.300149 0.062259 0.038905
0.374990 0.075510 0.035173
0.443491 0.089208 0.034660
0.507887 0.102320 0.034439
0.568932 0.114630 0.034236
0.622777 0.124982 0.034138
0.671524 0.134458 0.034123
0.717165 0.143810 0.034320
0.760442 0.153662 0.034886
0.803665 0.164977 0.035817
0.843950 0.175224 0.036805
0.880543 0.185384 0.038497
0.000000 0.062109 0.079151
0.011659 0.062796 0.075795
0.084244 0.069060 0.060546
0.196478 0.079951 0.047884
0.288505 0.088267 0.037480
0.367891 0.100582 0.034319
0.441129 0.114420 0.033210
0.510001 0.128800 0.032916
0.575385 0.143292 0.032893
0.632508 0.155184 0.032941
0.682753 0.164771 0.032883
0.728728 0.173390 0.032883
0.771625 0.182373 0.033149
0.813779 0.192464 0.033677
0.854154 0.202473 0.034296
0.886634 0.211615 0.036177
0.000000 0.115668 0.092583
0.011017 0.112106 0.086055
0.058874 0.123120 0.085735
0.171520 0.124195 0.057028
0.271360 0.133512 0.039903
0.359139 0.141857 0.034133
0.438997 0.150373 0.032398
0.512000 0.161825 0.031918
0.580581 0.174574 0.031723
0.640635 0.185551 0.031643
0.692736 0.194707 0.031815
0.739047 0.202818 0.031953
0.781884 0.211088 0.032069
0.822699 0.220698 0.032398
0.862759 0.229805 0.032559
0.892383 0.237443 0.033937
0.000000 0.169941 0.105645
0.011047 0.162772 0.097223
0.045942 0.169223 0.103063
0.144305 0.188597 0.088072
0.252109 0.181378 0.055612
0.345811 0.190176 0.042375
0.431249 0.202249 0.035682
0.511487 0.209755 0.031902
0.586478 0.218033 0.031309
0.649418 0.225927 0.031240
0.703142 0.233220 0.031201
0.749619 0.239448 0.031307
0.791944 0.246200 0.031480
0.832251 0.254124 0.031568
0.870897 0.262891 0.031957
0.897785 0.267560 0.032675
0.000000 0.221807 0.117331
0.011355 0.213986 0.108962
0.043465 0.216556 0.114126
0.119387 0.235348 0.110923
0.240209 0.252617 0.085884
0.332691 0.237062 0.058499
0.423269 0.244315 0.045119
0.506095 0.259388 0.038230
0.586950 0.271233 0.033242
0.655979 0.276844 0.031391
0.712172 0.280580 0.031104
0.759774 0.283803 0.031084
0.801925 0.288202 0.031143
0.841399 0.294587 0.031237
0.878787 0.301981 0.031317
0.903903 0.304514 0.031951
0.000085 0.275881 0.132093
0.014482 0.268617 0.125109
0.048040 0.269004 0.129334
0.105441 0.283428 0.130648
0.221485 0.308341 0.115359
0.332131 0.313435 0.089816
0.413725 0.293247 0.062696
0.501443 0.300556 0.049229
0.585687 0.319454 0.041869
0.657742 0.335084 0.037657
0.718611 0.340484 0.034094
0.768545 0.340869 0.032462
0.811065 0.341183 0.031916
0.850507 0.344612 0.031901
0.885781 0.350141 0.032211
0.910297 0.349191 0.032422
0.001796 0.332478 0.148717
0.019807 0.325101 0.142537
0.055503 0.323942 0.145058
0.100376 0.334378 0.147124
0.199705 0.358922 0.142526
0.322290 0.383063 0.121925
0.418834 0.371540 0.094656
0.494703 0.351539 0.067867
0.584471 0.361066 0.053326
0.659250 0.380185 0.047679
0.722673 0.397865 0.044859
0.774788 0.406624 0.043074
0.818741 0.408570 0.041481
0.858066 0.409131 0.040475
0.891949 0.411150 0.040240
0.916148 0.404549 0.038340
0.008537 0.392450 0.165839
0.027819 0.386119 0.161187
0.064941 0.383559 0.162360
0.102419 0.390940 0.162955
0.180154 0.412491 0.166204
0.307147 0.439298 0.149030
0.421319 0.460595 0.136748
0.503524 0.435522 0.103659
0.580905 0.416301 0.074033
0.661015 0.425096 0.060871
0.726674 0.441699 0.056350
0.781059 0.461566 0.057774
0.826753 0.475665 0.059703
0.866676 0.481757 0.059698
0.899385 0.484479 0.059309
0.923216 0.476371 0.054896
0.018529 0.455188 0.183676
0.038621 0.450284 0.180965
0.077294 0.447314 0.181588
0.112746 0.453205 0.180924
0.170691 0.471316 0.188122
0.295341 0.499655 0.179696
0.416221 0.526272 0.167167
0.519812 0.540128 0.154636
0.590907 0.500966 0.112720
0.662111 0.485687 0.085795
0.731755 0.494524 0.076026
0.787844 0.509411 0.074891
0.834744 0.526263 0.078081
0.875030 0.540419 0.081450
0.907393 0.551031 0.084754
0.931245 0.549968 0.082305
0.030070 0.515815 0.199805
0.050841 0.512924 0.199340
0.091344 0.511837 0.201281
0.127021 0.516816 0.199600
0.178032 0.532685 0.206695
0.293600 0.560184 0.204757
0.418737 0.586843 0.190735
0.520859 0.610147 0.187126
0.615550 0.610917 0.166507
0.671553 0.567593 0.126563
0.735413 0.558158 0.105952
0.793845 0.563573 0.098133
0.841089 0.573582 0.097324
0.881486 0.585065 0.099377
0.913370 0.597808 0.103444
0.937920 0.605385 0.105081
0.040089 0.569993 0.212265
0.061566 0.568984 0.212180
0.103576 0.571239 0.217625
0.140696 0.575949 0.215186
0.190553 0.591389 0.221677
0.302948 0.619476 0.222726
0.425831 0.644649 0.211232
0.525487 0.667109 0.208237
0.620802 0.684725 0.200036
0.694232 0.667770 0.174257
0.742066 0.629988 0.141646
0.797513 0.621848 0.125533
0.846143 0.624226 0.119219
0.887379 0.630288 0.117955
0.918494 0.640242 0.121104
0.942718 0.648248 0.123259
0.049340 0.620041 0.224659
0.071004 0.619570 0.222212
0.114026 0.624442 0.229873
0.152225 0.629085 0.227389
0.202351 0.644017 0.232449
0.313367 0.671349 0.233341
0.430410 0.694393 0.226196
0.527351 0.714528 0.222839
0.618481 0.733374 0.217732
0.701978 0.739201 0.203091
0.756840 0.711343 0.178165
0.799465 0.681643 0.154147
0.848076 0.675237 0.141731
0.890825 0.676872 0.137543
0.921657 0.681859 0.137629
0.945925 0.688236 0.139230
0.056660 0.665092 0.234503
0.078386 0.664810 0.230927
0.121854 0.670237 0.236503
0.161069 0.675451 0.234630
0.210764 0.689359 0.238509
0.317927 0.714912 0.239737
0.427119 0.735258 0.236358
0.519594 0.752547 0.232550
0.610338 0.771443 0.228519
0.688529 0.782012 0.219785
0.761234 0.778242 0.202880
0.808372 0.749110 0.181107
0.847658 0.726350 0.163321
0.891955 0.722258 0.155079
0.923974 0.723430 0.152729
0.948337 0.727205 0.152976
0.062464 0.706598 0.242964
0.084524 0.706453 0.238973
0.127300 0.710562 0.239515
0.167908 0.716441 0.237838
0.218680 0.730300 0.242588
0.318222 0.753148 0.246671
0.418296 0.771050 0.244488
0.505355 0.785560 0.240601
0.592664 0.802150 0.236216
0.672221 0.817597 0.231954
0.745198 0.822500 0.219355
0.809683 0.811522 0.202723
0.854130 0.784983 0.183991
0.890052 0.766010 0.170646
0.925119 0.763911 0.166157
0.949627 0.765188 0.164974
0.069108 0.755392 0.256755
0.091301 0.754860 0.251660
0.124411 0.758179 0.250695
0.177009 0.764914 0.256335
0.229697 0.775566 0.258001
0.312288 0.791594 0.258039
0.402307 0.805269 0.254039
0.479504 0.816298 0.250002
0.559173 0.829194 0.245216
0.634158 0.842907 0.241539
0.705943 0.856550 0.238070
0.774915 0.860563 0.225897
0.844202 0.854624 0.209453
0.888712 0.827930 0.192453
0.922529 0.808497 0.181744
0.950602 0.804873 0.177418
0.000000 0.002534 0.112245
0.041843 0.001933 0.100381
0.176877 0.005251 0.098321
0.278523 0.015948 0.093070
0.347138 0.023515 0.084566
0.404883 0.030618 0.070496
0.458910 0.036856 0.065764
0.510311 0.042788 0.063914
0.558489 0.047987 0.063127
0.602889 0.052631 0.062468
0.644475 0.057447 0.062091
0.685551 0.064984 0.062071
0.727489 0.074039 0.062531
0.775250 0.095554 0.063550
0.819242 0.116122 0.064426
0.861527 0.136276 0.064597
0.000000 0.037047 0.120915
0.012804 0.035904 0.118325
0.106902 0.031621 0.095586
0.224423 0.042549 0.085431
0.306392 0.049353 0.072009
0.377601 0.064630 0.063550
0.443700 0.078634 0.060990
0.506362 0.091661 0.060111
0.565709 0.103105 0.059420
0.618666 0.113448 0.058856
0.666797 0.123768 0.058482
0.711900 0.134024 0.058383
0.755215 0.146983 0.059386
0.799582 0.164543 0.061854
0.840772 0.179455 0.064038
0.879219 0.191665 0.064975
0.000000 0.074948 0.129947
0.011119 0.071754 0.125666
0.067809 0.086075 0.121695
0.185254 0.092814 0.097539
0.269939 0.109317 0.092361
0.356044 0.124333 0.085499
0.435005 0.136253 0.077832
0.507565 0.146918 0.068312
0.575893 0.159019 0.062495
0.634534 0.169635 0.060992
0.685039 0.178569 0.060515
0.730221 0.186145 0.060165
0.772600 0.194522 0.060249
0.814038 0.205223 0.061227
0.853920 0.215213 0.061954
0.888018 0.223783 0.062497
0.000000 0.132637 0.147953
0.010889 0.125008 0.138801
0.043600 0.128658 0.134441
0.163293 0.140095 0.111734
0.262369 0.149191 0.098912
0.352407 0.157731 0.088024
0.434945 0.166124 0.076749
0.510436 0.176050 0.067071
0.581496 0.188245 0.062498
0.643357 0.199525 0.060259
0.696106 0.208622 0.059362
0.742272 0.216182 0.058825
0.783956 0.223716 0.058467
0.824680 0.233435 0.059235
0.863426 0.243388 0.060057
0.893515 0.249691 0.060512
0.000000 0.189198 0.162174
0.011026 0.179113 0.149918
0.036041 0.175820 0.143089
0.128261 0.192508 0.137274
0.249816 0.193704 0.106083
0.346207 0.201505 0.081606
0.432931 0.206716 0.070417
0.513079 0.212267 0.063729
0.587583 0.221905 0.060838
0.651130 0.231243 0.058997
0.705395 0.239004 0.057908
0.751822 0.245515 0.057084
0.793829 0.251576 0.056054
0.833777 0.260862 0.057113
0.871976 0.270475 0.058009
0.898917 0.275539 0.058680
0.000000 0.241709 0.173599
0.012859 0.231385 0.160532
0.034819 0.225578 0.151703
0.103876 0.236008 0.155025
0.226824 0.256670 0.136606
0.332016 0.246055 0.095595
0.424501 0.253297 0.074557
0.507828 0.263605 0.066466
0.589800 0.268896 0.060053
0.658547 0.273955 0.057707
0.714560 0.278408 0.056354
0.761872 0.282409 0.055119
0.803647 0.287636 0.055006
0.843059 0.294945 0.055302
0.880389 0.303864 0.056682
0.904681 0.306590 0.057654
0.000795 0.294796 0.185723
0.017081 0.285706 0.173689
0.037914 0.278533 0.163706
0.092204 0.284138 0.170285
0.200575 0.307303 0.162471
0.322779 0.319165 0.128476
0.413000 0.299387 0.090679
0.501874 0.305926 0.073976
0.586845 0.322640 0.065940
0.660527 0.331968 0.059994
0.721664 0.333016 0.056031
0.771501 0.332684 0.054541
0.813554 0.333884 0.053950
0.852956 0.338759 0.054374
0.888025 0.346251 0.055396
0.910782 0.344686 0.056150
0.005493 0.350436 0.199112
0.022556 0.341905 0.187786
0.044037 0.334527 0.178107
0.090098 0.336850 0.184261
0.176372 0.357208 0.184379
0.305480 0.381531 0.162779
0.412968 0.378354 0.124103
0.492971 0.355198 0.091922
0.584339 0.363576 0.074921
0.660767 0.382728 0.068519
0.725523 0.396064 0.064212
0.778656 0.398060 0.060454
0.822269 0.396597 0.058542
0.861876 0.397766 0.058356
0.895475 0.402018 0.059301
0.917517 0.393839 0.058407
0.012346 0.408568 0.212566
0.030410 0.402029 0.203354
0.052370 0.395301 0.194664
0.098097 0.395955 0.199586
0.161652 0.411325 0.202822
0.284986 0.436786 0.190658
0.407163 0.458296 0.163067
0.498744 0.441426 0.130061
0.579058 0.417460 0.095401
0.661197 0.425821 0.080638
0.728690 0.443722 0.075824
0.784530 0.461735 0.076212
0.830635 0.470288 0.075977
0.871038 0.473256 0.075294
0.903349 0.476510 0.075738
0.925339 0.461354 0.070240
0.022167 0.468676 0.226919
0.041785 0.465260 0.220035
0.064372 0.459929 0.213172
0.111348 0.460376 0.218011
0.162016 0.472367 0.220682
0.270529 0.497079 0.218136
0.399146 0.522270 0.194730
0.507038 0.539723 0.179555
0.587978 0.506030 0.137506
0.661070 0.486010 0.106063
0.733213 0.495215 0.095130
0.791383 0.511728 0.094097
0.838948 0.529725 0.097892
0.880199 0.542790 0.101000
0.912215 0.551458 0.103552
0.934389 0.541390 0.096935
0.033309 0.526797 0.238628
0.054083 0.525238 0.233512
0.077987 0.522765 0.230799
0.126909 0.524260 0.236186
0.172014 0.534218 0.237506
0.268820 0.557772 0.239680
0.397330 0.582657 0.221406
0.506639 0.606401 0.210103
0.607645 0.614305 0.192223
0.669910 0.571381 0.149837
0.736523 0.559434 0.125959
0.797263 0.565590 0.117721
0.845607 0.577302 0.117574
0.887491 0.591204 0.121108
0.918598 0.605012 0.126370
0.941656 0.606938 0.124834
0.043335 0.579629 0.245862
0.064382 0.578435 0.241483
0.089640 0.578952 0.243565
0.140673 0.582871 0.250898
0.184798 0.592704 0.252001
0.277219 0.616666 0.256241
0.402703 0.641260 0.242913
0.511222 0.663980 0.231545
0.609869 0.683684 0.224376
0.691648 0.674159 0.200428
0.742954 0.634545 0.164952
0.800942 0.626206 0.147663
0.851073 0.629297 0.141362
0.893696 0.637438 0.141345
0.923778 0.648673 0.145426
0.947379 0.654443 0.145931
0.052161 0.627991 0.254736
0.073727 0.627504 0.251042
0.099227 0.629056 0.252420
0.152117 0.635621 0.263058
0.196451 0.644935 0.263701
0.286574 0.668210 0.267115
0.406924 0.691533 0.257180
0.512487 0.712110 0.246801
0.609552 0.732655 0.241754
0.694933 0.740989 0.228049
0.757711 0.718391 0.203583
0.802410 0.687082 0.177837
0.853106 0.681267 0.165107
0.897076 0.683823 0.161177
0.926674 0.689563 0.161796
0.950116 0.695129 0.162853
0.058891 0.671623 0.263103
0.080689 0.671166 0.259321
0.106435 0.672870 0.258371
0.160656 0.680451 0.269807
0.205569 0.690232 0.270647
0.292019 0.711875 0.272845
0.405633 0.732960 0.265011
0.505663 0.750722 0.256695
0.600618 0.770117 0.251973
0.682021 0.782981 0.244263
0.759683 0.783486 0.227841
0.810319 0.755372 0.205702
0.852118 0.732155 0.186939
0.897479 0.728708 0.179025
0.928788 0.730484 0.176898
0.952012 0.734499 0.177470
0.064314 0.712102 0.270948
0.086429 0.711739 0.266902
0.112214 0.712841 0.263317
0.167404 0.720667 0.273248
0.213902 0.730567 0.273517
0.299676 0.750916 0.275419
0.403367 0.769554 0.269741
0.493472 0.784239 0.264792
0.583711 0.801057 0.259867
0.665915 0.817567 0.255644
0.739790 0.823677 0.243661
0.809835 0.816856 0.226985
0.856817 0.790547 0.208113
0.894715 0.771533 0.194402
0.928788 0.769865 0.190073
0.952901 0.771564 0.189456
0.070419 0.759301 0.283531
0.092586 0.758587 0.278509
0.115982 0.759388 0.275501
0.164012 0.765792 0.285472
0.221801 0.775483 0.297271
0.291511 0.788882 0.294057
0.385023 0.803480 0.282928
0.467364 0.814998 0.275656
0.549409 0.827759 0.269662
0.627280 0.841608 0.265117
0.700851 0.855850 0.261558
0.768079 0.860979 0.251126
0.840681 0.860567 0.236158
0.889812 0.834725 0.217308
0.925153 0.813557 0.205488
0.952893 0.809997 0.201373
0.000000 0.015600 0.163868
0.030610 0.002087 0.142804
0.129138 0.002978 0.137988
0.270971 0.018730 0.138006
0.346969 0.027734 0.133446
0.409739 0.033477 0.129192
0.465672 0.038749 0.123408
0.516962 0.044351 0.112842
0.563735 0.048950 0.097956
0.607717 0.052874 0.092192
0.648695 0.056313 0.090227
0.688004 0.059468 0.089940
0.726293 0.062879 0.090160
0.765180 0.070398 0.090938
0.803349 0.081681 0.091559
0.850653 0.113965 0.090435
0.000000 0.066607 0.177427
0.011437 0.051343 0.167471
0.075098 0.034326 0.143650
0.221312 0.045834 0.132843
0.312613 0.055503 0.127618
0.384286 0.059186 0.120777
0.447960 0.062081 0.106906
0.505080 0.068067 0.093797
0.559090 0.074673 0.088466
0.607340 0.081759 0.086803
0.654401 0.094837 0.086058
0.701179 0.110218 0.085490
0.745974 0.127514 0.085277
0.791382 0.147249 0.086148
0.832613 0.163008 0.087113
0.872621 0.181229 0.088549
0.000000 0.104936 0.186167
0.010947 0.095156 0.177994
0.048023 0.094770 0.172153
0.176572 0.090708 0.141511
0.279686 0.096847 0.126622
0.356023 0.106171 0.117118
0.430268 0.124415 0.110901
0.501421 0.139914 0.104212
0.570695 0.153034 0.093938
0.629954 0.163094 0.087883
0.680686 0.171839 0.085598
0.725841 0.180361 0.084689
0.767865 0.190796 0.084969
0.809992 0.205228 0.086530
0.850338 0.219369 0.088316
0.887072 0.230410 0.088410
0.000000 0.148885 0.197737
0.010953 0.137486 0.188166
0.037648 0.136155 0.184744
0.134621 0.153629 0.173107
0.253390 0.158960 0.147464
0.326445 0.172667 0.142541
0.410654 0.189326 0.137562
0.491575 0.201652 0.130146
0.569986 0.212417 0.121234
0.637434 0.221677 0.113848
0.694269 0.227897 0.103793
0.741720 0.232871 0.094015
0.783422 0.238719 0.089439
0.823990 0.248048 0.088095
0.862406 0.257959 0.087430
0.895024 0.263990 0.086677
0.000000 0.207703 0.216618
0.012277 0.197232 0.206561
0.032841 0.191046 0.199003
0.095637 0.197553 0.190834
0.233397 0.209654 0.164579
0.324441 0.217519 0.153949
0.409379 0.227305 0.145627
0.492764 0.235754 0.134854
0.574736 0.244359 0.122837
0.645192 0.251991 0.112097
0.703847 0.257743 0.099296
0.751946 0.262808 0.091239
0.794245 0.268499 0.087001
0.834133 0.277553 0.085925
0.872488 0.286909 0.086063
0.900606 0.291256 0.085364
0.000492 0.259571 0.228765
0.016320 0.251199 0.219264
0.035136 0.242987 0.208862
0.080243 0.239479 0.200663
0.198095 0.259368 0.190067
0.317159 0.260472 0.161346
0.410584 0.269768 0.144357
0.495863 0.276158 0.131839
0.581490 0.278940 0.115881
0.654080 0.283562 0.102150
0.713422 0.288619 0.092922
0.762042 0.292887 0.087907
0.804182 0.298300 0.084703
0.843617 0.305946 0.083983
0.881189 0.315610 0.084833
0.906089 0.317852 0.084081
0.003844 0.311543 0.239821
0.021212 0.304604 0.230866
0.039621 0.296117 0.219576
0.074967 0.290099 0.210768
0.170849 0.305082 0.210722
0.297468 0.324708 0.193075
0.401123 0.313211 0.155608
0.493748 0.319593 0.123081
0.582156 0.330151 0.105959
0.659253 0.330960 0.093621
0.721813 0.331119 0.087157
0.771957 0.332653 0.083967
0.814155 0.336079 0.082404
0.853155 0.341962 0.082478
0.888972 0.351029 0.083454
0.911681 0.349945 0.082958
0.009450 0.365726 0.251592
0.027527 0.360466 0.243525
0.045891 0.352331 0.231990
0.075911 0.344849 0.221689
0.150085 0.354561 0.228201
0.271895 0.378157 0.218830
0.394467 0.389656 0.189840
0.484522 0.366261 0.141262
