luts/JOJO_RABBIT.cube
LUT_3D_SIZE 6
0.000000 0.000000 0.000000
0.183074 0.004043 0.000599
0.420730 0.005580 0.001519
0.632277 0.008563 0.002302
0.814611 0.013479 0.003078
0.903169 0.378651 0.357500
0.087580 0.178417 0.002462
0.309357 0.215277 0.002354
0.546224 0.272346 0.006240
0.745930 0.298640 0.009340
0.912450 0.283023 0.015948
0.917014 0.433043 0.379914
0.276528 0.433988 0.001153
0.433920 0.460346 0.002480
0.610048 0.491018 0.002620
0.734514 0.520586 0.005657
0.928248 0.498048 0.008088
0.939757 0.548400 0.431642
0.399120 0.625848 0.003463
0.510585 0.672923 0.006104
0.655435 0.686963 0.008018
0.769173 0.689460 0.009283
0.891095 0.682124 0.009046
0.953916 0.683994 0.495956
0.448864 0.750017 0.015526
0.534754 0.796431 0.023576
0.661306 0.813564 0.040381
0.788269 0.813817 0.063505
0.869472 0.808799 0.085698
0.956726 0.807149 0.588510
0.762159 0.888038 0.608835
0.778497 0.889122 0.613125
0.821926 0.890691 0.625815
0.881350 0.890243 0.649701
0.924585 0.891198 0.690301
0.953186 0.898551 0.750266
0.004485 0.048918 0.099851
0.207143 0.062061 0.134959
0.462442 0.063478 0.158727
0.661934 0.060128 0.176919
0.808778 0.059831 0.190008
0.896658 0.377552 0.384538
0.051019 0.189457 0.178626
0.227905 0.194985 0.127762
0.495659 0.233649 0.151494
0.714411 0.116422 0.060122
0.871236 0.146123 0.097304
0.911500 0.432006 0.405218
0.195593 0.423882 0.225257
0.326463 0.417182 0.148644
0.503104 0.414306 0.098809
0.724606 0.479610 0.023755
0.940071 0.461411 0.020295
0.936269 0.547960 0.454752
0.320184 0.626100 0.231300
0.394885 0.616589 0.029647
0.614507 0.660185 0.010089
0.751080 0.664640 0.006330
0.897746 0.671507 0.008152
0.952678 0.684209 0.517012
0.391064 0.758074 0.204231
0.453294 0.761666 0.034739
0.633788 0.812672 0.036972
0.781312 0.815148 0.062378
0.869962 0.808867 0.086049
0.956759 0.807816 0.604606
0.760036 0.887667 0.621361
0.776763 0.888984 0.625619
0.820666 0.891010 0.637829
0.881235 0.891220 0.661067
0.925190 0.892349 0.700966
0.953978 0.899636 0.759204
0.000000 0.044108 0.180321
0.140931 0.045394 0.270600
0.378988 0.042352 0.296613
0.579756 0.038447 0.318919
0.729038 0.038750 0.338193
0.876838 0.374701 0.442328
0.002545 0.171762 0.314272
0.121087 0.181120 0.333999
0.404275 0.188816 0.327565
0.633045 0.087758 0.331327
0.783426 0.099180 0.342446
0.892903 0.428150 0.460897
0.078988 0.384179 0.422146
0.206730 0.377048 0.384143
0.398252 0.349388 0.319777
0.633193 0.387621 0.338773
0.865147 0.331919 0.303212
0.923074 0.545341 0.507926
0.237800 0.591269 0.443809
0.247976 0.578426 0.400714
0.496373 0.587496 0.361844
0.640666 0.573571 0.325499
0.873681 0.616881 0.258640
0.947484 0.684308 0.569476
0.321366 0.735938 0.423759
0.336038 0.743781 0.383766
0.501939 0.782430 0.242072
0.737462 0.806807 0.264749
0.859558 0.798138 0.253058
0.956383 0.809400 0.647509
0.753402 0.886418 0.655062
0.770554 0.888051 0.658635
0.816255 0.891144 0.669925
0.880026 0.893304 0.691348
0.926395 0.895930 0.729900
0.955348 0.903383 0.783816
0.000000 0.032589 0.265633
0.089721 0.033695 0.357075
0.312921 0.025116 0.381512
0.505485 0.025280 0.402075
0.629760 0.026416 0.417657
0.839466 0.370903 0.506588
0.000000 0.169509 0.389423
0.011617 0.128827 0.429210
0.331372 0.101809 0.442805
0.535758 0.058573 0.426114
0.666157 0.070940 0.437738
0.857209 0.421807 0.523943
0.003839 0.359224 0.527022
0.009068 0.345839 0.524608
0.316812 0.367698 0.504118
0.587143 0.380930 0.487716
0.782727 0.292964 0.478780
0.893005 0.538176 0.570334
0.108280 0.548442 0.586231
0.109230 0.532687 0.569301
0.426143 0.577264 0.546202
0.615523 0.574586 0.515615
0.816599 0.583425 0.503698
0.930310 0.681527 0.636902
0.247157 0.693108 0.572806
0.254138 0.698621 0.565170
0.412707 0.747736 0.551652
0.666829 0.777996 0.546104
0.825837 0.774303 0.539875
0.952192 0.811177 0.710953
0.738032 0.881308 0.706866
0.756171 0.883938 0.709910
0.805101 0.889829 0.719219
0.876062 0.895585 0.738644
0.927581 0.901293 0.775358
0.957706 0.909974 0.821894
0.000000 0.024023 0.326690
0.036407 0.030536 0.413011
0.221901 0.018901 0.445574
0.399075 0.011701 0.468732
0.570453 0.017274 0.489929
0.793673 0.373862 0.574484
0.000000 0.161183 0.454494
0.002271 0.142018 0.482654
0.150413 0.132601 0.517924
0.409288 0.091820 0.523006
0.599217 0.066091 0.519784
0.810610 0.420083 0.590020
0.000000 0.330969 0.566715
0.000000 0.326834 0.574075
0.042195 0.319329 0.592750
0.396763 0.322593 0.603303
0.685941 0.262584 0.580602
0.849325 0.531349 0.632262
0.005514 0.498237 0.664546
0.003723 0.488429 0.662275
0.098392 0.526570 0.690644
0.496209 0.561959 0.658187
0.767970 0.553956 0.624901
0.897634 0.676456 0.699023
0.103348 0.638885 0.685011
0.102930 0.640098 0.686373
0.240043 0.682180 0.693371
0.587878 0.755014 0.691742
0.809810 0.783065 0.695264
0.938117 0.812540 0.775546
0.675349 0.864565 0.766723
0.695738 0.868580 0.769711
0.753541 0.879288 0.777832
0.840736 0.893010 0.793363
0.924462 0.907555 0.827652
0.959992 0.919413 0.865018
0.002016 0.155221 0.490457
0.010797 0.167844 0.509637
0.083102 0.202256 0.549818
0.279020 0.263208 0.593919
0.526622 0.340388 0.633220
0.740609 0.386424 0.649231
0.001010 0.236052 0.528862
0.003988 0.246901 0.546396
0.053768 0.277575 0.589224
0.264508 0.333780 0.631417
0.538192 0.397324 0.657651
0.757129 0.428632 0.663944
0.005660 0.393138 0.642591
0.018217 0.403756 0.654688
0.104963 0.433319 0.681919
0.317784 0.480589 0.708265
0.580400 0.527029 0.715643
0.799881 0.534106 0.702502
0.133144 0.575664 0.751290
0.175362 0.585378 0.756650
0.288602 0.611482 0.769366
0.457796 0.653588 0.786324
0.670814 0.688163 0.786920
0.860005 0.676826 0.760650
0.348255 0.729504 0.808254
0.376923 0.737608 0.812181
0.457065 0.759765 0.822467
0.591687 0.794486 0.836956
0.765385 0.829588 0.846494
0.917052 0.815664 0.829861
0.508709 0.827341 0.835802
0.532357 0.833033 0.839037
0.600136 0.848337 0.847421
0.714864 0.871947 0.859729
0.852441 0.899142 0.875262
0.959330 0.931001 0.904122
