luts/JOJO_RABBIT.cube
LUT_3D_SIZE 16
0.000000 0.000000 0.000000
0.060100 0.001206 0.000000
0.117913 0.002799 0.000249
0.183074 0.004043 0.000599
0.258702 0.004965 0.000782
0.340439 0.005397 0.001082
0.420730 0.005580 0.001519
0.495680 0.006046 0.001853
0.566389 0.007078 0.002156
0.632277 0.008563 0.002302
0.695100 0.010196 0.002451
0.755553 0.011805 0.002678
0.814611 0.013479 0.003078
0.895091 0.219506 0.167308
0.888824 0.294307 0.277745
0.903169 0.378651 0.357500
0.019729 0.048516 0.000970
0.087046 0.056442 0.001516
0.153388 0.063845 0.001971
0.231031 0.074415 0.002828
0.316092 0.084581 0.003930
0.402025 0.091712 0.005017
0.483516 0.097456 0.006178
0.556958 0.102368 0.007448
0.623953 0.106477 0.008776
0.685804 0.109249 0.010152
0.743918 0.110625 0.011546
0.798676 0.107831 0.013197
0.851514 0.104743 0.015971
0.903188 0.244215 0.171226
0.892897 0.309037 0.282667
0.906069 0.388964 0.361693
0.045270 0.104528 0.002385
0.118354 0.116126 0.002235
0.190376 0.128083 0.002344
0.272857 0.144241 0.003192
0.361101 0.162604 0.004530
0.445844 0.175894 0.005845
0.525184 0.186003 0.006942
0.597700 0.193764 0.008032
0.664665 0.201206 0.009304
0.725240 0.206574 0.010710
0.781844 0.208766 0.012266
0.834883 0.202650 0.014544
0.884713 0.193793 0.018599
0.912775 0.278342 0.177357
0.899634 0.334001 0.291582
0.910450 0.406500 0.368790
0.087580 0.178417 0.002462
0.162926 0.190900 0.002285
0.230367 0.199154 0.001962
0.309357 0.215277 0.002354
0.395624 0.239333 0.003570
0.474817 0.259500 0.005083
0.546224 0.272346 0.006240
0.615384 0.281882 0.007189
0.682849 0.290818 0.008184
0.745930 0.298640 0.009340
0.804842 0.302508 0.010652
0.860383 0.295406 0.012568
0.912450 0.283023 0.015948
0.923785 0.325355 0.187188
0.909301 0.370220 0.304385
0.917014 0.433043 0.379914
0.145913 0.262510 0.001689
0.218243 0.276477 0.002213
0.278164 0.281259 0.001935
0.348027 0.290063 0.001770
0.428228 0.312722 0.002387
0.500680 0.336500 0.003584
0.560180 0.352680 0.005006
0.618310 0.362443 0.006103
0.681723 0.370909 0.006922
0.746407 0.378996 0.007759
0.810154 0.383764 0.008892
0.872120 0.377127 0.010809
0.929283 0.363801 0.013758
0.936642 0.382711 0.199753
0.920410 0.414082 0.319051
0.924755 0.466507 0.394596
0.212465 0.350340 0.001082
0.279158 0.367670 0.001958
0.332316 0.371621 0.002133
0.391116 0.373193 0.002016
0.461642 0.386404 0.001932
0.530064 0.407561 0.002379
0.583093 0.425823 0.003498
0.627134 0.436960 0.004868
0.677866 0.444575 0.005744
0.737280 0.451571 0.006116
0.802390 0.455821 0.006565
0.870534 0.448379 0.008203
0.934145 0.434588 0.011515
0.947165 0.440089 0.206054
0.931220 0.462172 0.334742
0.932485 0.505603 0.412291
0.276528 0.433988 0.001153
0.335230 0.453227 0.001695
0.383271 0.459800 0.002163
0.433920 0.460346 0.002480
0.492859 0.463783 0.002427
0.556038 0.475753 0.002277
0.610048 0.491018 0.002620
0.650239 0.504123 0.003816
0.687365 0.513180 0.005086
0.734514 0.520586 0.005657
0.793597 0.524673 0.005472
0.862123 0.515350 0.005683
0.928248 0.498048 0.008088
0.953838 0.496190 0.198966
0.940189 0.512131 0.349662
0.939757 0.548400 0.431642
0.329981 0.507894 0.001587
0.379168 0.528248 0.001675
0.422953 0.538564 0.002285
0.470296 0.543004 0.003091
0.521920 0.544581 0.003369
0.577981 0.548215 0.003159
0.631257 0.555423 0.002846
0.673797 0.564342 0.003090
0.707656 0.574192 0.004154
0.742993 0.583436 0.005393
0.789510 0.589326 0.005889
0.850160 0.581306 0.005278
0.917161 0.560242 0.005532
0.957086 0.550935 0.166078
0.947127 0.562841 0.362746
0.945864 0.593143 0.452300
0.370847 0.572325 0.002155
0.411529 0.593232 0.002031
0.451014 0.606720 0.002777
0.495794 0.614948 0.004012
0.544840 0.619701 0.004699
0.596465 0.622295 0.004685
0.647094 0.624406 0.004211
0.690980 0.626440 0.003680
0.725644 0.630136 0.003804
0.755129 0.636666 0.004904
0.790105 0.644081 0.006266
0.839551 0.643141 0.006627
0.904568 0.623330 0.005694
0.956369 0.608717 0.134357
0.951574 0.613723 0.371241
0.950501 0.638591 0.473702
0.399120 0.625848 0.003463
0.433844 0.647383 0.003390
0.469192 0.662447 0.004357
0.510585 0.672923 0.006104
0.556638 0.680133 0.007369
0.606277 0.684437 0.007905
0.655435 0.686963 0.008018
0.700648 0.687640 0.008004
0.738900 0.687624 0.008233
0.769173 0.689460 0.009283
0.797327 0.693635 0.010711
0.833741 0.695253 0.010801
0.891095 0.682124 0.009046
0.952476 0.663367 0.041684
0.954238 0.663996 0.373153
0.953916 0.683994 0.495956
0.419302 0.671330 0.006312
0.449686 0.693380 0.006537
0.481550 0.709638 0.007892
0.519883 0.721182 0.010405
0.563090 0.729973 0.012878
0.610168 0.736031 0.014867
0.658508 0.739958 0.016774
0.704673 0.742128 0.018941
0.746448 0.742194 0.021614
0.780291 0.741898 0.024793
0.807873 0.742106 0.027601
0.835101 0.741061 0.026683
0.877754 0.731145 0.019553
0.938556 0.718299 0.029915
0.956085 0.712554 0.365318
0.955917 0.728056 0.520619
0.435404 0.712507 0.010527
0.462503 0.734104 0.011352
0.491765 0.750745 0.013288
0.527464 0.762719 0.016756
0.568245 0.771708 0.020772
0.612539 0.778208 0.024825
0.659343 0.783622 0.029336
0.705051 0.786118 0.034429
0.748426 0.787016 0.040405
0.785741 0.786475 0.047075
0.815990 0.785074 0.053223
0.841281 0.783938 0.057109
0.870192 0.772619 0.046467
0.920082 0.763195 0.038727
0.955503 0.757563 0.338185
0.957062 0.769676 0.550369
0.448864 0.750017 0.015526
0.473457 0.769691 0.016927
0.501077 0.785290 0.019338
0.534754 0.796431 0.023576
0.573569 0.804077 0.028719
0.616098 0.809459 0.034207
0.661306 0.813564 0.040381
0.706135 0.815143 0.047029
0.749484 0.815385 0.054903
0.788269 0.813817 0.063505
0.820342 0.811915 0.072349
0.846458 0.810411 0.080136
0.869472 0.808799 0.085698
0.903074 0.798108 0.078867
0.949350 0.796001 0.271442
0.956726 0.807149 0.588510
0.460689 0.784807 0.020601
0.483629 0.802759 0.022562
0.509908 0.816921 0.025423
0.542047 0.826902 0.030307
0.579155 0.833699 0.036511
0.620018 0.837752 0.043234
0.663508 0.840402 0.050590
0.707101 0.840691 0.058459
0.749937 0.839378 0.067287
0.789401 0.836403 0.077029
0.822995 0.832237 0.086858
0.850041 0.828422 0.096063
0.872158 0.826185 0.106479
0.894045 0.826490 0.126765
0.932265 0.823273 0.220797
0.955301 0.840341 0.636249
0.543211 0.851767 0.233708
0.553054 0.855207 0.232632
0.568924 0.859519 0.227450
0.590037 0.862548 0.216580
0.618716 0.866321 0.215681
0.651595 0.869037 0.217416
0.688230 0.870347 0.218557
0.726157 0.869909 0.217302
0.764133 0.867340 0.211719
0.799782 0.863019 0.196297
0.828383 0.855245 0.137737
0.853158 0.847878 0.112426
0.875035 0.842878 0.125114
0.893282 0.841105 0.151421
0.912969 0.843217 0.204516
0.953701 0.870301 0.691206
0.762159 0.888038 0.608835
0.764944 0.888150 0.609644
0.770298 0.888515 0.610885
0.778497 0.889122 0.613125
0.790100 0.889641 0.616273
0.804702 0.890217 0.620521
0.821926 0.890691 0.625815
0.841320 0.890815 0.632447
0.861574 0.890778 0.640429
0.881350 0.890243 0.649701
0.898866 0.889947 0.660904
0.914553 0.889990 0.675120
0.924585 0.891198 0.690301
0.933638 0.892763 0.707070
0.943090 0.895185 0.725445
0.953186 0.898551 0.750266
0.006025 0.023838 0.028657
0.074705 0.028233 0.035391
0.140670 0.031771 0.038170
0.207919 0.035162 0.040496
0.281862 0.038648 0.044130
0.362045 0.041209 0.047992
0.440621 0.042676 0.051409
0.514615 0.043650 0.054713
0.583954 0.044192 0.057277
0.648713 0.044927 0.059997
0.710262 0.045448 0.062400
0.767210 0.046482 0.065144
0.821519 0.048456 0.068379
0.890498 0.215130 0.187514
0.886909 0.293340 0.286556
0.902126 0.378455 0.362585
0.020835 0.066080 0.041354
0.076225 0.060156 0.033581
0.143228 0.069228 0.036300
0.225193 0.078977 0.039163
0.309282 0.075739 0.036106
0.381841 0.044137 0.019278
0.447321 0.019568 0.007365
0.517108 0.018932 0.007289
0.584166 0.020046 0.007795
0.647615 0.021388 0.008214
0.708247 0.022741 0.008681
0.766886 0.023781 0.009251
0.828808 0.045646 0.025367
0.897268 0.231408 0.181739
0.890336 0.303032 0.286327
0.904848 0.388712 0.366609
0.046089 0.123783 0.051578
0.097238 0.112776 0.038786
0.163851 0.121642 0.037258
0.251902 0.140415 0.038135
0.349229 0.155610 0.034054
0.441601 0.155473 0.018571
0.521533 0.153173 0.009422
0.591922 0.155625 0.008267
0.656369 0.159858 0.009617
0.715611 0.162770 0.011068
0.771517 0.163081 0.012638
0.823873 0.157217 0.014809
0.874916 0.161391 0.031262
0.907636 0.266739 0.186605
0.897040 0.327984 0.294548
0.909481 0.406404 0.373709
0.085810 0.196361 0.061046
0.130316 0.183086 0.040934
0.200743 0.190691 0.036433
0.275350 0.201556 0.032639
0.372000 0.225174 0.025280
0.465665 0.243656 0.012645
0.544518 0.254542 0.007384
0.616896 0.263148 0.007459
0.684831 0.271328 0.008541
0.747346 0.277799 0.009765
0.805024 0.280078 0.011172
0.859215 0.271550 0.013291
0.908936 0.263178 0.025224
0.918669 0.313872 0.195310
0.907441 0.365809 0.308173
0.916149 0.432874 0.384687
0.137447 0.276527 0.067026
0.162469 0.258888 0.026757
0.244740 0.269149 0.023004
0.315234 0.273595 0.017699
0.395977 0.291171 0.014852
0.484305 0.319296 0.007452
0.553620 0.338691 0.005315
0.616914 0.349942 0.006261
0.683446 0.358938 0.007139
0.749452 0.367128 0.008075
0.812943 0.371399 0.009304
0.874045 0.363738 0.011250
0.929624 0.350658 0.016383
0.932601 0.373277 0.206842
0.919037 0.412394 0.325486
0.923853 0.466448 0.399198
0.193745 0.357556 0.070426
0.208261 0.339837 0.008696
0.296885 0.355584 0.006177
0.362679 0.356324 0.004815
0.436150 0.366830 0.003762
0.509932 0.388415 0.003511
0.572174 0.412116 0.003529
0.621296 0.426373 0.004950
0.675618 0.435454 0.005837
0.737694 0.443021 0.006240
0.804376 0.447738 0.006826
0.872936 0.440087 0.008624
0.935985 0.426137 0.012011
0.943680 0.433982 0.218650
0.930083 0.461690 0.342352
0.931838 0.505460 0.416613
0.252758 0.440300 0.072081
0.272134 0.426131 0.007005
0.352040 0.445500 0.001961
0.411140 0.447263 0.002386
0.473275 0.449184 0.002370
0.539936 0.460974 0.002201
0.597621 0.477384 0.002555
0.642498 0.494256 0.003786
0.682542 0.505196 0.005091
0.732235 0.513491 0.005655
0.793309 0.518163 0.005481
0.863392 0.509381 0.005848
0.932341 0.492880 0.008559
0.951763 0.492779 0.219216
0.939676 0.512075 0.357261
0.939085 0.548365 0.435962
0.304596 0.514686 0.072233
0.327177 0.502989 0.007422
0.396565 0.525520 0.001869
0.451598 0.532659 0.002772
0.506390 0.534120 0.003234
0.564970 0.537320 0.003042
0.621150 0.544792 0.002740
0.665553 0.554227 0.003051
0.701989 0.566666 0.004154
0.739418 0.577553 0.005392
0.788849 0.585274 0.005873
0.853533 0.577924 0.005241
0.921737 0.556907 0.005692
0.956394 0.549180 0.193866
0.946671 0.562972 0.370172
0.945271 0.593167 0.456377
0.346617 0.579811 0.071296
0.369359 0.569678 0.007775
0.428443 0.594598 0.002259
0.479956 0.606461 0.003519
0.532119 0.612005 0.004416
0.586076 0.614520 0.004512
0.639111 0.617070 0.004066
0.685146 0.619929 0.003535
0.721573 0.624772 0.003663
0.753749 0.634174 0.004851
0.791073 0.643446 0.006288
0.842438 0.641818 0.006568
0.908118 0.621167 0.005663
0.956689 0.606726 0.151340
0.951434 0.613707 0.378734
0.950036 0.638567 0.477604
0.377519 0.633878 0.069155
0.399519 0.626855 0.008868
0.450633 0.653651 0.003687
0.498026 0.668500 0.005542
0.547509 0.677530 0.007096
0.599800 0.682579 0.007795
0.651294 0.686065 0.007948
0.698619 0.687244 0.007977
0.738046 0.687347 0.008204
0.769109 0.689224 0.009283
0.797840 0.693798 0.010731
0.835127 0.694950 0.010750
0.893539 0.681114 0.008969
0.953511 0.663199 0.074823
0.954151 0.663971 0.380699
0.953749 0.684091 0.499671
0.400616 0.679416 0.066200
0.420870 0.675126 0.011387
0.466028 0.703232 0.007172
0.509374 0.719544 0.009801
0.555552 0.729620 0.012612
0.604839 0.736417 0.014822
0.655093 0.740665 0.016806
0.702707 0.742808 0.019026
0.745436 0.742810 0.021737
0.780154 0.742518 0.024948
0.808138 0.742453 0.027725
0.835678 0.741059 0.026623
0.879059 0.730720 0.019411
0.940573 0.717737 0.032936
0.956179 0.712623 0.373673
0.956019 0.728074 0.524155
0.419219 0.720757 0.063776
0.436723 0.716028 0.015096
0.477366 0.743880 0.012296
0.517391 0.760613 0.015873
0.560823 0.770999 0.020219
0.607105 0.778354 0.024498
0.655404 0.783797 0.029149
0.702693 0.786573 0.034339
0.746982 0.787375 0.040422
0.785043 0.786932 0.047182
0.815992 0.785391 0.053371
0.841358 0.784144 0.057235
0.870745 0.772670 0.046357
0.921252 0.762865 0.038648
0.955521 0.757500 0.345558
0.957015 0.769677 0.553544
0.434820 0.758340 0.061636
0.450094 0.753211 0.019507
0.487227 0.778634 0.018084
0.525056 0.794292 0.022399
0.566296 0.803398 0.027888
0.610636 0.809463 0.033630
0.657244 0.813624 0.039927
0.703303 0.815442 0.046730
0.747654 0.815615 0.054692
0.787188 0.814085 0.063394
0.819838 0.812184 0.072338
0.846431 0.810580 0.080216
0.869565 0.808832 0.085782
0.903518 0.798069 0.078926
0.949602 0.796323 0.286625
0.956818 0.807237 0.591414
0.448526 0.792610 0.060250
0.461871 0.787625 0.024065
0.496610 0.810832 0.023945
0.532706 0.824972 0.028873
0.572026 0.833111 0.035409
0.614523 0.837873 0.042469
0.659389 0.840637 0.049969
0.704184 0.841145 0.058032
0.747779 0.839845 0.066984
0.788177 0.836672 0.076832
0.822394 0.832654 0.086787
0.849926 0.828690 0.096071
0.872083 0.826393 0.106538
0.894140 0.826482 0.126920
0.932597 0.823447 0.226977
0.955471 0.840599 0.638766
0.538650 0.852564 0.250897
0.548076 0.854439 0.247473
0.565135 0.859499 0.243704
0.587200 0.863391 0.235546
0.615162 0.866312 0.222022
0.648464 0.868957 0.221513
0.685795 0.870612 0.223023
0.724293 0.870415 0.222443
0.762931 0.867951 0.217848
0.799154 0.863472 0.204604
0.829220 0.856487 0.156475
0.852944 0.848012 0.112320
0.874923 0.842895 0.125051
0.893199 0.841162 0.151381
0.912926 0.843368 0.204773
0.953889 0.870386 0.693051
0.761766 0.887948 0.611065
0.764721 0.888250 0.611847
0.769828 0.888486 0.613174
0.778309 0.889122 0.615340
0.789620 0.889683 0.618433
0.804373 0.890271 0.622666
0.821730 0.890739 0.627923
0.841074 0.890910 0.634517
0.861387 0.890725 0.642391
0.881286 0.890350 0.651705
0.898935 0.890033 0.662843
0.914532 0.890335 0.676976
0.924780 0.891291 0.692140
0.933747 0.893025 0.708898
0.943224 0.895449 0.727125
0.953304 0.898715 0.751819
0.008550 0.045985 0.067007
0.074957 0.051898 0.076646
0.147617 0.057627 0.081984
0.228252 0.062574 0.086118
0.317129 0.066835 0.092651
0.399880 0.069177 0.098920
0.474606 0.070183 0.104479
0.541826 0.069953 0.109275
0.604073 0.069389 0.113938
0.663359 0.068724 0.117596
0.720353 0.067904 0.120980
0.773488 0.067645 0.124971
0.822945 0.068842 0.129942
0.880516 0.203748 0.217387
0.883190 0.291876 0.301832
0.900111 0.378095 0.371241
0.022342 0.089475 0.086900
0.083463 0.088354 0.078679
0.155757 0.096071 0.080025
0.244536 0.107595 0.087908
0.338523 0.108745 0.094361
0.420193 0.086970 0.091841
0.482207 0.066170 0.086922
0.543284 0.060908 0.087115
0.605321 0.060483 0.089354
0.665679 0.060246 0.091779
0.724050 0.059917 0.094172
0.777796 0.060463 0.097366
0.833983 0.080459 0.110294
0.886875 0.219078 0.212668
0.886555 0.301060 0.301375
0.902940 0.388428 0.375167
0.044655 0.142366 0.103947
0.098342 0.133357 0.086098
0.159234 0.133721 0.078016
0.234467 0.145107 0.079595
0.329710 0.162334 0.087337
0.430166 0.169660 0.091575
0.518299 0.154741 0.081626
0.569738 0.093531 0.045723
0.612098 0.044544 0.019055
0.670616 0.041998 0.017804
0.728742 0.042536 0.018465
0.784459 0.042478 0.019437
0.849849 0.091892 0.055783
0.896862 0.245397 0.204442
0.892307 0.317916 0.301102
0.907687 0.405877 0.382006
0.078950 0.207170 0.119336
0.126085 0.199654 0.099775
0.179135 0.188130 0.081895
0.245468 0.194867 0.076776
0.336243 0.216738 0.080271
0.437683 0.239807 0.086406
0.533820 0.248998 0.078513
0.617325 0.236655 0.039638
0.684380 0.223657 0.013658
0.743466 0.223280 0.010763
0.798820 0.222015 0.012368
0.850271 0.212584 0.014853
0.899185 0.222753 0.050238
0.908958 0.293367 0.210009
0.903001 0.355230 0.312858
0.914361 0.432597 0.392854
0.121551 0.277425 0.131843
0.148820 0.270528 0.107448
0.214848 0.262060 0.088922
0.277996 0.263398 0.076534
0.348066 0.271906 0.069934
0.441806 0.299773 0.070743
0.533899 0.323872 0.063708
0.614753 0.330219 0.026410
0.688283 0.335384 0.009789
0.755413 0.342050 0.008717
0.818017 0.344540 0.010065
0.876774 0.334748 0.012138
0.927608 0.327980 0.041621
0.924858 0.355536 0.219813
0.915792 0.403535 0.329789
0.922270 0.466190 0.407020
0.173411 0.357513 0.141368
0.179566 0.346213 0.106730
0.254345 0.345338 0.084977
0.322879 0.346992 0.069974
0.386779 0.347074 0.054892
0.456411 0.358439 0.049977
0.541511 0.387570 0.038942
0.610474 0.407761 0.016960
0.673576 0.418241 0.006554
0.740174 0.426863 0.006599
0.808838 0.431487 0.007407
0.877565 0.423368 0.009440
0.938333 0.409751 0.020861
0.939035 0.420741 0.229380
0.928039 0.456491 0.349399
0.930561 0.505340 0.424190
0.227720 0.439629 0.147591
0.233257 0.429956 0.108279
0.284041 0.423142 0.047628
0.371411 0.434231 0.040212
0.436695 0.432191 0.028735
0.503858 0.437864 0.020468
0.568003 0.452919 0.016897
0.627354 0.476463 0.008441
0.674346 0.490733 0.005113
0.728617 0.500531 0.005676
0.793325 0.506108 0.005564
0.865793 0.497698 0.006204
0.935482 0.481680 0.009321
0.948494 0.483512 0.234518
0.938590 0.510704 0.368435
0.938269 0.548266 0.443355
0.277029 0.514009 0.150000
0.286026 0.507157 0.109855
0.322190 0.493459 0.018531
0.413159 0.514927 0.008414
0.477181 0.517140 0.007116
0.540371 0.518571 0.005258
0.601895 0.526068 0.003861
0.650039 0.536358 0.003482
0.692014 0.553322 0.004148
0.732699 0.566318 0.005408
0.785381 0.575387 0.005798
0.852946 0.569207 0.005192
0.925339 0.548894 0.005979
0.953949 0.543677 0.226743
0.946105 0.562889 0.383001
0.944560 0.593144 0.463550
0.318736 0.579810 0.150068
0.329757 0.574906 0.109523
0.366041 0.563592 0.016935
0.446059 0.589358 0.002619
0.507426 0.598065 0.003964
0.566068 0.600504 0.004256
0.623373 0.602711 0.003861
0.672550 0.605852 0.003346
0.711005 0.611126 0.003437
0.746501 0.623581 0.004604
0.786604 0.635642 0.006114
0.842506 0.636512 0.006392
0.912755 0.616378 0.005568
0.957026 0.602949 0.179237
0.951236 0.613980 0.392049
0.949763 0.638625 0.484469
0.351252 0.634734 0.146375
0.363610 0.633041 0.107265
0.397987 0.623877 0.017662
0.468446 0.652962 0.004120
0.526003 0.666123 0.006113
0.582796 0.672490 0.007046
0.638039 0.676080 0.007160
0.688276 0.677651 0.006999
0.730047 0.678041 0.007001
0.762930 0.681033 0.007936
0.795270 0.689378 0.009983
0.836230 0.693008 0.010481
0.897806 0.678938 0.008802
0.955019 0.662080 0.117685
0.954192 0.663997 0.394444
0.953372 0.684091 0.506333
0.376630 0.681173 0.140223
0.389103 0.682097 0.103102
0.421103 0.676103 0.019711
0.483884 0.707627 0.007940
0.537571 0.722990 0.011250
0.591291 0.731714 0.013811
0.645384 0.737131 0.015874
0.696105 0.740036 0.018098
0.741597 0.740740 0.020878
0.777975 0.740658 0.024163
0.807289 0.741160 0.027210
0.836312 0.740781 0.026420
0.881518 0.730055 0.019152
0.943871 0.716067 0.036104
0.956142 0.712701 0.388548
0.955865 0.728306 0.530460
0.397414 0.723333 0.133711
0.408933 0.723546 0.098101
0.438523 0.720968 0.023013
0.495435 0.753128 0.013948
0.545632 0.768690 0.018887
0.596165 0.777515 0.023706
0.647690 0.783872 0.028637
0.697624 0.787074 0.034015
0.744137 0.788140 0.040297
0.783746 0.787526 0.047265
0.815614 0.785815 0.053622
0.841599 0.784372 0.057454
0.871636 0.772399 0.046163
0.923405 0.762453 0.039471
0.955824 0.757198 0.359249
0.956914 0.769913 0.559308
0.415051 0.761010 0.126119
0.425494 0.761048 0.092809
0.451882 0.758034 0.026589
0.504375 0.787499 0.020116
0.551646 0.801590 0.026154
0.599913 0.808894 0.032507
0.649416 0.813773 0.039088
0.697942 0.815969 0.046168
0.744251 0.816148 0.054312
0.785346 0.814700 0.063202
0.819177 0.812590 0.072334
0.846233 0.810757 0.080325
0.869928 0.808844 0.085946
0.904518 0.798013 0.079009
0.950145 0.796438 0.307636
0.956602 0.807572 0.596439
0.430673 0.796048 0.118762
0.440242 0.795525 0.088056
0.463648 0.792019 0.030264
0.512833 0.818876 0.026179
0.557908 0.831569 0.033215
0.603916 0.837722 0.040927
0.651299 0.840817 0.048820
0.698375 0.841746 0.057213
0.743747 0.840439 0.066358
0.785675 0.837440 0.076494
0.821098 0.832994 0.086646
0.849342 0.829045 0.096112
0.872105 0.826664 0.106634
0.894189 0.826433 0.127253
0.933189 0.823623 0.235231
0.955529 0.840753 0.643102
0.530085 0.852432 0.281092
0.539519 0.854716 0.278880
0.556395 0.857748 0.272272
0.580514 0.863446 0.266910
0.610056 0.867675 0.254070
0.642492 0.869509 0.234155
0.680478 0.870945 0.228927
0.720469 0.871138 0.229210
0.760245 0.868969 0.225952
0.797794 0.864614 0.215451
0.829252 0.857751 0.177571
0.852185 0.848634 0.113920
0.874478 0.843237 0.124946
0.893254 0.841140 0.151376
0.913192 0.843489 0.205335
0.954084 0.870658 0.696598
0.761157 0.887894 0.615070
0.764126 0.888191 0.615772
0.769365 0.888463 0.617100
0.777759 0.889108 0.619293
0.789218 0.889635 0.622294
0.803950 0.890395 0.626485
0.821228 0.890753 0.631749
0.840838 0.891174 0.638207
0.861344 0.891090 0.646116
0.881350 0.890724 0.655255
0.899097 0.890302 0.666459
0.914680 0.890662 0.680423
0.924728 0.891618 0.695453
0.933874 0.893501 0.712312
0.943233 0.895892 0.730228
0.953492 0.899083 0.754567
0.004485 0.048918 0.099851
0.059092 0.054449 0.119984
0.128094 0.058902 0.129464
0.207143 0.062061 0.134959
0.293385 0.063886 0.143401
0.380999 0.064148 0.151379
0.462442 0.063478 0.158727
0.534085 0.062457 0.165955
0.600002 0.061388 0.171947
0.661934 0.060128 0.176919
0.718458 0.059110 0.180405
0.764838 0.058820 0.184769
0.808778 0.059831 0.190008
0.866010 0.191276 0.255720
0.878161 0.290819 0.323788
0.896658 0.377552 0.384538
0.012793 0.088874 0.129588
0.068672 0.094602 0.134629
0.141769 0.101529 0.138191
0.223429 0.106727 0.141333
0.315274 0.104093 0.150912
0.405255 0.084010 0.154710
0.481781 0.067714 0.155138
0.549173 0.063754 0.157953
0.612229 0.063014 0.161621
0.672246 0.062057 0.164728
0.727042 0.061289 0.167127
0.772979 0.061224 0.170924
0.821164 0.075518 0.181157
0.871051 0.204594 0.252736
0.881456 0.299710 0.323656
0.899624 0.387861 0.388200
0.027518 0.135800 0.156508
0.082531 0.140965 0.148879
0.148902 0.144271 0.133955
0.223403 0.151567 0.132502
0.313312 0.162337 0.144277
0.412632 0.166961 0.156379
0.507880 0.157326 0.159039
0.583265 0.118119 0.148290
0.632249 0.074205 0.133788
0.684819 0.064657 0.131132
0.738615 0.064023 0.132349
0.786496 0.064401 0.135085
0.841629 0.100895 0.155912
0.879818 0.227247 0.245807
0.887270 0.315003 0.322679
0.904364 0.405450 0.394852
0.051019 0.189457 0.178626
0.101859 0.192678 0.161845
0.164580 0.191942 0.138878
0.227905 0.194985 0.127762
0.302904 0.204897 0.129701
0.395177 0.220881 0.141529
0.495659 0.233649 0.151494
0.593198 0.235214 0.147355
0.675062 0.209404 0.122743
0.714411 0.116422 0.060122
0.754448 0.068177 0.032341
0.805695 0.061351 0.030211
0.871236 0.146123 0.097304
0.892996 0.263007 0.233894
0.896289 0.340080 0.322191
0.911500 0.432006 0.405218
0.087230 0.254349 0.197377
0.116990 0.253848 0.179018
0.190955 0.255192 0.156061
0.245126 0.248152 0.131823
0.309022 0.252945 0.124357
0.392518 0.271030 0.130462
0.489184 0.295857 0.143768
0.585608 0.313693 0.145019
0.679419 0.318134 0.116726
0.760166 0.301891 0.054912
0.820789 0.278795 0.016247
0.873994 0.263458 0.014450
0.918603 0.278971 0.075691
0.909703 0.324682 0.239009
0.909988 0.388191 0.336006
0.919486 0.465741 0.418978
0.141483 0.339708 0.213249
0.148031 0.333687 0.190669
0.226657 0.339973 0.171911
0.280679 0.323820 0.142363
0.339045 0.321537 0.124800
0.402013 0.326222 0.116578
0.488093 0.353197 0.122829
0.575970 0.381789 0.128357
0.662756 0.397427 0.099867
0.745255 0.401356 0.040900
0.818715 0.399917 0.008686
0.885693 0.389602 0.010904
0.939072 0.380850 0.055402
0.929146 0.397078 0.247139
0.923898 0.443394 0.354501
0.928304 0.505029 0.435789
0.195593 0.423882 0.225257
0.198917 0.418837 0.200688
0.245449 0.421637 0.168861
0.326463 0.417182 0.148644
0.388351 0.413347 0.126109
0.444775 0.409132 0.105065
0.503104 0.414306 0.098809
0.581214 0.444154 0.096691
0.655112 0.468348 0.070172
0.724606 0.479610 0.023755
0.796154 0.485049 0.005865
0.871457 0.476684 0.007106
0.940071 0.461411 0.020295
0.943478 0.465768 0.249454
0.935807 0.500024 0.373361
0.936269 0.547960 0.454752
0.243899 0.500515 0.232488
0.248926 0.497310 0.207364
0.265900 0.491961 0.155602
0.360945 0.503791 0.129862
0.435742 0.508413 0.114647
0.496345 0.503911 0.092406
0.552125 0.501310 0.075294
0.602851 0.506173 0.071483
