luts/JOKER-WARM.cube
LUT_3D_SIZE 6
0.002595 0.003512 0.003183
0.118605 0.036729 0.035761
0.327391 0.069706 0.062773
0.543256 0.102782 0.086130
0.753983 0.138203 0.108799
0.849367 0.177107 0.133872
0.041524 0.156014 0.055639
0.131407 0.159289 0.061406
0.333248 0.172077 0.075386
0.547143 0.186089 0.095588
0.756853 0.204753 0.116585
0.849367 0.227664 0.140590
0.113936 0.353539 0.119761
0.186751 0.353365 0.120377
0.359603 0.352861 0.126098
0.564142 0.358845 0.135521
0.768814 0.361988 0.149706
0.849370 0.364974 0.166237
0.216190 0.544645 0.190152
0.267170 0.543784 0.190127
0.413647 0.540874 0.190879
0.596687 0.537347 0.193890
0.791318 0.534043 0.199839
0.849378 0.526158 0.209001
0.326696 0.720983 0.260219
0.361384 0.720133 0.259564
0.478088 0.716546 0.258296
0.641784 0.711144 0.257516
0.823906 0.705149 0.258406
0.849389 0.689299 0.261861
0.435707 0.873819 0.325978
0.460976 0.872935 0.325860
0.550133 0.869360 0.324161
0.688175 0.863579 0.322044
0.833339 0.855996 0.320324
0.849405 0.847228 0.319906
0.020152 0.028654 0.120695
0.121486 0.039540 0.125336
0.329028 0.070833 0.135213
0.544572 0.103114 0.142854
0.755103 0.139059 0.153468
0.849367 0.178759 0.166461
0.043857 0.158597 0.132375
0.133790 0.161673 0.134557
0.334815 0.169414 0.138766
0.548269 0.183332 0.146016
0.757691 0.201895 0.155986
0.849367 0.227767 0.171079
0.114951 0.355016 0.170382
0.186166 0.354857 0.169087
0.361031 0.354193 0.170186
0.565157 0.358495 0.173874
0.769653 0.361395 0.181311
0.849370 0.365221 0.192602
0.217969 0.545698 0.222813
0.266807 0.544813 0.221309
0.413470 0.541871 0.220142
0.597562 0.538188 0.221014
0.792050 0.534499 0.223860
0.849378 0.526857 0.230201
0.327454 0.721726 0.281700
0.361510 0.720852 0.280636
0.478234 0.717318 0.278747
0.642289 0.711848 0.277065
0.824534 0.705758 0.276438
0.849389 0.690066 0.278519
0.437153 0.874337 0.341123
0.462660 0.873449 0.341092
0.551756 0.869792 0.339145
0.689450 0.864011 0.336484
0.833894 0.856501 0.334116
0.849405 0.847692 0.333041
0.030140 0.045663 0.260271
0.138475 0.057030 0.260947
0.335385 0.081457 0.259303
0.548647 0.112646 0.261012
0.758405 0.146997 0.259600
0.849367 0.184981 0.257601
0.054170 0.174006 0.264081
0.143026 0.170208 0.264311
0.340653 0.176700 0.262392
0.552379 0.188907 0.262858
0.761021 0.207713 0.261235
0.849367 0.232552 0.260144
0.123774 0.360017 0.281079
0.192649 0.359672 0.280418
0.365872 0.358839 0.277974
0.568885 0.358734 0.274697
0.772556 0.361982 0.273092
0.849371 0.369504 0.274286
0.224506 0.549169 0.313979
0.271478 0.548342 0.312294
0.414707 0.545438 0.307636
0.601006 0.541540 0.303900
0.794775 0.536871 0.301319
0.849378 0.531215 0.301155
0.332023 0.724437 0.352199
0.365468 0.723478 0.350950
0.480949 0.719988 0.347429
0.645207 0.714476 0.343512
0.827011 0.708199 0.339759
0.849390 0.693535 0.337980
0.440788 0.876256 0.393255
0.466172 0.875340 0.392949
0.559230 0.871590 0.392644
0.695594 0.865700 0.389316
0.836162 0.858381 0.385089
0.849406 0.849852 0.381559
0.057550 0.080628 0.390314
0.157645 0.083735 0.389866
0.353176 0.100605 0.385228
0.555851 0.128929 0.379257
0.763562 0.160532 0.373796
0.849367 0.195808 0.364677
0.070888 0.191875 0.392454
0.159230 0.185049 0.391755
0.355751 0.189469 0.387398
0.559421 0.200794 0.381348
0.766178 0.218461 0.375463
0.849368 0.241942 0.366495
0.139497 0.374665 0.402428
0.205335 0.372532 0.401408
0.374360 0.366540 0.397350
0.575363 0.366107 0.391039
0.777607 0.369038 0.384114
0.849371 0.376479 0.376040
0.235987 0.554947 0.421303
0.281548 0.554099 0.420262
0.422005 0.551084 0.416260
0.606951 0.547119 0.410173
0.799383 0.543429 0.403440
0.849379 0.541871 0.397881
0.340639 0.728724 0.446745
0.373496 0.727827 0.445627
0.487788 0.724243 0.441632
0.652033 0.718676 0.436447
0.831211 0.712556 0.429991
0.849390 0.700784 0.424479
0.447448 0.879599 0.471808
0.472597 0.878672 0.471173
0.565750 0.874774 0.469517
0.708375 0.868607 0.468289
0.840758 0.861530 0.462685
0.849406 0.853292 0.456595
0.082349 0.111639 0.509266
0.178184 0.115208 0.508130
0.367547 0.129225 0.502815
0.567414 0.151203 0.494638
0.769924 0.179164 0.485560
0.849368 0.210874 0.472403
0.100458 0.210117 0.510677
0.180714 0.204620 0.509584
0.369100 0.207278 0.504331
0.569785 0.217172 0.496261
0.772512 0.233226 0.487205
0.849369 0.254999 0.473838
0.162127 0.386413 0.517433
0.222844 0.383701 0.516291
0.385997 0.376878 0.511310
0.583041 0.376311 0.503438
0.783572 0.378931 0.494266
0.849373 0.385867 0.480694
0.252238 0.562846 0.529963
0.295713 0.561562 0.528830
0.432452 0.557460 0.524226
0.614797 0.554244 0.516719
0.805202 0.550673 0.507778
0.849380 0.549552 0.495749
0.352857 0.734192 0.547977
0.384904 0.733317 0.546929
0.497095 0.729722 0.542511
0.659653 0.724276 0.535488
0.836447 0.718277 0.527127
0.849392 0.712927 0.518885
0.457095 0.883855 0.561856
0.481843 0.882998 0.560977
0.573737 0.879124 0.557709
0.715574 0.872785 0.553173
0.845737 0.865263 0.549405
0.849407 0.858024 0.542489
0.123219 0.152005 0.614210
0.200221 0.152250 0.612898
0.377569 0.161679 0.607385
0.571696 0.178636 0.598840
0.769911 0.202417 0.588781
0.849370 0.229912 0.577486
0.135290 0.230184 0.615307
0.205149 0.226829 0.614048
0.379927 0.229202 0.608626
0.573948 0.237620 0.600136
0.772099 0.252001 0.590126
0.849371 0.271392 0.578636
0.189439 0.394807 0.620261
0.244526 0.392671 0.618990
0.399927 0.389016 0.613812
0.588107 0.389003 0.605633
0.782638 0.391548 0.595476
0.849374 0.397684 0.583476
0.271916 0.565458 0.629246
0.312957 0.564290 0.628013
0.445230 0.561441 0.622942
0.624028 0.562424 0.614591
0.806556 0.559648 0.604761
0.849382 0.558205 0.592887
0.367450 0.730882 0.640904
0.398540 0.729982 0.639748
0.508115 0.727041 0.634999
0.668268 0.724162 0.627019
0.840027 0.724495 0.617331
0.849393 0.719742 0.606849
0.469450 0.886138 0.654324
0.493733 0.885607 0.653243
0.583872 0.882736 0.648970
0.723881 0.876789 0.641855
0.847349 0.869745 0.632898
0.849426 0.862700 0.623703
