luts/JOKER-COLD.cube
LUT_3D_SIZE 6
-0.070171 -0.076517 -0.070171
0.098692 -0.067872 -0.060949
0.240143 -0.066540 -0.059377
0.479728 -0.068863 -0.059926
0.785173 -0.064781 -0.054474
0.866489 -0.063392 -0.052604
-0.069935 0.118163 -0.070171
0.091128 0.115994 -0.070124
0.248951 0.135889 -0.053465
0.579039 0.138287 -0.017110
0.873453 0.135801 -0.015575
0.954052 0.143430 -0.010927
-0.069665 0.273177 -0.070171
0.085521 0.273926 -0.070171
0.228868 0.300670 -0.070100
0.505769 0.372543 -0.063188
0.883184 0.382116 0.007081
1.000024 0.371860 0.027082
-0.069262 0.564548 -0.070171
0.082260 0.594796 -0.070171
0.278389 0.638503 -0.070171
0.524618 0.657302 -0.069974
0.836457 0.687383 -0.065190
0.933659 0.680447 -0.056881
-0.068822 0.858377 -0.070171
0.111712 0.873894 -0.070124
0.314523 0.901330 -0.052556
0.563796 0.911626 -0.044195
0.846007 0.918963 -0.060162
0.951192 0.914704 -0.048949
-0.011674 1.022754 -0.014571
0.192639 1.022754 0.012123
0.373970 1.022738 0.028091
0.595053 1.022594 0.025890
0.847673 1.022407 0.012389
0.954229 1.022484 0.161157
-0.068911 -0.069196 0.103253
0.103590 -0.069944 0.118794
0.228943 -0.069674 0.124737
0.461603 -0.070696 0.137244
0.780110 -0.065616 0.140610
0.867306 -0.064037 0.141716
-0.070171 0.104819 0.094364
0.085765 0.117925 0.103502
0.222772 0.107092 0.092036
0.442957 0.107669 0.096262
0.777252 0.105862 0.093914
0.888471 0.097291 0.086378
-0.069947 0.297845 0.101095
0.073375 0.283918 0.089364
0.202717 0.265116 0.084073
0.507958 0.360604 0.096745
0.913651 0.356363 0.109372
1.000024 0.354384 0.127114
-0.069479 0.585432 0.086587
0.054594 0.585197 0.075177
0.267122 0.632337 0.085345
0.526119 0.659252 0.091378
0.839767 0.685516 0.098913
0.939571 0.675886 0.129821
-0.069147 0.866016 0.119057
0.075000 0.870658 0.098089
0.295407 0.895646 0.110053
0.557177 0.911978 0.120632
0.847542 0.920584 0.122730
0.954080 0.913984 0.135196
-0.013195 1.022908 0.196555
0.100484 1.022833 0.113016
0.344895 1.022821 0.155999
0.584328 1.022700 0.176357
0.842602 1.022502 0.161590
0.952782 1.022531 0.261443
-0.070022 -0.053855 0.266796
0.118615 -0.067077 0.295707
0.243631 -0.073438 0.279390
0.463595 -0.075381 0.307018
0.770025 -0.070192 0.322432
0.868465 -0.068217 0.329874
-0.070171 0.126888 0.190464
0.054916 0.118196 0.203418
0.235339 0.115203 0.274310
0.437647 0.099619 0.279982
0.759732 0.095828 0.303665
0.892014 0.054956 0.300251
-0.070171 0.257701 0.225975
0.069075 0.268604 0.234576
0.208867 0.307436 0.262347
0.512053 0.285049 0.218698
0.818388 0.323294 0.270527
0.925657 0.361917 0.327754
-0.070004 0.609136 0.288227
0.061476 0.629444 0.301273
0.214872 0.626161 0.265746
0.514077 0.636593 0.248384
0.850855 0.667362 0.246911
0.968572 0.649536 0.319022
-0.069706 0.884967 0.333280
0.084438 0.890997 0.332279
0.244049 0.894994 0.297527
0.525989 0.903791 0.298564
0.848164 0.920221 0.304538
0.954820 0.911118 0.327119
-0.010493 1.023049 0.398740
0.123087 1.023104 0.379744
0.287738 1.023002 0.337210
0.561875 1.022860 0.358368
0.833628 1.022656 0.349776
0.948205 1.022661 0.426740
-0.070171 -0.032715 0.524134
0.132106 -0.064491 0.592225
0.283979 -0.070696 0.553034
0.508697 -0.076335 0.568736
0.779658 -0.075376 0.563181
0.879264 -0.074365 0.572665
-0.070171 0.170671 0.375208
0.064458 0.150710 0.431507
0.231238 0.100274 0.484638
0.499523 0.100507 0.559754
0.776704 0.088798 0.552726
0.904937 0.031380 0.560060
-0.070171 0.329345 0.501969
0.039090 0.318612 0.466060
0.115126 0.276950 0.365791
0.493790 0.322382 0.572759
0.801591 0.302913 0.549311
0.930721 0.342872 0.583202
-0.070171 0.535544 0.464324
0.050978 0.534691 0.465213
0.204070 0.633269 0.563153
0.468238 0.665695 0.572511
0.891361 0.614888 0.488726
0.959450 0.687957 0.642129
-0.070171 0.877316 0.577238
0.083111 0.889433 0.587147
0.251565 0.906399 0.594143
0.543261 0.910334 0.598577
0.865770 0.908367 0.571037
0.950971 0.912808 0.638725
-0.011414 1.023045 0.637505
0.133078 1.023107 0.635878
0.308276 1.023149 0.632327
0.575500 1.023073 0.634181
0.840267 1.022840 0.651273
0.945508 1.022830 0.694704
-0.069246 -0.015766 0.766331
0.127201 -0.058356 0.834442
0.307409 -0.069042 0.825709
0.475203 -0.076169 0.737102
0.815148 -0.076294 0.823349
0.877057 -0.076232 0.784991
-0.069845 0.202877 0.634248
0.065554 0.169559 0.691006
0.267016 0.109653 0.816253
0.446281 0.087244 0.709968
0.816544 0.091669 0.818174
0.896633 0.000516 0.778491
-0.070171 0.362366 0.592848
0.000566 0.356050 0.577992
0.132451 0.357942 0.647839
0.424401 0.284280 0.769182
0.831371 0.323937 0.832855
0.938005 0.283611 0.809684
-0.070171 0.638420 0.785213
0.051081 0.640873 0.786820
0.150726 0.602336 0.736278
0.332772 0.672083 0.758064
0.839213 0.656267 0.806745
0.941332 0.696767 0.832692
-0.070143 0.849783 0.759905
0.072368 0.850650 0.760196
0.234508 0.887283 0.804267
0.512188 0.911791 0.837179
0.859273 0.911338 0.826656
0.954711 0.920643 0.861024
-0.004549 1.023005 0.834482
0.101066 1.023052 0.831027
0.281064 1.023149 0.839255
0.577378 1.023131 0.842665
0.867854 1.022421 0.867746
0.948161 1.022787 0.882164
-0.064752 0.000406 0.904167
0.115569 -0.048139 0.943324
0.292525 -0.057334 0.940033
0.506095 -0.072197 0.927043
0.735258 -0.076186 0.898044
0.879603 -0.076231 0.937094
-0.065428 0.210950 0.832073
0.066097 0.175545 0.868488
0.253119 0.113881 0.937418
0.480352 0.102109 0.919005
0.735860 0.082226 0.902111
0.905819 0.077093 0.946727
-0.070171 0.391372 0.701981
0.028250 0.396415 0.740327
0.146406 0.389705 0.846484
0.395288 0.286041 0.910157
0.764920 0.311784 0.931660
0.936339 0.340170 0.966804
-0.070171 0.623338 0.895652
0.009548 0.626556 0.894594
0.099094 0.650825 0.882100
0.245054 0.645441 0.894453
0.789637 0.659701 0.947130
0.942378 0.690864 0.965164
-0.063546 0.867328 0.930063
0.086948 0.868584 0.934807
0.217187 0.860256 0.933014
0.357739 0.872996 0.945165
0.801603 0.918215 0.958491
0.946404 0.921602 0.965253
0.011449 1.023048 0.967489
0.102646 1.023063 0.966200
0.191644 1.023113 0.975816
0.499599 1.023129 0.972655
0.862788 1.021458 0.964506
0.949743 1.022008 0.970585
