luts/JOKER-WARM.cube
LUT_3D_SIZE 16
0.002595 0.003512 0.003183
0.020416 0.017645 0.017460
0.059409 0.028814 0.028245
0.118605 0.036729 0.035761
0.186320 0.044566 0.042658
0.256502 0.058395 0.053846
0.327391 0.069706 0.062773
0.398818 0.078058 0.069184
0.470982 0.089014 0.076863
0.543256 0.102782 0.086130
0.614607 0.114728 0.093881
0.684804 0.124684 0.100030
0.753983 0.138203 0.108799
0.817721 0.152063 0.117900
0.849367 0.164889 0.126183
0.849367 0.177107 0.133872
0.017037 0.035460 0.023693
0.022771 0.037228 0.025667
0.060059 0.043196 0.030988
0.119126 0.051203 0.036854
0.186924 0.060859 0.044987
0.256898 0.070670 0.055048
0.327685 0.079047 0.063206
0.399073 0.086032 0.069289
0.471287 0.098432 0.077801
0.543542 0.110637 0.086693
0.614832 0.121275 0.094116
0.684966 0.130586 0.100318
0.754194 0.143928 0.109395
0.817844 0.157077 0.118331
0.849367 0.169285 0.126474
0.849367 0.181165 0.134376
0.025412 0.089477 0.037113
0.034809 0.090302 0.037655
0.065092 0.092411 0.039754
0.123141 0.097878 0.045720
0.189754 0.103608 0.052941
0.258961 0.109699 0.060221
0.329428 0.116295 0.066997
0.400611 0.123527 0.073031
0.472618 0.131808 0.081493
0.544623 0.139402 0.088924
0.615807 0.146967 0.096035
0.686006 0.155796 0.103312
0.755030 0.166530 0.111866
0.818271 0.177050 0.120098
0.849367 0.187047 0.128012
0.849367 0.197649 0.136509
0.041524 0.156014 0.055639
0.049938 0.156412 0.056079
0.079274 0.157674 0.057933
0.131407 0.159289 0.061406
0.196079 0.163553 0.065720
0.263739 0.167730 0.070524
0.333248 0.172077 0.075386
0.403851 0.176432 0.082055
0.475456 0.181045 0.088888
0.547143 0.186089 0.095588
0.618005 0.191766 0.102202
0.687995 0.198339 0.109125
0.756853 0.204753 0.116585
0.819254 0.211691 0.124576
0.849367 0.219234 0.132610
0.849367 0.227664 0.140590
0.059330 0.222689 0.075338
0.065185 0.222935 0.075283
0.097201 0.223332 0.076147
0.146792 0.224084 0.078151
0.205859 0.224973 0.080795
0.271423 0.228397 0.084838
0.339476 0.231719 0.089647
0.409150 0.234947 0.094855
0.480013 0.238241 0.100295
0.551117 0.241556 0.105871
0.621540 0.244988 0.111677
0.691162 0.248623 0.118080
0.759611 0.252862 0.124948
0.820749 0.257771 0.132245
0.849367 0.262606 0.139635
0.849367 0.267730 0.146836
0.083014 0.288434 0.096249
0.090761 0.288465 0.096384
0.119189 0.288640 0.097002
0.165195 0.288809 0.098326
0.221688 0.289055 0.100580
0.282107 0.289423 0.103488
0.348288 0.292224 0.106828
0.416578 0.294829 0.110622
0.486448 0.297379 0.114794
0.556762 0.299676 0.119341
0.626517 0.301749 0.124391
0.695582 0.303828 0.130006
0.763667 0.306148 0.136096
0.822924 0.308701 0.142577
0.849367 0.311586 0.148918
0.849369 0.314704 0.155450
0.113936 0.353539 0.119761
0.119948 0.353579 0.119646
0.143842 0.353613 0.119519
0.186751 0.353365 0.120377
0.239916 0.353164 0.121758
0.298309 0.352978 0.123669
0.359603 0.352861 0.126098
0.426227 0.355096 0.128753
0.494885 0.357177 0.131863
0.564142 0.358845 0.135521
0.633009 0.360034 0.139739
0.701428 0.361031 0.144496
0.768814 0.361988 0.149706
0.825456 0.363002 0.154966
0.849367 0.364021 0.160420
0.849370 0.364974 0.166237
0.145247 0.418028 0.142675
0.150855 0.417986 0.142695
0.173066 0.417775 0.142812
0.211671 0.417554 0.143176
0.260605 0.417004 0.143854
0.316431 0.416430 0.144987
0.376134 0.415894 0.146574
0.438239 0.415440 0.148617
0.505304 0.417177 0.150946
0.573265 0.418354 0.153831
0.641010 0.418913 0.157233
0.708528 0.419044 0.160989
0.775151 0.419005 0.164928
0.828411 0.418787 0.169244
0.849367 0.418444 0.173927
0.849372 0.417628 0.179031
0.181764 0.482009 0.166910
0.186339 0.481948 0.166813
0.204799 0.481776 0.166440
0.238281 0.481298 0.166318
0.283972 0.480684 0.166755
0.336774 0.479844 0.167397
0.394330 0.478938 0.168422
0.454983 0.478087 0.169846
0.517801 0.477306 0.171646
0.584027 0.477916 0.173600
0.650566 0.477920 0.175900
0.717045 0.477373 0.178620
0.782654 0.476496 0.181719
0.831622 0.475313 0.185228
0.849367 0.473807 0.189181
0.849375 0.471563 0.193412
0.216190 0.544645 0.190152
0.220234 0.544568 0.190143
0.236759 0.544262 0.190112
0.267170 0.543784 0.190127
0.309069 0.543052 0.190208
0.358665 0.542029 0.190444
0.413647 0.540874 0.190879
0.472366 0.539674 0.191583
0.533663 0.538488 0.192587
0.596687 0.537347 0.193890
0.661594 0.536729 0.195499
0.726917 0.535596 0.197461
0.791318 0.534043 0.199839
0.834960 0.532040 0.202594
0.849367 0.529613 0.205580
0.849378 0.526158 0.209001
0.254027 0.605250 0.214296
0.257451 0.605183 0.214222
0.271461 0.604925 0.213936
0.297758 0.604411 0.213410
0.335329 0.603489 0.213254
0.381841 0.602483 0.213254
0.433995 0.601123 0.213322
0.490393 0.599660 0.213575
0.549743 0.598214 0.214072
0.611229 0.596708 0.214858
0.674080 0.595204 0.215942
0.738021 0.593502 0.217168
0.801081 0.591392 0.218735
0.838390 0.588714 0.220636
0.849367 0.585450 0.222978
0.849381 0.580722 0.225781
0.289739 0.664221 0.237283
0.292602 0.664189 0.237160
0.304821 0.663936 0.236858
0.328673 0.663248 0.236644
0.363269 0.662425 0.236457
0.406129 0.661320 0.236215
0.455512 0.659922 0.236048
0.509304 0.658230 0.235862
0.566590 0.656558 0.235870
0.626265 0.654863 0.236093
0.687636 0.653150 0.236570
0.750499 0.651281 0.237238
0.812053 0.648552 0.238250
0.841877 0.645207 0.239619
0.849367 0.641140 0.241375
0.849385 0.635215 0.243621
0.326696 0.720983 0.260219
0.329285 0.720919 0.260137
0.340225 0.720638 0.259925
0.361384 0.720133 0.259564
0.392374 0.719257 0.259075
0.431874 0.718063 0.258688
0.478088 0.716546 0.258296
0.529310 0.714915 0.257926
0.584162 0.713095 0.257655
0.641784 0.711144 0.257516
0.701451 0.709192 0.257630
0.762623 0.707145 0.257947
0.823906 0.705149 0.258406
0.845148 0.701182 0.259207
0.849367 0.696407 0.260324
0.849389 0.689299 0.261861
0.363335 0.775882 0.282777
0.365598 0.775829 0.282708
0.375242 0.775563 0.282446
0.394083 0.774993 0.282085
0.422203 0.774053 0.281675
0.458760 0.772880 0.281261
0.501662 0.771453 0.280690
0.550037 0.769807 0.280214
0.602391 0.767841 0.279741
0.657744 0.765802 0.279260
0.715425 0.763727 0.278944
0.774851 0.761475 0.278813
0.830896 0.759236 0.278844
0.848005 0.756799 0.279071
0.849367 0.751460 0.279747
0.849394 0.743047 0.280866
0.399577 0.827735 0.304645
0.401679 0.827670 0.304604
0.410367 0.827407 0.304469
0.427399 0.826779 0.304207
0.453065 0.825957 0.303831
0.486272 0.824688 0.303248
0.526198 0.823244 0.302647
0.571457 0.821465 0.301949
0.621032 0.819598 0.301291
0.673867 0.817547 0.300694
0.729260 0.815230 0.300164
0.786648 0.812859 0.299791
0.832782 0.810490 0.299549
0.849367 0.807962 0.299458
0.849367 0.805222 0.299676
0.849399 0.795925 0.300259
0.435707 0.873819 0.325978
0.437577 0.873762 0.325966
0.445457 0.873529 0.325930
0.460976 0.872935 0.325860
0.483618 0.872065 0.325386
0.513688 0.870822 0.324822
0.550133 0.869360 0.324161
0.592042 0.867604 0.323477
0.638314 0.865666 0.322736
0.688175 0.863579 0.322044
0.740778 0.861094 0.321402
0.795367 0.858606 0.320810
0.833339 0.855996 0.320324
0.849367 0.853339 0.320014
0.849370 0.850566 0.319866
0.849405 0.847228 0.319906
0.010393 0.014015 0.031550
0.020933 0.019382 0.034394
0.059394 0.028678 0.039595
0.118724 0.036397 0.046616
0.186546 0.044893 0.054591
0.256681 0.058245 0.062862
0.327496 0.069160 0.069681
0.398917 0.077281 0.074735
0.471113 0.089122 0.083112
0.543365 0.102606 0.091341
0.614687 0.114308 0.098228
0.684883 0.124364 0.103880
0.754084 0.138259 0.112510
0.817776 0.151983 0.121140
0.849367 0.164736 0.129019
0.849367 0.177242 0.136441
0.017346 0.035635 0.034960
0.022844 0.037346 0.036543
0.060091 0.042774 0.041212
0.119285 0.051086 0.048144
0.187134 0.060766 0.056020
0.257067 0.070221 0.063528
0.327826 0.078272 0.069774
0.399188 0.085409 0.075025
0.471415 0.098407 0.083884
0.543649 0.110359 0.091784
0.614909 0.120774 0.098381
0.685051 0.130393 0.104258
0.754291 0.143967 0.113071
0.817896 0.156977 0.121527
0.849367 0.169120 0.129286
0.849367 0.181287 0.136940
0.025420 0.089691 0.048069
0.034983 0.090515 0.048861
0.065320 0.092691 0.051809
0.123370 0.097574 0.056210
0.189919 0.102992 0.061615
0.259077 0.108984 0.067327
0.329557 0.115579 0.072837
0.400748 0.123287 0.079546
0.472735 0.131349 0.086993
0.544719 0.138745 0.093572
0.615879 0.146377 0.100046
0.686100 0.155754 0.107280
0.755120 0.166396 0.115351
0.818316 0.176838 0.123159
0.849367 0.186806 0.130729
0.849367 0.197723 0.139012
0.041586 0.156219 0.064599
0.049888 0.156603 0.064880
0.079127 0.157855 0.066177
0.131583 0.159462 0.068986
0.196215 0.163485 0.072461
0.263850 0.167513 0.076392
0.333355 0.171712 0.081545
0.403970 0.175968 0.087636
0.475528 0.180589 0.093773
0.547223 0.185651 0.099888
0.618074 0.191383 0.106003
0.688078 0.198006 0.112714
0.756933 0.204426 0.119810
0.819296 0.211428 0.127486
0.849367 0.219043 0.135261
0.849367 0.227651 0.142982
0.059018 0.222819 0.081589
0.064782 0.223067 0.081426
0.096946 0.223461 0.082102
0.146746 0.224212 0.083989
0.206014 0.225120 0.087070
0.271566 0.228423 0.090745
0.339617 0.231623 0.095018
0.409253 0.234769 0.099706
0.480108 0.238043 0.104650
0.551193 0.241346 0.109790
0.621594 0.244706 0.115339
0.691235 0.248384 0.121394
0.759676 0.252659 0.127981
0.820794 0.257608 0.135020
0.849367 0.262502 0.142090
0.849367 0.267719 0.149113
0.083131 0.288568 0.102084
0.090824 0.288600 0.102157
0.119065 0.288768 0.102567
0.165047 0.288935 0.103656
0.221709 0.289182 0.105673
0.282225 0.289537 0.108314
0.348360 0.292267 0.111334
0.416657 0.294797 0.114800
0.486537 0.297304 0.118625
0.556848 0.299554 0.122898
0.626593 0.301608 0.127701
0.695651 0.303695 0.133055
0.763731 0.306016 0.138915
0.822968 0.308625 0.145185
0.849367 0.311506 0.151242
0.849369 0.314678 0.157593
0.113751 0.353670 0.124279
0.119740 0.353660 0.124168
0.143516 0.353742 0.123899
0.186561 0.353493 0.124662
0.239846 0.353256 0.125920
0.298337 0.353097 0.127666
0.359728 0.352979 0.129868
0.426333 0.355119 0.132312
0.494983 0.357155 0.135216
0.564219 0.358832 0.138670
0.633080 0.360000 0.142699
0.701496 0.360960 0.147261
0.768876 0.361935 0.152285
0.825479 0.362967 0.157290
0.849367 0.364009 0.162607
0.849370 0.364951 0.168300
0.145387 0.418141 0.146401
0.150965 0.418099 0.146396
0.173057 0.417888 0.146428
0.211483 0.417667 0.146645
0.260495 0.417098 0.147254
0.316400 0.416535 0.148292
0.376190 0.415950 0.149754
0.438329 0.415525 0.151688
0.505393 0.417229 0.153873
0.573338 0.418374 0.156616
0.641076 0.418914 0.159876
0.708601 0.419039 0.163383
0.775214 0.418998 0.167184
0.828408 0.418792 0.171396
0.849367 0.418410 0.175951
0.849372 0.417653 0.180938
0.181707 0.482106 0.169964
0.186255 0.482045 0.169849
0.204629 0.481875 0.169411
0.238071 0.481395 0.169227
0.283852 0.480779 0.169622
0.336673 0.479936 0.170207
0.394332 0.479025 0.171159
0.455030 0.478166 0.172496
0.517836 0.477347 0.174169
0.584103 0.477974 0.175965
0.650634 0.477957 0.178179
0.717106 0.477398 0.180791
0.782709 0.476536 0.183801
0.831650 0.475330 0.187192
0.849367 0.473829 0.191037
0.849375 0.471616 0.195140
0.216345 0.544725 0.192730
0.220359 0.544637 0.192712
0.236810 0.544343 0.192639
0.267172 0.543863 0.192579
0.308953 0.543119 0.192585
0.358624 0.542106 0.192773
0.413633 0.540949 0.193149
0.472391 0.539768 0.193812
0.533662 0.538560 0.194733
0.596754 0.537412 0.195999
0.661657 0.536776 0.197529
0.726987 0.535631 0.199415
0.791374 0.534070 0.201710
0.834986 0.532078 0.204350
0.849367 0.529660 0.207239
0.849378 0.526209 0.210584
0.254041 0.605321 0.216480
0.257427 0.605254 0.216392
0.271402 0.604996 0.216071
0.297620 0.604446 0.215497
0.335237 0.603558 0.215301
0.381811 0.602549 0.215292
0.433977 0.601190 0.215343
0.490404 0.599723 0.215534
0.549780 0.598275 0.215982
0.611274 0.596769 0.216724
0.674136 0.595260 0.217733
0.738091 0.593550 0.218868
0.801139 0.591437 0.220389
0.838413 0.588757 0.222263
0.849367 0.585444 0.224517
0.849381 0.580773 0.227279
0.289669 0.664291 0.239138
0.292506 0.664259 0.238997
0.304766 0.664005 0.238694
0.328527 0.663319 0.238466
0.363192 0.662492 0.238267
0.406106 0.661389 0.237980
0.455519 0.659992 0.237777
0.509327 0.658301 0.237567
0.566615 0.656555 0.237533
0.626305 0.654929 0.237726
0.687684 0.653212 0.238152
0.750563 0.651344 0.238778
0.812101 0.648609 0.239772
0.841892 0.645262 0.241092
0.849367 0.641191 0.242790
0.849385 0.635280 0.244948
0.326695 0.721041 0.261818
0.329357 0.720975 0.261778
0.340282 0.720695 0.261560
0.361378 0.720191 0.261143
0.392330 0.719317 0.260665
0.431879 0.718120 0.260230
0.478073 0.716606 0.259847
0.529337 0.714972 0.259447
0.584188 0.713148 0.259136
0.641819 0.711196 0.259005
0.701495 0.709243 0.259050
0.762678 0.707194 0.259356
0.823950 0.705201 0.259804
0.845159 0.701233 0.260495
0.849367 0.696460 0.261599
0.849389 0.689357 0.263111
0.363343 0.775934 0.284214
0.365638 0.775879 0.284130
0.375272 0.775614 0.283858
0.394113 0.775042 0.283498
0.422219 0.774102 0.283075
0.458758 0.772929 0.282667
0.501692 0.771503 0.282072
0.550014 0.769860 0.281579
0.602444 0.767892 0.281050
0.657797 0.765850 0.280570
0.715405 0.763779 0.280230
0.774903 0.761521 0.280054
0.830916 0.759284 0.280074
0.848011 0.756845 0.280280
0.849367 0.751504 0.280924
0.849394 0.743095 0.282006
0.399676 0.827778 0.305903
0.401721 0.827716 0.305847
0.410449 0.827451 0.305717
0.427483 0.826822 0.305432
0.453154 0.826001 0.305066
0.486359 0.824732 0.304485
0.526281 0.823288 0.303861
0.571524 0.821510 0.303152
0.621072 0.819607 0.302479
0.673928 0.817591 0.301865
0.729325 0.815270 0.301334
0.786696 0.812898 0.300920
0.832806 0.810531 0.300674
0.849367 0.808003 0.300561
0.849367 0.805261 0.300766
0.849399 0.795973 0.301305
0.435818 0.873856 0.327100
0.437693 0.873800 0.327093
0.445576 0.873498 0.327056
0.461092 0.872973 0.326984
0.483743 0.872102 0.326508
0.513768 0.870860 0.325940
0.550244 0.869324 0.325268
0.592132 0.867641 0.324579
0.638397 0.865705 0.323824
0.688251 0.863618 0.323112
0.740854 0.861130 0.322476
0.795450 0.858644 0.321851
0.833382 0.856033 0.321343
0.849367 0.853377 0.321011
0.849370 0.850605 0.320855
0.849405 0.847268 0.320868
0.015849 0.021936 0.072898
0.023536 0.024172 0.074919
0.060527 0.030795 0.077398
0.119543 0.037514 0.081868
0.187256 0.046142 0.086516
0.257283 0.058382 0.091159
0.328106 0.069025 0.095740
0.399476 0.078155 0.100512
0.471584 0.089567 0.105905
0.543795 0.102000 0.110989
0.615030 0.113429 0.115427
0.685290 0.125122 0.120540
0.754376 0.138535 0.127357
0.817996 0.151736 0.134207
0.849367 0.164279 0.140562
0.849367 0.177748 0.146950
0.019121 0.038581 0.073911
0.024779 0.039611 0.075517
0.061122 0.044654 0.077896
0.120163 0.052201 0.082179
0.187824 0.060880 0.086578
0.257677 0.069678 0.091070
0.328334 0.077917 0.095675
0.399745 0.086353 0.100650
0.471875 0.098390 0.106157
0.544068 0.109349 0.111013
0.615250 0.119752 0.115388
0.685505 0.131094 0.120848
0.754681 0.144070 0.127731
0.818094 0.156609 0.134466
0.849367 0.168633 0.140739
0.849367 0.181770 0.147400
0.025997 0.090778 0.080604
0.036090 0.091520 0.081241
0.066121 0.093660 0.083012
0.124131 0.097108 0.085589
0.190577 0.101968 0.089073
0.259687 0.108094 0.093306
0.330064 0.115088 0.098022
0.401257 0.122473 0.102823
0.473154 0.129722 0.107330
0.545067 0.136364 0.111211
0.616225 0.145419 0.116677
0.686526 0.155687 0.122993
0.755489 0.165868 0.129309
0.818501 0.175962 0.135541
0.849367 0.186351 0.141930
0.849367 0.198073 0.149269
0.042125 0.157005 0.092516
0.050120 0.157389 0.092557
0.079248 0.158599 0.093173
0.132315 0.160195 0.095188
0.196873 0.163348 0.097667
0.264443 0.166656 0.100722
0.333891 0.170317 0.104263
0.404419 0.174326 0.108136
0.475937 0.178847 0.112223
0.547558 0.184180 0.116666
0.618401 0.190362 0.121750
0.688348 0.196724 0.126936
0.757158 0.203183 0.132742
0.819471 0.210444 0.139302
0.849367 0.218858 0.146070
0.849367 0.227681 0.152778
0.059503 0.223489 0.106691
0.065228 0.223739 0.106620
0.097278 0.224130 0.106961
0.146663 0.224872 0.108020
0.206658 0.225729 0.109953
0.272121 0.228490 0.112236
0.340125 0.231289 0.114955
0.409661 0.234171 0.118055
0.480450 0.237236 0.121494
0.551550 0.240320 0.125372
0.621965 0.243655 0.129751
0.691532 0.247421 0.134706
0.759940 0.251862 0.140243
0.820981 0.257010 0.146261
0.849367 0.262156 0.152173
0.849367 0.267575 0.158449
0.083624 0.289097 0.123576
0.091090 0.289127 0.123468
0.118574 0.289318 0.123191
0.164494 0.289479 0.123524
0.221783 0.289688 0.124858
0.282729 0.290015 0.126600
0.348784 0.292418 0.128616
0.417087 0.294687 0.131004
0.486931 0.296976 0.133791
0.557214 0.299107 0.137091
0.626905 0.301126 0.140942
0.695935 0.303178 0.145382
0.763873 0.305578 0.150390
0.823143 0.308306 0.155461
0.849367 0.311329 0.160819
0.849369 0.314635 0.166520
0.113456 0.354123 0.141723
0.119316 0.354163 0.141493
0.142885 0.354144 0.140917
0.186132 0.353951 0.141278
0.239604 0.353714 0.141958
0.298481 0.353509 0.143121
0.360211 0.353428 0.144651
0.426768 0.355294 0.146434
0.495352 0.357202 0.148654
0.564524 0.358661 0.151395
0.633369 0.359744 0.154696
0.701779 0.360741 0.158488
0.769144 0.361746 0.162469
0.825635 0.362808 0.166851
0.849367 0.363929 0.171601
0.849370 0.364998 0.176753
0.145971 0.418581 0.161197
0.151428 0.418516 0.161100
0.173107 0.418346 0.160827
0.210790 0.418113 0.160479
0.260083 0.417543 0.160778
0.316365 0.416917 0.161493
0.376297 0.416345 0.162569
0.438674 0.415857 0.164029
0.505694 0.417412 0.165733
0.573629 0.418427 0.167949
0.641335 0.418903 0.170397
0.708821 0.418999 0.173257
0.775466 0.418944 0.176535
0.828545 0.418761 0.180241
0.849367 0.418432 0.184334
0.849372 0.417729 0.188858
0.181472 0.482470 0.182326
0.185930 0.482409 0.182147
0.203918 0.482252 0.181435
0.237309 0.481768 0.181024
0.283425 0.481117 0.181260
0.336484 0.480252 0.181632
0.394350 0.479348 0.182235
0.455224 0.478486 0.183100
0.518203 0.477700 0.184261
0.584444 0.478189 0.185693
0.650917 0.478071 0.187503
0.717356 0.477461 0.189694
0.782932 0.476570 0.192316
0.831766 0.475352 0.195338
0.849367 0.473917 0.198704
0.849375 0.471840 0.202324
0.216913 0.545047 0.203284
0.220871 0.544970 0.203219
0.237099 0.544676 0.203003
0.267049 0.544196 0.202656
0.308487 0.543468 0.202341
0.358373 0.542431 0.202374
0.413575 0.541264 0.202561
0.472461 0.540058 0.202995
0.533894 0.538851 0.203681
0.597011 0.537663 0.204636
0.661889 0.536980 0.205910
0.727199 0.535767 0.207513
0.791593 0.534203 0.209412
0.835064 0.532226 0.211611
0.849367 0.529858 0.214223
0.849378 0.526408 0.217284
0.254098 0.605613 0.225482
0.257465 0.605578 0.225369
0.271232 0.605253 0.224907
0.297124 0.604740 0.224116
0.334918 0.603820 0.223844
0.381596 0.602793 0.223737
0.433893 0.601431 0.223643
0.490422 0.600025 0.223679
0.549927 0.598491 0.223945
0.611498 0.597028 0.224437
0.674406 0.595510 0.225104
0.738386 0.593786 0.226007
0.801380 0.591658 0.227285
0.838507 0.588970 0.228923
0.849367 0.585624 0.230947
0.849381 0.580951 0.233464
0.289747 0.664586 0.246843
0.292594 0.664486 0.246706
0.304837 0.664230 0.246378
0.328638 0.663613 0.246068
0.363134 0.662722 0.245695
0.406006 0.661622 0.245274
0.455523 0.660218 0.244965
0.509387 0.658601 0.244637
0.566730 0.656847 0.244495
0.626472 0.655131 0.244534
0.687886 0.653476 0.244811
0.750826 0.651603 0.245284
0.812297 0.648768 0.246055
0.841936 0.645486 0.247184
0.849367 0.641415 0.248740
0.849385 0.635590 0.250576
0.326966 0.721279 0.268627
0.329587 0.721213 0.268530
0.340490 0.720934 0.268303
0.361428 0.720433 0.267768
0.392326 0.719558 0.267210
0.431857 0.718363 0.266747
0.478139 0.716845 0.266265
0.529405 0.715218 0.265833
0.584296 0.713353 0.265405
0.641965 0.711413 0.265155
0.701675 0.709458 0.265074
0.762910 0.707376 0.265244
0.824151 0.705397 0.265430
0.845185 0.701378 0.265988
0.849367 0.696683 0.266939
0.849389 0.689617 0.268312
0.363435 0.776148 0.290183
0.365720 0.776053 0.290110
0.375319 0.775829 0.289821
0.394090 0.775257 0.289422
0.422280 0.774309 0.288975
0.458856 0.773130 0.288495
0.501841 0.771715 0.287837
0.550264 0.770014 0.287220
0.602672 0.768106 0.286612
0.658018 0.766052 0.286031
0.715634 0.763974 0.285596
0.775123 0.761714 0.285319
0.831034 0.759429 0.285246
0.848037 0.757039 0.285327
0.849367 0.751690 0.285858
0.849394 0.743299 0.286831
0.400025 0.827962 0.311116
0.402085 0.827899 0.311084
0.410790 0.827587 0.310931
0.427827 0.826970 0.310653
0.453499 0.826115 0.310269
0.486685 0.824922 0.309668
0.526586 0.823404 0.309000
0.571807 0.821701 0.308258
0.621366 0.819795 0.307545
0.674143 0.817729 0.306853
0.729481 0.815446 0.306252
0.786891 0.813066 0.305768
0.832909 0.810671 0.305426
0.849367 0.808158 0.305226
0.849367 0.805446 0.305258
0.849399 0.796176 0.305680
0.436270 0.874017 0.331823
0.438125 0.873961 0.331814
0.446075 0.873658 0.331798
0.461624 0.873131 0.331746
0.484236 0.872191 0.331244
0.514278 0.871014 0.330654
0.550654 0.869481 0.329970
0.592501 0.867801 0.329245
0.638749 0.865869 0.328443
0.688579 0.863712 0.327658
0.741193 0.861289 0.326905
0.795801 0.858809 0.326203
0.833543 0.856190 0.325641
0.849367 0.853527 0.325239
0.849370 0.850782 0.325007
0.849405 0.847436 0.324940
0.020152 0.028654 0.120695
0.026572 0.029482 0.122263
0.064366 0.034140 0.123674
0.121486 0.039540 0.125336
0.188608 0.049027 0.128814
0.258401 0.060579 0.132248
0.329028 0.070833 0.135213
0.400361 0.079732 0.137826
0.472438 0.090902 0.140343
0.544572 0.103114 0.142854
0.615762 0.114945 0.145722
0.686000 0.126519 0.149256
0.755103 0.139059 0.153468
0.818412 0.152167 0.157247
0.849367 0.165433 0.161591
0.849367 0.178759 0.166461
0.021559 0.043206 0.120901
0.028203 0.043741 0.122204
0.064560 0.048173 0.123843
0.122080 0.055012 0.125712
0.189174 0.063193 0.129037
0.258766 0.071603 0.132323
0.329342 0.079599 0.135208
0.400640 0.088074 0.137785
0.472721 0.099326 0.140237
0.544775 0.110361 0.142804
0.615947 0.121253 0.145741
0.686190 0.132371 0.149406
0.755350 0.144314 0.153533
0.818519 0.156934 0.157367
0.849367 0.169757 0.161752
0.849367 0.182694 0.166782
0.027167 0.095317 0.125363
0.038309 0.095256 0.125803
0.068190 0.095813 0.127104
0.125719 0.099159 0.128408
0.191920 0.103676 0.130903
0.260816 0.109179 0.133421
0.331030 0.115472 0.135687
0.402134 0.122348 0.137916
0.473952 0.129649 0.140291
0.545804 0.137329 0.142938
0.616931 0.146248 0.146455
0.687166 0.155618 0.150202
0.756064 0.165220 0.153952
0.818892 0.176036 0.157994
0.849367 0.187314 0.162796
0.849367 0.198635 0.168248
0.043857 0.158597 0.132375
0.051685 0.158925 0.132641
0.081017 0.160043 0.133485
0.133790 0.161673 0.134557
0.198099 0.163518 0.135589
0.265513 0.166078 0.136977
0.334815 0.169414 0.138766
0.405256 0.173517 0.140938
0.476712 0.178188 0.143353
0.548269 0.183332 0.146016
0.619122 0.188786 0.148851
0.688914 0.194512 0.151838
0.757691 0.201895 0.155986
0.819861 0.210421 0.160944
0.849367 0.219020 0.165951
0.849367 0.227767 0.171079
0.060879 0.224710 0.143514
0.066556 0.224955 0.143589
0.098308 0.225311 0.143315
0.147138 0.226016 0.143357
0.207832 0.226845 0.144235
0.273135 0.228761 0.145187
0.341021 0.230815 0.146405
0.410474 0.233107 0.147916
0.481188 0.235662 0.149776
0.552219 0.238538 0.152068
0.622550 0.241889 0.154894
0.692050 0.245979 0.158285
0.760506 0.250887 0.162082
0.821345 0.256155 0.166233
0.849367 0.261512 0.170821
0.849367 0.267377 0.175974
0.085010 0.290100 0.156047
0.092301 0.290115 0.155861
0.119208 0.290328 0.155300
0.164871 0.290469 0.155036
0.222027 0.290696 0.155370
0.283672 0.290926 0.156150
0.349705 0.292774 0.157070
0.417884 0.294542 0.158287
0.487671 0.296443 0.159854
0.557853 0.298319 0.161877
0.627492 0.300170 0.164315
0.696555 0.302297 0.167147
0.764418 0.304816 0.170546
0.823456 0.307768 0.174384
0.849367 0.311007 0.178657
0.849369 0.314607 0.183383
0.114951 0.355016 0.170382
0.120766 0.355057 0.170217
0.144160 0.355000 0.169675
0.186166 0.354857 0.169087
0.239247 0.354593 0.168914
0.298836 0.354341 0.169436
0.361031 0.354193 0.170186
0.427511 0.355674 0.171117
0.496054 0.357255 0.172359
0.565157 0.358495 0.173874
0.633972 0.359460 0.175884
0.702301 0.360368 0.178363
0.769653 0.361395 0.181311
0.825931 0.362576 0.184701
0.849367 0.363782 0.188514
0.849370 0.365221 0.192602
0.147041 0.419374 0.187026
0.152320 0.419313 0.186814
0.173230 0.419135 0.186013
0.209639 0.418907 0.184732
0.259439 0.418323 0.184656
0.316234 0.417694 0.184821
0.376673 0.417065 0.185224
0.439376 0.416541 0.185889
