luts/JOKER-COLD.cube
LUT_3D_SIZE 16
-0.070171 -0.076517 -0.070171
-0.038680 -0.076517 -0.070171
0.061698 -0.070961 -0.064252
0.098692 -0.067872 -0.060949
0.138549 -0.065794 -0.058722
0.184383 -0.065205 -0.058192
0.240143 -0.066540 -0.059377
0.303980 -0.069846 -0.062168
0.381356 -0.070152 -0.061649
0.479728 -0.068863 -0.059926
0.591158 -0.067444 -0.058032
0.703155 -0.065979 -0.056073
0.785173 -0.064781 -0.054474
0.838116 -0.063909 -0.053298
0.866488 -0.063392 -0.052604
0.866489 -0.063392 -0.052604
-0.070171 -0.042175 -0.070171
-0.038680 -0.042175 -0.070171
0.061698 -0.047794 -0.064252
0.098692 -0.045772 -0.060949
0.138549 -0.042267 -0.058722
0.184383 -0.039518 -0.058192
0.240143 -0.038517 -0.059377
0.303980 -0.039544 -0.062168
0.381356 -0.037883 -0.061649
0.479728 -0.035009 -0.059926
0.591158 -0.032439 -0.058032
0.703155 -0.030315 -0.056073
0.785173 -0.029003 -0.054474
0.838116 -0.028537 -0.053298
0.866488 -0.028797 -0.052604
0.866489 -0.029474 -0.052604
-0.070019 0.074861 -0.070171
-0.048660 0.074861 -0.070171
0.059243 0.074588 -0.070127
0.097390 0.075315 -0.068680
0.143484 0.077228 -0.059264
0.204360 0.077819 -0.047373
0.276924 0.078129 -0.039422
0.357835 0.078726 -0.036248
0.445593 0.079002 -0.036290
0.541761 0.079206 -0.037419
0.643223 0.079353 -0.038077
0.740363 0.078976 -0.037963
0.814112 0.079704 -0.036897
0.864404 0.084079 -0.034640
0.897332 0.086923 -0.033022
0.899625 0.086101 -0.033204
-0.069935 0.118163 -0.070171
-0.049504 0.118163 -0.070171
0.054674 0.115699 -0.070171
0.091128 0.115994 -0.070124
0.134819 0.124659 -0.069669
0.184468 0.131769 -0.066041
0.248951 0.135889 -0.053465
0.346353 0.137520 -0.033658
0.457323 0.138375 -0.022346
0.579039 0.138287 -0.017110
0.703302 0.137303 -0.016171
0.804965 0.135377 -0.016487
0.873453 0.135801 -0.015575
0.919371 0.140790 -0.012741
0.951112 0.144435 -0.010569
0.954052 0.143430 -0.010927
-0.069854 0.164697 -0.070171
-0.048064 0.164697 -0.070171
0.050105 0.154411 -0.070171
0.092489 0.164774 -0.070170
0.125943 0.162091 -0.070118
0.176095 0.174771 -0.069869
0.241306 0.190269 -0.067637
0.316226 0.200280 -0.058199
0.421638 0.206492 -0.036718
0.564430 0.209539 -0.014446
0.712730 0.208789 -0.001201
0.829340 0.203410 0.004325
0.906723 0.199817 0.007096
0.958362 0.202626 0.009926
0.986202 0.206106 0.011936
0.986761 0.204983 0.011642
-0.069756 0.213121 -0.070171
-0.045961 0.213121 -0.070171
0.048454 0.209499 -0.070171
0.088488 0.211618 -0.070171
0.134863 0.228619 -0.070170
0.171110 0.222512 -0.070107
0.226448 0.233996 -0.069908
0.310599 0.261086 -0.068155
0.400443 0.277928 -0.061306
0.518045 0.290304 -0.041949
0.678227 0.295326 -0.010906
0.821143 0.288075 0.008476
0.910895 0.280659 0.017661
0.968615 0.280779 0.023248
0.998761 0.283195 0.026187
0.998787 0.281754 0.026003
-0.069665 0.273177 -0.070171
-0.043737 0.273177 -0.070171
0.043061 0.272868 -0.070171
0.085521 0.273926 -0.070171
0.132561 0.290874 -0.070171
0.186275 0.309222 -0.070171
0.228868 0.300670 -0.070100
0.291250 0.310138 -0.069891
0.393745 0.347436 -0.068671
0.505769 0.372543 -0.063188
0.634766 0.389949 -0.046882
0.776177 0.391558 -0.016509
0.883184 0.382116 0.007081
0.951634 0.377673 0.018679
0.995887 0.374975 0.025911
1.000024 0.371860 0.027082
-0.069545 0.353974 -0.070171
-0.041589 0.353974 -0.070171
0.035821 0.357122 -0.070171
0.083257 0.361163 -0.070171
0.130876 0.369995 -0.070171
0.188789 0.393969 -0.070171
0.251951 0.410477 -0.070171
0.304828 0.401920 -0.070081
0.374740 0.408170 -0.069870
0.498432 0.452714 -0.068860
0.628974 0.482427 -0.063655
0.749940 0.495803 -0.051150
0.842424 0.495809 -0.033349
0.908466 0.491862 -0.016279
0.957007 0.486005 -0.001831
0.963801 0.481704 0.001204
-0.069407 0.452786 -0.070171
-0.039662 0.452786 -0.070171
0.027516 0.463811 -0.070171
0.081081 0.472356 -0.070171
0.133924 0.480475 -0.070171
0.192125 0.493809 -0.070171
0.262824 0.517942 -0.070171
0.336878 0.531855 -0.070171
0.407637 0.531199 -0.070049
0.498183 0.540382 -0.069795
0.627795 0.574270 -0.068692
0.749647 0.592557 -0.064001
0.833812 0.595800 -0.056880
0.890170 0.595978 -0.049133
0.930426 0.593758 -0.041383
0.935455 0.589952 -0.039473
-0.069262 0.564548 -0.070171
-0.038025 0.564548 -0.070171
0.022799 0.578105 -0.070171
0.082260 0.594796 -0.070171
0.142775 0.611839 -0.070171
0.207403 0.625515 -0.070171
0.278389 0.638503 -0.070171
0.356894 0.651089 -0.070171
0.437238 0.656145 -0.070171
0.524618 0.657302 -0.069974
0.633668 0.669045 -0.069656
0.751209 0.684989 -0.068434
0.836457 0.687383 -0.065190
0.891431 0.686534 -0.061451
0.929618 0.684125 -0.057776
0.933659 0.680447 -0.056881
-0.069126 0.676833 -0.070171
-0.036782 0.676833 -0.070171
0.024656 0.689031 -0.070171
0.087431 0.704308 -0.070171
0.151009 0.720212 -0.070171
0.220224 0.736543 -0.070171
0.293509 0.747363 -0.070171
0.371635 0.754357 -0.070171
0.455953 0.760626 -0.070171
0.547145 0.762912 -0.070120
0.647665 0.765122 -0.069834
0.756748 0.772944 -0.069495
0.840902 0.774349 -0.068508
0.896292 0.771032 -0.066611
0.934622 0.766615 -0.064106
0.938633 0.762502 -0.063474
-0.068975 0.777209 -0.070171
-0.035979 0.777209 -0.070171
0.033513 0.786985 -0.070171
0.096874 0.799195 -0.070171
0.160492 0.811500 -0.070171
0.229155 0.823833 -0.070168
0.303748 0.834886 -0.069338
0.380716 0.839536 -0.067944
0.463931 0.843348 -0.066233
0.556071 0.846502 -0.068265
0.656292 0.848106 -0.069299
0.758304 0.850659 -0.069679
0.846277 0.856974 -0.069391
0.902308 0.853984 -0.068221
0.940434 0.847799 -0.059503
0.944522 0.843263 -0.057617
-0.068822 0.858377 -0.070171
-0.035696 0.858377 -0.070171
0.049923 0.864973 -0.070171
0.111712 0.873894 -0.070124
0.174167 0.883448 -0.066414
0.241343 0.892748 -0.059628
0.314523 0.901330 -0.052556
0.391552 0.906545 -0.047532
0.472586 0.908883 -0.044379
0.563796 0.911626 -0.044195
0.663093 0.913691 -0.048772
0.762391 0.915192 -0.055942
0.846007 0.918963 -0.060162
0.908351 0.923782 -0.057817
0.947615 0.918973 -0.049787
0.951192 0.914704 -0.048949
-0.061856 0.926942 -0.058998
-0.029282 0.926942 -0.058998
0.081378 0.931445 -0.055170
0.139126 0.937213 -0.046373
0.197918 0.943028 -0.036935
0.261972 0.949193 -0.027994
0.332863 0.955882 -0.019942
0.410437 0.962092 -0.013634
0.488973 0.963760 -0.010696
0.576189 0.964642 -0.009399
0.672202 0.965638 -0.013125
0.767582 0.965180 -0.022447
0.847196 0.966484 -0.031890
0.907788 0.970145 -0.036186
0.950844 0.971125 -0.012916
0.956114 0.968845 -0.007611
-0.025445 0.982587 -0.024981
0.005376 0.982587 -0.024981
0.119820 0.985156 -0.012634
0.175472 0.988279 -0.002682
0.232590 0.991448 0.004987
0.293775 0.994179 0.011005
0.359720 0.996533 0.015336
0.431302 0.997734 0.018031
0.507379 0.998013 0.018742
0.589704 0.997991 0.017404
0.679715 0.997895 0.013564
0.770779 0.997240 0.004493
0.847370 0.996970 -0.006508
0.905756 0.997976 -0.015797
0.950002 0.998318 0.057140
0.954006 0.997702 0.087605
-0.011674 1.022754 -0.014571
0.018091 1.022754 -0.014571
0.136704 1.022749 0.003065
0.192639 1.022754 0.012123
0.249315 1.022752 0.019336
0.309662 1.022748 0.024802
0.373970 1.022738 0.028091
0.442756 1.022697 0.029273
0.515469 1.022642 0.028520
0.595053 1.022594 0.025890
0.682971 1.022532 0.027343
0.772327 1.022465 0.026128
0.847673 1.022407 0.012389
0.905299 1.022369 -0.008186
0.950063 1.022422 0.091153
0.954229 1.022484 0.161157
-0.070171 -0.076517 -0.038680
-0.038680 -0.076517 -0.038680
0.061698 -0.070961 -0.043005
0.098692 -0.067872 -0.040696
0.138549 -0.065794 -0.037167
0.184383 -0.065205 -0.034650
0.240143 -0.066540 -0.033701
0.303980 -0.069846 -0.034420
0.381356 -0.070152 -0.032114
0.479728 -0.068863 -0.028964
0.591158 -0.067444 -0.026023
0.703155 -0.065979 -0.023475
0.785173 -0.064781 -0.021789
0.838116 -0.063909 -0.020990
0.866488 -0.063392 -0.021017
0.866489 -0.063392 -0.021641
-0.070171 -0.042175 -0.038680
-0.038680 -0.042175 -0.038680
0.061698 -0.036804 -0.032937
0.098692 -0.033808 -0.029734
0.138549 -0.031797 -0.027570
0.184383 -0.031226 -0.027050
0.240143 -0.032523 -0.028204
0.303980 -0.035722 -0.030921
0.381356 -0.036018 -0.030413
0.479728 -0.034768 -0.028735
0.591158 -0.033392 -0.026902
0.703155 -0.031979 -0.025002
0.785173 -0.030820 -0.023453
0.838116 -0.029973 -0.022306
0.866488 -0.029472 -0.021641
0.866489 -0.029472 -0.021641
-0.070019 0.074861 -0.048800
-0.038541 0.074861 -0.038680
0.059243 0.074588 -0.038640
0.097246 0.077131 -0.037387
0.142690 0.079372 -0.029040
0.203380 0.079555 -0.016933
0.276803 0.079259 -0.008684
0.358173 0.079394 -0.005534
0.445979 0.079306 -0.005684
0.541870 0.079241 -0.006885
0.642974 0.079209 -0.007581
0.740084 0.078714 -0.007501
0.813776 0.079403 -0.006471
0.864251 0.083832 -0.004269
0.897258 0.086808 -0.002662
0.899625 0.086101 -0.002804
-0.069935 0.118163 -0.049739
-0.038453 0.118163 -0.038680
0.056297 0.115930 -0.038680
0.091128 0.115994 -0.038635
0.134717 0.125182 -0.038218
0.184440 0.132434 -0.034827
0.248643 0.136456 -0.022737
0.346088 0.137938 -0.003384
0.457233 0.138529 0.006287
0.579041 0.138230 0.010424
0.703229 0.137079 0.011133
0.804780 0.135104 0.010869
0.873508 0.135530 0.011591
0.919352 0.140494 0.013834
0.951089 0.144177 0.015569
0.954053 0.143232 0.015304
-0.069854 0.164697 -0.048371
-0.038374 0.164697 -0.038680
0.051733 0.154619 -0.038680
0.093032 0.164858 -0.038679
0.125943 0.162091 -0.038631
0.176012 0.174978 -0.038396
0.241261 0.190567 -0.036247
0.316199 0.200479 -0.027124
0.421515 0.206629 -0.006265
0.564415 0.209471 0.012523
0.712747 0.208326 0.022980
0.829351 0.202679 0.028099
0.906638 0.198994 0.030817
0.958355 0.201815 0.033579
0.986156 0.205291 0.035553
0.986761 0.204246 0.035277
-0.069756 0.213121 -0.046357
-0.038285 0.213121 -0.038680
0.049662 0.209333 -0.038680
0.089102 0.211806 -0.038680
0.135075 0.228672 -0.038680
0.171110 0.222512 -0.038621
0.226385 0.234074 -0.038427
0.310569 0.261229 -0.036733
0.400429 0.278001 -0.030086
0.518070 0.290320 -0.011294
0.678279 0.295177 0.015335
0.821178 0.287520 0.032185
0.910906 0.279831 0.041152
0.968607 0.279895 0.046620
0.998744 0.282309 0.049499
0.998787 0.280905 0.049316
-0.069665 0.273177 -0.044230
-0.038189 0.273177 -0.038680
0.043974 0.272877 -0.038680
0.085928 0.273953 -0.038680
0.132813 0.290969 -0.038680
0.186374 0.309229 -0.038680
0.228868 0.300670 -0.038613
0.291224 0.310163 -0.038413
0.393712 0.347501 -0.037234
0.505768 0.372569 -0.031909
0.634773 0.389946 -0.016069
0.776235 0.391455 0.010916
0.883218 0.381835 0.030842
0.951668 0.377111 0.042177
0.995944 0.374430 0.049239
1.000024 0.371325 0.050382
-0.069545 0.353974 -0.042210
-0.038073 0.353974 -0.038680
0.036427 0.357154 -0.038680
0.083539 0.361143 -0.038680
0.131047 0.369979 -0.038680
0.188920 0.394081 -0.038680
0.252003 0.410487 -0.038680
0.304828 0.401920 -0.038598
0.374757 0.408218 -0.038390
0.498429 0.452729 -0.037410
0.628974 0.482371 -0.032354
0.749944 0.495717 -0.020209
0.842455 0.495712 -0.002920
0.908532 0.491760 0.011098
0.956998 0.485928 0.022487
0.963801 0.481620 0.025022
-0.069407 0.452786 -0.040402
-0.037943 0.452786 -0.038680
0.027825 0.463893 -0.038680
0.081219 0.472397 -0.038680
0.134018 0.480500 -0.038680
0.192221 0.493808 -0.038680
0.262811 0.517938 -0.038680
0.336899 0.531856 -0.038680
0.407637 0.531199 -0.038565
0.498187 0.540391 -0.038320
0.627796 0.574232 -0.037251
0.749646 0.592513 -0.032693
0.833813 0.595717 -0.025770
0.890173 0.595921 -0.018258
0.930433 0.593731 -0.010732
0.935455 0.589952 -0.008888
-0.069262 0.564548 -0.038904
-0.037802 0.564548 -0.038680
0.022846 0.578120 -0.038680
0.082293 0.594804 -0.038680
0.142785 0.611843 -0.038680
0.207446 0.625521 -0.038680
0.278400 0.638505 -0.038680
0.356902 0.651089 -0.038680
0.437181 0.656145 -0.038680
0.524618 0.657302 -0.038494
0.633667 0.669036 -0.038180
0.751208 0.684967 -0.037001
0.836455 0.687380 -0.033844
0.891429 0.686555 -0.030215
0.929616 0.684136 -0.026654
0.933659 0.680447 -0.025791
-0.069126 0.676833 -0.037790
-0.037666 0.676833 -0.038680
0.024486 0.688968 -0.038680
0.087335 0.704223 -0.038680
0.150960 0.720177 -0.038680
0.220165 0.736501 -0.038680
0.293456 0.747352 -0.038680
0.371640 0.754355 -0.038680
0.455925 0.760625 -0.038680
0.547186 0.762911 -0.038633
0.647665 0.765122 -0.038357
0.756738 0.772920 -0.038025
0.840900 0.774323 -0.037069
0.896290 0.771004 -0.035227
0.934620 0.766599 -0.032795
0.938633 0.762502 -0.032184
-0.068975 0.777209 -0.037137
-0.037520 0.777209 -0.038680
0.033220 0.786906 -0.038680
0.096731 0.799147 -0.038680
0.160397 0.811547 -0.038680
0.229053 0.823802 -0.038678
0.303678 0.834879 -0.037879
0.380644 0.839532 -0.036523
0.463859 0.843345 -0.034862
0.556002 0.846501 -0.036832
0.656280 0.848105 -0.037840
0.758304 0.850659 -0.038204
0.846275 0.856962 -0.037926
0.902305 0.853967 -0.036793
0.940432 0.847789 -0.028326
0.944522 0.843263 -0.026501
-0.068822 0.858377 -0.036993
-0.037380 0.858377 -0.038680
0.049614 0.864884 -0.038680
0.111528 0.873939 -0.038636
0.174044 0.883416 -0.035044
0.241238 0.892720 -0.028466
0.314488 0.901324 -0.021590
0.391436 0.906540 -0.016712
0.472500 0.908879 -0.013654
0.563768 0.911624 -0.013473
0.663035 0.913691 -0.017917
0.762377 0.915192 -0.024875
0.846007 0.918963 -0.028968
0.908348 0.923771 -0.026690
0.947614 0.918964 -0.018899
0.951192 0.914704 -0.018086
-0.061856 0.926942 -0.026508
-0.030610 0.926942 -0.027833
0.081150 0.931443 -0.024164
0.139004 0.937289 -0.015603
0.197815 0.943034 -0.006439
0.261905 0.949137 0.001875
0.332799 0.955867 0.008191
0.410353 0.962087 0.013168
0.488877 0.963759 0.015489
0.576138 0.964641 0.016509
0.672162 0.965638 0.013566
0.767564 0.965180 0.006218
0.847189 0.966484 -0.001529
0.907788 0.970145 -0.005697
0.950843 0.971121 0.013732
0.956113 0.968845 0.017923
-0.025445 0.982587 0.005827
0.003857 0.982587 0.004442
0.119524 0.985137 0.013943
0.175111 0.988372 0.021811
0.232132 0.991441 0.028772
0.293352 0.994178 0.034657
0.359320 0.996529 0.038882
0.430955 0.997733 0.041516
0.507106 0.998013 0.042216
0.589521 0.997991 0.040914
0.679632 0.997895 0.037159
0.770728 0.997240 0.028290
0.847355 0.996970 0.018795
0.905751 0.997976 0.011466
0.949948 0.998318 0.079917
0.953932 0.997702 0.110002
-0.011674 1.022754 0.015276
0.015955 1.022753 0.012429
0.135979 1.022749 0.026901
0.191824 1.022754 0.035742
0.248531 1.022752 0.042798
0.308992 1.022748 0.048150
0.373399 1.022738 0.051363
0.442304 1.022696 0.052519
0.515114 1.022642 0.051788
0.594831 1.022594 0.049201
0.682829 1.022532 0.050636
0.772208 1.022465 0.049443
0.847629 1.022407 0.036010
0.905294 1.022369 0.017463
0.949977 1.022422 0.113509
0.954243 1.022484 0.183205
-0.069352 -0.072740 0.062912
-0.048005 -0.072740 0.062912
0.064571 -0.072134 0.073811
0.102226 -0.070128 0.074350
0.140601 -0.068440 0.076818
0.185405 -0.067690 0.080282
0.236462 -0.068441 0.082765
0.295006 -0.070430 0.084310
0.373318 -0.071013 0.086355
0.471623 -0.069495 0.087111
0.582366 -0.067900 0.085725
0.696941 -0.066263 0.083266
0.782531 -0.064953 0.081878
0.837512 -0.064038 0.083743
0.866997 -0.063476 0.081746
0.866987 -0.063472 0.081259
-0.069352 -0.049524 0.062912
-0.037893 -0.038518 0.062912
0.064571 -0.037933 0.073811
0.102343 -0.036007 0.076205
0.140819 -0.034396 0.078742
0.185091 -0.033684 0.081546
0.236278 -0.034386 0.083657
0.294915 -0.036297 0.084870
0.373236 -0.036857 0.086630
0.471612 -0.035379 0.087150
0.582385 -0.033837 0.085559
0.696924 -0.032248 0.082992
0.782559 -0.030988 0.081571
0.837515 -0.030095 0.083503
0.866996 -0.029557 0.081623
0.866987 -0.029551 0.081259
-0.070171 0.072636 0.065520
-0.038680 0.072636 0.065520
0.054905 0.074573 0.065352
0.098078 0.071082 0.059583
0.134716 0.070396 0.059480
0.173493 0.070288 0.063474
0.220528 0.070022 0.064743
0.282392 0.068941 0.063545
0.361231 0.066976 0.061349
0.456987 0.063500 0.057838
0.568923 0.059447 0.053883
0.685068 0.056121 0.050770
0.776037 0.054932 0.049951
0.835079 0.057779 0.052937
0.873538 0.034774 0.028635
0.877255 0.024914 0.018391
-0.070150 0.119299 0.063353
-0.038665 0.118927 0.064826
0.052670 0.111351 0.060299
0.085967 0.105097 0.054614
0.133263 0.116911 0.052715
0.186513 0.122188 0.055327
0.261246 0.123073 0.057608
0.339789 0.124271 0.063135
0.424090 0.126079 0.065636
0.514179 0.128642 0.066096
0.619837 0.131968 0.065823
0.724511 0.134174 0.065299
0.805487 0.136304 0.066799
0.859845 0.141620 0.072229
0.902880 0.136341 0.060135
0.909730 0.130615 0.051534
-0.070059 0.168095 0.061974
-0.038578 0.168083 0.063752
0.050849 0.163050 0.059483
0.084819 0.153269 0.055744
0.112786 0.143234 0.050931
0.174518 0.170726 0.056169
0.237064 0.183976 0.059421
0.328043 0.191017 0.060118
0.445342 0.194822 0.059092
0.574489 0.197490 0.060689
0.702480 0.198304 0.063615
0.804788 0.197313 0.067795
0.873886 0.198561 0.074038
0.919586 0.204330 0.082975
0.957663 0.205086 0.081083
0.963872 0.202145 0.076703
-0.069949 0.219047 0.057561
-0.038474 0.219486 0.059069
0.044298 0.213363 0.053361
0.085001 0.209659 0.052518
0.120990 0.205642 0.052291
0.158121 0.204889 0.051623
0.225634 0.231971 0.053935
0.306975 0.256072 0.055208
0.402242 0.271738 0.057735
0.543468 0.281583 0.057575
0.707734 0.283324 0.057163
0.832069 0.276797 0.063788
0.913680 0.271835 0.071663
0.966720 0.273900 0.080135
0.996627 0.275461 0.082477
0.997619 0.273241 0.079640
-0.069821 0.283750 0.051645
-0.038344 0.284044 0.052660
0.036457 0.277709 0.046332
0.082186 0.275911 0.046132
0.124212 0.275730 0.047880
0.173678 0.288598 0.050372
0.220799 0.289489 0.050139
0.291404 0.309395 0.049726
0.391990 0.344019 0.050059
0.504924 0.368672 0.053325
0.648289 0.383851 0.058683
0.806006 0.379334 0.059303
0.908121 0.368054 0.067458
0.969947 0.364919 0.076263
1.000024 0.364213 0.081348
1.000024 0.361891 0.081088
-0.069673 0.364158 0.044038
-0.038201 0.364377 0.044643
0.027422 0.359733 0.038591
0.078485 0.361488 0.038049
0.126997 0.365476 0.041771
0.178953 0.375207 0.044641
0.242979 0.396288 0.047294
0.299210 0.394249 0.046741
0.375600 0.408310 0.045816
0.498608 0.451173 0.046056
0.629191 0.480304 0.050136
0.756198 0.492711 0.058469
0.858868 0.487344 0.067549
0.931700 0.478584 0.077648
0.983702 0.470726 0.080225
0.991175 0.466100 0.077962
-0.069510 0.462173 0.035529
-0.038043 0.462317 0.035817
0.018629 0.459206 0.030802
0.075337 0.469900 0.030062
0.131188 0.480872 0.035641
0.188986 0.489580 0.040066
0.254697 0.504655 0.043491
0.333007 0.526111 0.046038
0.406572 0.529485 0.045742
0.498519 0.540178 0.044844
0.629741 0.574538 0.045405
0.751483 0.592360 0.050036
0.836682 0.594256 0.058740
0.895345 0.592210 0.072169
0.940166 0.587467 0.085550
0.946671 0.582880 0.086458
-0.069338 0.572737 0.030802
-0.037879 0.572748 0.030845
0.013591 0.572062 0.026496
0.074754 0.585539 0.025691
0.137349 0.604770 0.033162
0.204068 0.622413 0.039659
0.275751 0.635925 0.044521
0.353414 0.647415 0.047196
0.437369 0.656867 0.048320
0.525820 0.658536 0.047573
0.635720 0.670386 0.047490
0.753234 0.685754 0.048054
0.838335 0.687221 0.054135
0.893259 0.685812 0.063180
0.932313 0.683095 0.075946
0.937038 0.679139 0.079062
-0.069211 0.682224 0.033592
-0.037752 0.682198 0.033442
0.014485 0.684083 0.028657
0.078707 0.697277 0.027274
0.144537 0.713980 0.035996
0.214393 0.730784 0.043674
0.290901 0.746503 0.049886
0.369241 0.753498 0.053343
0.453933 0.760153 0.054643
0.547889 0.764435 0.054528
0.649133 0.766688 0.053495
0.758623 0.774076 0.053189
0.842964 0.774870 0.056129
0.898476 0.771084 0.064967
0.937283 0.766675 0.076652
0.941641 0.762496 0.079381
-0.069090 0.781189 0.042526
-0.037633 0.781130 0.042267
0.021077 0.782700 0.036303
0.086927 0.793969 0.034103
0.153426 0.807074 0.043134
0.222888 0.819708 0.050933
0.298399 0.831717 0.057231
0.378216 0.839453 0.061197
0.461524 0.843040 0.062670
0.554912 0.846890 0.062716
0.656860 0.849549 0.061860
0.759842 0.852174 0.061224
0.848259 0.858207 0.063919
0.904387 0.854336 0.070497
0.943001 0.847933 0.081750
0.947404 0.843146 0.084167
-0.068997 0.861011 0.060389
-0.037539 0.861028 0.060102
0.033947 0.863042 0.049856
0.099501 0.871023 0.047198
0.165002 0.880314 0.055953
0.233394 0.889747 0.063691
0.307330 0.898755 0.070143
0.387561 0.906492 0.075152
0.469525 0.909137 0.077467
0.561106 0.911809 0.078433
0.662113 0.914615 0.078461
0.762304 0.916231 0.076821
0.846725 0.919855 0.077893
0.909236 0.924031 0.081849
0.949046 0.918847 0.088222
0.953209 0.914438 0.089673
-0.060941 0.929233 0.091170
-0.029725 0.929196 0.090942
0.057793 0.930764 0.073367
0.123822 0.936765 0.072914
0.187159 0.942517 0.080417
0.252695 0.948265 0.087164
0.324007 0.954290 0.093379
0.402755 0.960790 0.099014
0.484823 0.964392 0.102091
0.572528 0.965009 0.102511
0.669068 0.965659 0.101095
0.765822 0.965632 0.097557
0.846294 0.966555 0.094904
0.907430 0.970057 0.096082
0.951115 0.970523 0.104560
0.956827 0.968355 0.105724
-0.026006 0.983627 0.124697
0.003422 0.983616 0.124554
0.087975 0.984793 0.102852
0.155612 0.988204 0.107435
0.218285 0.991429 0.114446
0.282654 0.994219 0.120327
0.350483 0.996516 0.124370
0.423245 0.997544 0.126751
0.501303 0.998185 0.127477
0.584751 0.998076 0.125534
0.675514 0.997944 0.121485
0.767595 0.997258 0.115087
0.845386 0.996548 0.109589
0.904140 0.997608 0.107311
0.948682 0.998345 0.150092
0.953308 0.997383 0.166512
-0.015616 1.022838 0.136178
0.011604 1.022838 0.136079
0.072586 1.022793 0.078225
0.158599 1.022788 0.088617
0.224779 1.022786 0.097456
0.289919 1.022781 0.103485
0.357734 1.022771 0.107610
0.430463 1.022744 0.118773
0.507841 1.022699 0.133274
0.589426 1.022644 0.132830
0.677867 1.022581 0.131520
0.768316 1.022526 0.128644
0.844957 1.022456 0.120074
0.903180 1.022439 0.110252
0.948685 1.022455 0.178586
0.953572 1.022516 0.233732
-0.068911 -0.069196 0.103253
-0.048502 -0.069196 0.103253
0.062767 -0.071198 0.114586
0.103590 -0.069944 0.118794
0.145076 -0.069163 0.123866
0.184896 -0.069122 0.124368
0.228943 -0.069674 0.124737
0.285428 -0.071200 0.127405
0.364788 -0.072460 0.133128
0.461603 -0.070696 0.137244
0.574050 -0.068862 0.139573
0.690803 -0.067063 0.140556
0.780110 -0.065616 0.140610
0.836972 -0.064627 0.143043
0.867247 -0.064034 0.142403
0.867306 -0.064037 0.141716
-0.068911 -0.047065 0.103253
-0.037457 -0.035092 0.103253
0.064235 -0.036973 0.114484
0.103590 -0.035813 0.118794
0.145101 -0.035064 0.124469
0.185055 -0.035034 0.125050
0.228959 -0.035569 0.125178
0.285383 -0.037038 0.127655
0.364717 -0.038257 0.133239
0.461594 -0.036548 0.137269
0.574060 -0.034769 0.139496
0.690825 -0.033027 0.140440
0.780128 -0.031624 0.140450
0.836974 -0.030670 0.142921
0.867247 -0.030092 0.142361
0.867306 -0.030096 0.141717
-0.070171 0.073562 0.103577
-0.038680 0.075218 0.103937
0.038014 0.073917 0.094440
0.091657 0.075971 0.109653
0.135509 0.073022 0.109453
0.171605 0.069844 0.108578
0.212797 0.067336 0.108721
0.269245 0.065522 0.110933
0.346214 0.063594 0.114654
0.442196 0.060085 0.117210
0.557555 0.055921 0.118890
0.677185 0.052434 0.119784
0.772043 0.051248 0.120229
0.832993 0.053987 0.123320
0.873461 0.029157 0.109006
0.878057 0.019267 0.100871
-0.070171 0.104819 0.094364
-0.038680 0.104819 0.094364
0.047874 0.109515 0.098032
0.085765 0.117925 0.103502
0.134135 0.114206 0.096923
0.177675 0.106896 0.088186
0.222772 0.107092 0.092036
0.275191 0.108361 0.096790
0.347434 0.108753 0.098146
0.442957 0.107669 0.096262
0.561452 0.106402 0.094301
0.681541 0.105263 0.092964
0.777252 0.105862 0.093914
0.839040 0.110981 0.099293
0.882169 0.103432 0.092293
0.888471 0.097291 0.086378
-0.070171 0.159754 0.100478
-0.038680 0.159255 0.100689
0.050910 0.165447 0.104691
0.080502 0.149295 0.092225
0.121479 0.149112 0.089040
0.171139 0.156226 0.082903
0.242178 0.169663 0.083254
0.337767 0.173282 0.084440
0.430189 0.174266 0.091954
0.523416 0.177011 0.102563
0.631078 0.182486 0.107122
0.735812 0.187238 0.109700
0.816900 0.191324 0.113606
0.870964 0.198022 0.121185
0.912463 0.200703 0.122842
0.918560 0.198594 0.120322
-0.070091 0.226240 0.104489
-0.038605 0.226162 0.105085
0.045984 0.224882 0.104397
0.079293 0.212738 0.093806
0.114265 0.198128 0.087662
0.145984 0.186293 0.081295
0.226329 0.222995 0.085408
0.306908 0.246434 0.089982
0.415584 0.259760 0.092406
0.561885 0.266261 0.092795
0.704592 0.267522 0.098687
0.816586 0.264563 0.107604
0.891568 0.263455 0.116265
0.939440 0.268209 0.127651
0.975094 0.273165 0.135292
0.979686 0.272219 0.134966
