luts/LA_LA_LAND-DAWN.cube
LUT_3D_SIZE 6
0.002242 0.000000 0.003926
0.204091 0.003679 0.020880
0.435810 0.013326 0.038205
0.636265 0.026875 0.048448
0.829229 0.037272 0.065572
0.989467 0.043700 0.096017
0.012875 0.053015 0.031459
0.224279 0.114098 0.041387
0.474257 0.147377 0.051218
0.677874 0.158905 0.078865
0.871510 0.169838 0.116833
0.999399 0.175145 0.175476
0.044986 0.152390 0.040222
0.216804 0.211826 0.048735
0.475635 0.291681 0.064715
0.691201 0.350678 0.099717
0.877119 0.366735 0.132329
0.999992 0.371281 0.171517
0.119470 0.295418 0.044480
0.261545 0.371730 0.056211
0.478499 0.437759 0.062881
0.689740 0.519930 0.113791
0.886544 0.577417 0.164298
1.000010 0.583105 0.198866
0.254959 0.476031 0.055372
0.378040 0.557164 0.062333
0.536200 0.630644 0.062382
0.686021 0.679747 0.073135
0.860325 0.744534 0.144377
0.999597 0.792541 0.245309
0.451929 0.670570 0.058366
0.546383 0.739649 0.058387
0.622422 0.796443 0.057122
0.714480 0.843108 0.052066
0.827645 0.874067 0.065678
0.978958 0.936111 0.247693
0.031785 0.019916 0.165053
0.130403 0.020045 0.187482
0.383821 0.011719 0.209634
0.626234 0.017412 0.232392
0.831051 0.033975 0.258197
0.991275 0.045240 0.289551
0.050938 0.083245 0.228007
0.173811 0.120354 0.250897
0.445617 0.153760 0.267127
0.676762 0.166347 0.281523
0.875728 0.174503 0.313227
0.999650 0.180526 0.363514
0.079116 0.196926 0.253518
0.184665 0.248454 0.257622
0.454552 0.328186 0.269952
0.690583 0.372114 0.298225
0.881210 0.374935 0.326989
1.000012 0.378161 0.364101
0.131530 0.345290 0.237466
0.228929 0.403022 0.239949
0.441213 0.465131 0.217920
0.688437 0.544611 0.279191
0.890373 0.586995 0.344421
1.000019 0.591466 0.380832
0.261798 0.511989 0.185243
0.362460 0.579972 0.187611
0.519478 0.649513 0.171612
0.687391 0.703592 0.174462
0.867922 0.761346 0.279981
0.999770 0.802335 0.416222
0.452626 0.691593 0.111504
0.547917 0.758296 0.104202
0.630647 0.816531 0.097460
0.726210 0.863769 0.096974
0.840605 0.894431 0.126848
0.981632 0.946387 0.420752
0.054250 0.061419 0.301720
0.077447 0.067236 0.312470
0.247031 0.049648 0.329254
0.554224 0.026512 0.358616
0.815072 0.030299 0.428068
0.991404 0.043177 0.486885
0.068088 0.126380 0.376401
0.104765 0.157738 0.413984
0.302535 0.172712 0.424371
0.623436 0.176326 0.437316
0.868372 0.177869 0.497023
0.999638 0.183161 0.554208
0.125958 0.218078 0.424059
0.176035 0.269930 0.465084
0.374225 0.326162 0.478207
0.667502 0.372629 0.496301
0.881223 0.379784 0.526775
1.000012 0.382493 0.559355
0.165479 0.373448 0.470519
0.214167 0.428562 0.495811
0.396768 0.489200 0.474248
0.676131 0.567506 0.489370
0.882855 0.601171 0.520474
1.000017 0.596750 0.563778
0.257302 0.556110 0.450739
0.337509 0.609164 0.451950
0.493489 0.664260 0.415031
0.686335 0.720129 0.399182
0.873153 0.775325 0.481609
0.999840 0.809679 0.589192
0.473068 0.721834 0.319805
0.557354 0.777518 0.300679
0.642145 0.830995 0.276658
0.739425 0.877898 0.298503
0.850390 0.907361 0.337743
0.981986 0.950644 0.608677
0.057570 0.132590 0.447673
0.059857 0.141852 0.447995
0.117089 0.134854 0.457774
0.386455 0.093000 0.452272
0.725218 0.054719 0.473220
0.969694 0.049512 0.599959
0.055757 0.202985 0.530609
0.072277 0.236882 0.571258
0.164555 0.249157 0.586336
0.477965 0.232917 0.553945
0.800430 0.208752 0.564342
0.987368 0.200707 0.665610
0.099109 0.274445 0.579107
0.130665 0.322761 0.631895
0.251237 0.364180 0.656140
0.548661 0.391365 0.631341
0.839103 0.393086 0.643954
0.997657 0.389466 0.711868
0.148773 0.385244 0.624011
0.169053 0.443247 0.672847
0.324384 0.500169 0.685839
0.621280 0.561550 0.668881
0.869078 0.593435 0.691107
0.999462 0.598661 0.730232
0.160130 0.562294 0.664566
0.203823 0.615630 0.692875
0.386467 0.663928 0.680396
0.658419 0.726384 0.638628
0.868333 0.786850 0.668136
0.999206 0.823897 0.712744
0.348093 0.741873 0.624945
0.420018 0.785054 0.630633
0.557963 0.828525 0.594413
0.730426 0.878551 0.560113
0.861138 0.911480 0.561035
0.977397 0.950307 0.739289
0.051695 0.234238 0.614002
0.055420 0.245327 0.613698
0.071560 0.241076 0.605534
0.223288 0.220147 0.610916
0.593794 0.158782 0.556859
0.881314 0.115001 0.571078
0.058056 0.303521 0.690949
0.081476 0.337862 0.726393
0.128551 0.350794 0.737153
0.346860 0.344254 0.722074
0.707699 0.299245 0.659708
0.924838 0.270373 0.665644
0.079860 0.369861 0.737174
0.118721 0.411943 0.778543
0.207227 0.444564 0.801361
0.446689 0.463235 0.780522
0.760695 0.443545 0.724900
0.952868 0.424145 0.738694
0.098572 0.452352 0.766268
0.132419 0.500177 0.805789
0.269012 0.542505 0.825698
0.548352 0.585787 0.805293
0.813260 0.598920 0.777271
0.975048 0.598698 0.804281
0.082179 0.575196 0.789637
0.122569 0.623249 0.825150
0.303133 0.663649 0.836954
0.612992 0.716890 0.808459
0.846639 0.766012 0.800970
0.986678 0.798301 0.846366
0.105024 0.725848 0.808185
0.171539 0.763731 0.835077
0.356727 0.798892 0.833453
0.643912 0.849732 0.786126
0.856810 0.907233 0.749525
0.975902 0.956481 0.839287
0.068861 0.350886 0.769866
0.077851 0.364229 0.774126
0.083338 0.361350 0.759217
0.145028 0.360984 0.766683
0.454131 0.328384 0.746285
0.830240 0.242612 0.663356
0.099438 0.408197 0.832136
0.131188 0.436264 0.855212
0.165443 0.448580 0.859151
0.286477 0.457986 0.857503
0.606581 0.424042 0.813313
0.885854 0.355350 0.742397
0.126947 0.464758 0.870028
0.177470 0.496027 0.893336
0.244226 0.520135 0.905304
0.402866 0.544009 0.899653
0.697497 0.525606 0.852984
0.913593 0.473613 0.797308
0.142942 0.533969 0.892687
0.204910 0.568106 0.914886
0.299239 0.597671 0.923943
0.509137 0.633985 0.911133
0.768642 0.638724 0.873607
0.926926 0.611333 0.840177
0.136761 0.623451 0.905279
0.216411 0.660267 0.927398
0.342678 0.689056 0.930039
0.597513 0.725031 0.905285
0.819240 0.757402 0.883466
0.940377 0.768001 0.873734
0.128758 0.729119 0.910192
0.222006 0.761071 0.929271
0.382350 0.784704 0.926526
0.662196 0.817453 0.899023
0.857409 0.877869 0.890177
0.954989 0.931003 0.887899
