luts/LA_LA_LAND-DAWN.cube
LUT_3D_SIZE 16
0.002242 0.000000 0.003926
0.051525 0.000932 0.006325
0.121036 0.001852 0.013191
0.204091 0.003679 0.020880
0.286958 0.006074 0.028383
0.363510 0.009646 0.034334
0.435810 0.013326 0.038205
0.504122 0.017800 0.041730
0.570379 0.022161 0.045354
0.636265 0.026875 0.048448
0.701583 0.030638 0.051621
0.765983 0.034291 0.057647
0.829229 0.037272 0.065572
0.891344 0.039773 0.074171
0.950014 0.042020 0.084661
0.989467 0.043700 0.096017
0.004986 0.012924 0.014832
0.055949 0.019460 0.020003
0.130798 0.027059 0.024476
0.221821 0.033721 0.028706
0.305034 0.037647 0.036781
0.381766 0.041495 0.044062
0.453802 0.045726 0.050384
0.523888 0.050732 0.054390
0.591910 0.055457 0.060826
0.659182 0.059606 0.067368
0.725863 0.063488 0.076404
0.791547 0.066972 0.086353
0.855717 0.069267 0.097975
0.917839 0.070871 0.111080
0.968035 0.072953 0.126064
0.995877 0.075961 0.142993
0.008254 0.030851 0.024578
0.057479 0.042287 0.029517
0.133695 0.060663 0.031859
0.239066 0.090369 0.022895
0.326146 0.099810 0.022461
0.394636 0.089004 0.044231
0.466762 0.090649 0.052957
0.536464 0.094436 0.060170
0.604836 0.099621 0.066866
0.672212 0.104218 0.076490
0.738771 0.108516 0.087633
0.804718 0.111768 0.099673
0.869315 0.113718 0.113865
0.931435 0.114740 0.129726
0.976455 0.116333 0.148745
0.998564 0.119866 0.170740
0.012875 0.053015 0.031459
0.059744 0.067205 0.036637
0.129212 0.086817 0.040374
0.224279 0.114098 0.041387
0.321496 0.145231 0.033431
0.401603 0.150288 0.038779
0.474257 0.147377 0.051218
0.543958 0.149234 0.060477
0.611554 0.153760 0.069207
0.677874 0.158905 0.078865
0.742993 0.163501 0.090563
0.807809 0.167543 0.102808
0.871510 0.169838 0.116833
0.933421 0.170982 0.132491
0.978099 0.172261 0.152204
0.999399 0.175145 0.175476
0.019951 0.079579 0.036409
0.064108 0.096837 0.040387
0.128172 0.116442 0.044473
0.216422 0.139390 0.048149
0.311007 0.168008 0.048629
0.399004 0.191397 0.048839
0.477570 0.204238 0.052678
0.549381 0.210151 0.061514
0.616857 0.213904 0.072383
0.682109 0.219655 0.082355
0.745809 0.224805 0.093567
0.808754 0.229125 0.105649
0.871219 0.232426 0.117923
0.932311 0.234229 0.131755
0.978086 0.235542 0.149185
0.999762 0.237327 0.169810
0.029931 0.112847 0.038832
0.072086 0.130610 0.042993
0.131516 0.150551 0.046691
0.214274 0.173319 0.048970
0.304973 0.198077 0.051723
0.394752 0.225781 0.054883
0.477824 0.251740 0.059389
0.552671 0.268495 0.067401
0.621604 0.277548 0.078809
0.686862 0.284416 0.089527
0.749852 0.290237 0.099928
0.811733 0.294645 0.111757
0.873081 0.298234 0.123224
0.933301 0.300533 0.135383
0.978692 0.302043 0.150441
0.999895 0.303211 0.167663
0.044986 0.152390 0.040222
0.085399 0.171905 0.044151
0.141136 0.191434 0.047181
0.216804 0.211826 0.048735
0.302790 0.235867 0.050806
0.390920 0.263052 0.055310
0.475635 0.291681 0.064715
0.553596 0.318212 0.076984
0.624912 0.337899 0.088671
0.691201 0.350678 0.099717
0.754462 0.358571 0.109543
0.816108 0.363494 0.120621
0.877119 0.366735 0.132329
0.936334 0.369093 0.143235
0.980123 0.370399 0.156249
0.999992 0.371281 0.171517
0.065142 0.195701 0.041437
0.103710 0.217273 0.045583
0.156406 0.238907 0.048085
0.226121 0.260132 0.049448
0.305328 0.280991 0.051436
0.389414 0.304133 0.056015
0.473229 0.333449 0.065661
0.552358 0.364793 0.079823
0.625655 0.393235 0.095651
0.693879 0.414234 0.109433
0.758494 0.427240 0.120911
0.820755 0.434248 0.131836
0.881735 0.437711 0.143174
0.940115 0.439479 0.153553
0.981577 0.440331 0.164969
1.000012 0.441111 0.178739
0.089911 0.243341 0.041622
0.127340 0.266604 0.047082
0.176982 0.290531 0.049883
0.240573 0.314074 0.052625
0.314091 0.336157 0.054116
0.393282 0.357067 0.056771
0.473064 0.379755 0.064744
0.550258 0.408648 0.078687
0.623656 0.441622 0.096550
0.693533 0.470793 0.115276
0.760119 0.491738 0.131022
0.824029 0.503638 0.143660
0.885535 0.509003 0.154387
0.943058 0.510798 0.164384
0.982657 0.511482 0.174763
1.000010 0.511781 0.187618
0.119470 0.295418 0.044480
0.156774 0.320482 0.049926
0.203492 0.346093 0.053873
0.261545 0.371730 0.056211
0.329610 0.396018 0.057500
0.403728 0.417697 0.059295
0.478499 0.437759 0.062881
0.550853 0.460359 0.073149
0.620912 0.488394 0.091261
0.689740 0.519930 0.113791
0.757504 0.547934 0.134561
0.823422 0.567207 0.151714
0.886544 0.577417 0.164298
0.944116 0.581424 0.174300
0.983202 0.582664 0.184757
1.000010 0.583105 0.198866
0.156598 0.352145 0.048609
0.194034 0.378390 0.053172
0.237483 0.405166 0.056602
0.290753 0.432056 0.059296
0.353498 0.458224 0.061301
0.421922 0.481688 0.061301
0.490916 0.501727 0.062134
0.557133 0.520593 0.067591
0.620920 0.542145 0.080930
0.684844 0.568999 0.102184
0.750642 0.597907 0.126854
0.817310 0.622909 0.149517
0.882718 0.639924 0.167224
0.942710 0.648991 0.180732
0.982853 0.652849 0.194967
1.000005 0.654469 0.212576
0.202483 0.412780 0.052643
0.238905 0.439784 0.056602
0.280277 0.466991 0.059296
0.329608 0.494217 0.061733
0.386801 0.520941 0.063065
0.448634 0.545823 0.063375
0.510706 0.567243 0.062382
0.569961 0.585300 0.063971
0.626380 0.602179 0.071212
0.682938 0.622181 0.087010
0.742840 0.646714 0.110286
0.807061 0.672788 0.136474
0.873410 0.695364 0.160563
0.937026 0.711102 0.181450
0.981074 0.720072 0.202955
0.999943 0.725157 0.229086
0.254959 0.476031 0.055372
0.291822 0.503309 0.058548
0.332128 0.530373 0.061084
0.378040 0.557164 0.062333
0.428816 0.583322 0.063375
0.482526 0.608222 0.063375
0.536200 0.630644 0.062382
0.587829 0.649340 0.062134
0.637055 0.664702 0.064538
0.686021 0.679747 0.073135
0.738323 0.697935 0.090699
0.796450 0.720445 0.115921
0.860325 0.744534 0.144377
0.925994 0.765933 0.172859
0.976403 0.781505 0.205619
0.999597 0.792541 0.245309
0.315471 0.540983 0.058037
0.352516 0.567874 0.059807
0.391423 0.594133 0.060977
0.432889 0.619686 0.062134
0.476411 0.644340 0.062311
0.520660 0.667971 0.062246
0.564798 0.689802 0.061404
0.608291 0.708940 0.060024
0.650992 0.724708 0.059991
0.693733 0.737734 0.062679
0.738594 0.751225 0.073331
0.788989 0.768224 0.092789
0.846604 0.789922 0.120595
0.910090 0.813096 0.154774
0.966647 0.834141 0.199294
0.997728 0.851915 0.255723
0.382410 0.606136 0.058366
0.418475 0.631940 0.059644
0.454550 0.657022 0.059807
0.490173 0.680544 0.060884
0.525132 0.703171 0.060884
0.559435 0.724424 0.059807
0.593903 0.744616 0.059807
0.629347 0.763238 0.058548
0.665985 0.779144 0.057282
0.703787 0.792256 0.056469
0.743065 0.803714 0.060359
0.786065 0.816230 0.071653
0.835656 0.832779 0.093683
0.892954 0.854083 0.128938
0.951791 0.877556 0.183840
0.991344 0.899909 0.255987
0.451929 0.670570 0.058366
0.485601 0.695063 0.058387
0.517389 0.718296 0.058387
0.546383 0.739649 0.058387
0.572559 0.759524 0.058387
0.597203 0.778233 0.057549
0.622422 0.796443 0.057122
0.650076 0.813584 0.055905
0.680944 0.829357 0.054542
0.714480 0.843108 0.052066
0.749860 0.854169 0.050799
0.786750 0.863332 0.053337
0.827645 0.874067 0.065678
0.876347 0.891101 0.098685
0.932574 0.913651 0.161159
0.978958 0.936111 0.247693
0.010695 0.004184 0.068008
0.049565 0.005018 0.074846
0.105955 0.005781 0.082518
0.182021 0.006203 0.089796
0.266641 0.006986 0.095833
0.348336 0.008187 0.099977
0.425174 0.010717 0.102849
0.497611 0.014230 0.105398
0.566868 0.018246 0.108026
0.634655 0.023072 0.112232
0.701428 0.027735 0.117035
0.766696 0.032716 0.123666
0.830360 0.036700 0.131479
0.892989 0.040161 0.140700
0.951463 0.042555 0.150476
0.990122 0.044289 0.161109
0.014086 0.018843 0.084337
0.055503 0.023629 0.091345
0.117816 0.029289 0.099167
0.202096 0.034351 0.105935
0.288311 0.037974 0.111027
0.369312 0.041093 0.114319
0.445604 0.044435 0.117407
0.519200 0.048511 0.120569
0.589841 0.053104 0.125470
0.658655 0.057837 0.132469
0.726356 0.062289 0.141155
0.792577 0.066313 0.151195
0.857170 0.069325 0.162505
0.919389 0.071656 0.175347
0.969043 0.074226 0.189677
0.996286 0.077375 0.205575
0.018623 0.038882 0.097713
0.060045 0.048419 0.103485
0.125600 0.063532 0.109870
0.217712 0.078998 0.114849
0.310140 0.091017 0.117698
0.386865 0.090645 0.121799
0.461689 0.092320 0.125269
0.533550 0.095384 0.129171
0.603991 0.100140 0.134440
0.672546 0.104900 0.142555
0.739827 0.109061 0.152890
0.806135 0.112506 0.164722
0.871083 0.114685 0.178176
0.933064 0.115896 0.193555
0.977363 0.117982 0.211729
0.998714 0.121871 0.232243
0.024312 0.064218 0.107239
0.063532 0.077183 0.111548
0.124616 0.095502 0.115633
0.216155 0.121065 0.119262
0.320875 0.157503 0.117978
0.404587 0.168800 0.118292
0.472055 0.154325 0.127083
0.542848 0.154104 0.132898
0.611530 0.156732 0.138956
0.678665 0.161476 0.146522
0.744393 0.165734 0.156419
0.809151 0.169394 0.168250
0.873171 0.171643 0.181257
0.934835 0.172673 0.196527
0.978962 0.174200 0.215400
0.999484 0.177255 0.237199
0.030608 0.094429 0.113306
0.067418 0.110239 0.115416
0.122949 0.127932 0.117909
0.206806 0.151014 0.120261
0.303452 0.179945 0.122675
0.397327 0.209875 0.123660
0.476918 0.220045 0.126966
0.548627 0.218132 0.134989
0.617206 0.219778 0.142744
0.683029 0.223416 0.151272
0.747182 0.228003 0.159900
0.810265 0.231873 0.170949
0.872778 0.234762 0.182409
0.933872 0.236330 0.196006
0.978957 0.237747 0.212865
0.999832 0.239793 0.232679
0.038654 0.128732 0.114936
0.073106 0.145366 0.116046
0.124623 0.164304 0.116641
0.201627 0.185478 0.117139
0.292855 0.209708 0.119406
0.387433 0.239267 0.124547
0.474276 0.264195 0.131089
0.551433 0.278570 0.138807
0.621696 0.285340 0.147730
0.687652 0.289027 0.157944
0.751143 0.293965 0.166766
0.813162 0.297868 0.176515
0.874673 0.300813 0.187814
0.934736 0.302962 0.199490
0.979546 0.304355 0.214023
0.999936 0.305902 0.231257
0.049483 0.169384 0.112879
0.083292 0.186886 0.114258
0.131088 0.204598 0.113934
0.201592 0.224318 0.112380
0.287485 0.247970 0.112821
0.379347 0.274119 0.118310
0.469222 0.302186 0.129421
0.551273 0.328748 0.142040
0.624507 0.346368 0.154099
0.691826 0.355941 0.165921
0.755580 0.362416 0.175646
0.817598 0.366945 0.185224
0.878726 0.369643 0.195977
0.937821 0.371523 0.207149
0.980830 0.372789 0.219960
1.000009 0.374122 0.234918
0.065563 0.213084 0.108415
0.099184 0.232351 0.110183
0.144911 0.251980 0.110540
0.209521 0.271674 0.108606
0.287786 0.291763 0.107439
0.374994 0.315988 0.110388
0.464032 0.344263 0.120514
0.548179 0.374076 0.137927
0.624813 0.400484 0.156682
0.694504 0.419663 0.172979
0.759687 0.431346 0.185145
0.822193 0.437675 0.195426
0.883435 0.440683 0.205594
0.941579 0.441984 0.216301
0.982207 0.442960 0.227530
1.000010 0.444086 0.241230
0.088758 0.260193 0.102768
0.122086 0.281365 0.106213
0.165884 0.303055 0.107681
0.225026 0.324810 0.106506
0.296700 0.346093 0.104503
0.377560 0.367007 0.104363
0.461762 0.389922 0.110263
0.544424 0.419245 0.126388
0.621859 0.450382 0.149637
0.693894 0.477530 0.172679
0.761416 0.496611 0.191328
0.825771 0.507449 0.204896
0.887335 0.512111 0.215264
0.944527 0.513567 0.225246
0.983261 0.514196 0.235740
1.000013 0.514967 0.248636
0.118623 0.311203 0.097492
0.152391 0.334205 0.101566
0.194620 0.357654 0.104107
0.248277 0.381588 0.104659
0.314119 0.404912 0.103176
0.388883 0.426604 0.101025
0.467061 0.447280 0.102342
0.544090 0.470003 0.112349
0.618353 0.497492 0.134316
0.689849 0.527974 0.162204
0.758998 0.554122 0.188229
0.825298 0.571777 0.208106
0.888405 0.580904 0.221897
0.945709 0.584396 0.232569
0.983920 0.585622 0.243593
1.000013 0.586572 0.258075
0.156927 0.366265 0.093005
0.191303 0.390734 0.097786
0.230950 0.415521 0.100659
0.280306 0.440877 0.101355
0.340618 0.466041 0.100764
0.409204 0.489511 0.098537
0.480812 0.510232 0.096279
0.550923 0.529765 0.100263
0.618319 0.551546 0.114973
0.684828 0.577433 0.141385
0.752113 0.604832 0.172033
0.819444 0.628148 0.200032
0.884950 0.643926 0.220905
0.944390 0.652352 0.236061
0.983649 0.656065 0.251121
1.000009 0.658096 0.270252
0.203610 0.425077 0.089153
0.237444 0.450567 0.092920
0.275642 0.476236 0.095353
0.321888 0.502272 0.096614
0.377090 0.528071 0.096541
0.438747 0.552769 0.094284
0.502776 0.574781 0.091791
0.565046 0.593599 0.091004
0.624343 0.611199 0.097872
0.683093 0.631017 0.116883
0.744543 0.654550 0.145592
0.809524 0.679240 0.177952
0.875924 0.700480 0.207255
0.939148 0.715181 0.231715
0.981861 0.723826 0.256099
0.999975 0.728784 0.285155
0.256482 0.486721 0.084169
0.291019 0.512866 0.087468
0.328996 0.538779 0.089043
0.372620 0.564604 0.089870
0.422166 0.590170 0.089864
0.475904 0.614825 0.088864
0.531051 0.637412 0.086176
0.584749 0.656757 0.083742
0.636207 0.672907 0.085051
0.686856 0.688170 0.095029
0.740156 0.706160 0.116397
0.799004 0.727737 0.147232
0.863151 0.750649 0.181956
0.928504 0.771000 0.216523
0.977442 0.785830 0.254552
0.999684 0.796384 0.299765
0.316427 0.550311 0.078853
0.352032 0.576328 0.080525
0.389350 0.601834 0.081556
0.429722 0.626767 0.082450
0.472681 0.651021 0.082363
0.517200 0.674458 0.081360
0.562432 0.696387 0.079233
0.607366 0.715968 0.076632
0.651476 0.732074 0.075296
0.695323 0.745449 0.078233
0.741119 0.759120 0.090314
0.792066 0.775808 0.114316
0.850087 0.796635 0.148272
0.913381 0.818874 0.189833
0.968421 0.839027 0.242954
0.997864 0.855933 0.308511
0.383118 0.614309 0.072387
0.418397 0.639668 0.073583
0.453655 0.664145 0.073583
0.489080 0.687398 0.073443
0.524078 0.709622 0.073443
0.558944 0.731005 0.072706
0.594184 0.751246 0.071254
0.630497 0.769875 0.069792
0.668007 0.786219 0.067267
0.706440 0.799720 0.066487
0.746377 0.811258 0.071390
0.789931 0.823484 0.085003
0.839633 0.839792 0.111835
0.896703 0.860341 0.155145
0.954037 0.882862 0.221378
0.991696 0.904232 0.307498
0.452777 0.677913 0.066470
0.486249 0.702037 0.066470
0.517917 0.725007 0.065375
0.547118 0.746229 0.065259
0.573786 0.766031 0.064529
0.598962 0.785080 0.063921
0.624907 0.803091 0.062872
0.653057 0.820418 0.061502
0.684453 0.836335 0.060065
0.718464 0.850125 0.057656
0.754056 0.861433 0.056591
0.791303 0.870555 0.059662
0.832458 0.881261 0.075766
0.880778 0.897702 0.116587
0.935585 0.919017 0.193466
0.979943 0.939888 0.298412
0.021334 0.011198 0.117418
0.049219 0.012173 0.125822
0.091431 0.012100 0.134087
0.156888 0.011134 0.142037
0.240741 0.009697 0.149415
0.326817 0.009131 0.155227
0.409759 0.009679 0.159806
0.487837 0.011651 0.163688
0.561344 0.015319 0.167746
0.631863 0.019812 0.172736
0.700321 0.025141 0.178686
0.766686 0.030520 0.186033
0.831156 0.035754 0.194444
0.894081 0.040027 0.203579
0.952440 0.042988 0.213798
0.990815 0.045243 0.224573
0.026176 0.026040 0.139001
0.055909 0.030281 0.147577
0.102536 0.034330 0.155946
0.174015 0.037470 0.163587
0.260744 0.040217 0.169860
0.348422 0.041947 0.174637
0.432468 0.044381 0.178451
0.511461 0.047640 0.182495
0.585813 0.051335 0.187890
0.656999 0.056053 0.195091
0.725947 0.060902 0.203973
0.793067 0.065426 0.214460
0.858202 0.069096 0.225946
0.920648 0.071947 0.238625
0.969858 0.074692 0.252679
0.996662 0.078568 0.267621
0.031109 0.046616 0.157671
0.062385 0.054992 0.165131
0.112166 0.064423 0.172755
0.190809 0.075184 0.180174
0.281143 0.083764 0.185775
0.368693 0.089372 0.189365
0.450552 0.093020 0.192094
0.527772 0.096719 0.195144
0.601389 0.100867 0.200260
0.671894 0.105326 0.207586
0.740158 0.109461 0.217547
0.806855 0.112985 0.229124
0.872310 0.115411 0.242386
0.934382 0.116850 0.257364
0.978115 0.119030 0.274607
0.998840 0.123519 0.293856
0.037565 0.074151 0.171119
0.068351 0.086331 0.176866
0.117797 0.100682 0.182416
0.199700 0.121062 0.188536
0.295465 0.140573 0.193950
0.388016 0.156155 0.197518
0.465357 0.156563 0.200064
0.539359 0.157489 0.203050
0.610136 0.159826 0.207352
0.678636 0.164034 0.213611
0.745265 0.167978 0.222246
0.810482 0.171190 0.233306
0.874669 0.173229 0.245912
0.936346 0.174197 0.260702
0.979783 0.175689 0.278756
0.999592 0.179155 0.299301
0.044165 0.107427 0.180150
0.073597 0.121948 0.183612
0.120048 0.138029 0.186568
0.196174 0.159438 0.189788
0.292651 0.187066 0.194530
0.394959 0.223091 0.199162
0.479582 0.241927 0.201040
0.547395 0.227436 0.206768
0.616703 0.225604 0.212650
0.683431 0.227438 0.219171
0.748116 0.231236 0.226589
0.811600 0.234557 0.236115
0.874303 0.236874 0.247375
0.935209 0.238241 0.260395
0.979649 0.239533 0.276650
0.999797 0.241824 0.295651
0.052046 0.143575 0.184081
0.079453 0.159523 0.186006
0.122427 0.176928 0.186516
0.191204 0.196350 0.186607
0.281335 0.221242 0.189225
0.379562 0.251862 0.195592
0.472111 0.281987 0.202568
0.550614 0.295843 0.208104
0.621120 0.293796 0.216634
0.688007 0.295427 0.224821
0.751947 0.297770 0.233393
0.814467 0.301142 0.241949
0.876223 0.303442 0.252285
0.936218 0.305001 0.264062
0.980116 0.306343 0.278217
0.999961 0.308035 0.294922
0.060752 0.184803 0.183163
0.088077 0.200668 0.184644
0.127551 0.217436 0.183667
0.190358 0.237280 0.181309
0.273457 0.259623 0.180507
0.367383 0.285305 0.185234
0.462623 0.316006 0.196629
0.548361 0.341856 0.209429
0.623383 0.356659 0.220499
0.691697 0.363739 0.230792
0.756421 0.366960 0.241253
0.818647 0.370212 0.250300
0.880161 0.372486 0.259885
0.939219 0.373692 0.271352
0.981387 0.374952 0.283876
1.000009 0.376457 0.298685
0.073599 0.229802 0.178307
0.101044 0.247212 0.179947
0.139495 0.264888 0.179275
0.196755 0.283005 0.175795
0.271894 0.303314 0.171979
0.360694 0.327921 0.172720
0.453980 0.355321 0.182496
0.543133 0.384111 0.200463
0.623115 0.409939 0.220161
0.694301 0.427055 0.236296
0.760462 0.436037 0.249533
0.823430 0.440976 0.259687
0.884632 0.443521 0.268900
0.942796 0.444418 0.279179
0.982751 0.445145 0.290793
1.000015 0.446517 0.304199
0.093563 0.277493 0.170281
0.121920 0.296541 0.172971
0.159264 0.315979 0.173279
0.212348 0.335969 0.170465
0.280522 0.356113 0.165377
0.361510 0.376783 0.161674
0.449856 0.401410 0.165917
0.537720 0.430143 0.182320
0.619468 0.459541 0.207607
0.693772 0.484340 0.233356
0.762369 0.501469 0.253360
0.826772 0.510942 0.267199
0.888535 0.514978 0.277109
0.945525 0.516116 0.286344
0.983877 0.516518 0.297567
1.000017 0.517677 0.310475
0.122513 0.328021 0.160311
0.151666 0.348820 0.164111
0.188725 0.370110 0.165608
0.237135 0.391884 0.164124
0.299254 0.413919 0.159555
0.373544 0.435379 0.154001
0.454650 0.456388 0.151833
0.536508 0.479504 0.160857
0.615146 0.507474 0.184633
0.689473 0.536322 0.216167
0.759917 0.560292 0.245599
0.826603 0.576118 0.267193
0.889793 0.584183 0.281388
0.946746 0.587152 0.291667
0.984417 0.588153 0.303678
1.000017 0.589372 0.318567
0.160528 0.381791 0.149563
0.190979 0.404203 0.153610
0.226219 0.426959 0.155825
0.270998 0.450263 0.155265
0.328027 0.473957 0.152152
0.395947 0.497000 0.146389
0.469743 0.518329 0.141175
0.543670 0.538550 0.142974
0.615002 0.560569 0.158208
0.684380 0.585617 0.187710
0.753144 0.611794 0.222989
0.821220 0.633580 0.254319
0.886681 0.647970 0.277149
0.945904 0.655421 0.293435
0.984154 0.658791 0.309514
1.000015 0.661041 0.329316
0.206606 0.438786 0.137837
0.237154 0.462401 0.141792
0.271822 0.486210 0.143635
0.314491 0.510524 0.143736
0.367129 0.535177 0.141533
0.428334 0.559435 0.137043
0.494119 0.581762 0.131316
0.559431 0.601441 0.128434
0.621789 0.619642 0.134925
0.682948 0.639406 0.155735
0.745762 0.662108 0.188567
0.811331 0.685335 0.225761
0.878142 0.705070 0.258980
0.941040 0.718926 0.285977
0.982696 0.726932 0.312155
0.999982 0.731955 0.342945
0.258522 0.498495 0.124764
0.290538 0.523009 0.127904
0.325886 0.547454 0.129468
0.367084 0.572052 0.129298
0.415075 0.596700 0.127925
0.468854 0.620996 0.125145
0.525279 0.643704 0.120247
0.581252 0.663714 0.115725
0.634816 0.680506 0.116193
0.687207 0.696311 0.126591
0.741747 0.713862 0.150876
0.801396 0.734560 0.186269
0.865688 0.756236 0.226003
0.931037 0.775486 0.265237
0.978480 0.789626 0.307390
0.999702 0.799555 0.356577
0.317460 0.560007 0.110999
0.351353 0.584943 0.112765
0.387118 0.609454 0.113576
0.426177 0.633498 0.113216
0.468495 0.657216 0.112154
0.513375 0.680424 0.110248
0.559660 0.702582 0.107163
0.606160 0.722392 0.103111
0.651680 0.739064 0.100400
0.696732 0.753063 0.103463
0.743404 0.766610 0.116963
0.794767 0.783023 0.144245
0.853061 0.803031 0.183231
0.916203 0.824211 0.231083
0.969890 0.843612 0.291343
0.997991 0.859479 0.364940
0.383337 0.622465 0.096377
0.417786 0.646969 0.097249
0.452342 0.670869 0.096451
0.487392 0.693783 0.095942
0.522692 0.715834 0.095058
0.558041 0.737384 0.093531
0.594247 0.757716 0.091903
0.631504 0.776477 0.088806
0.669895 0.793015 0.086266
0.709050 0.806702 0.085643
0.749474 0.818511 0.090703
0.793302 0.830742 0.106804
0.843250 0.846458 0.137836
0.900121 0.866223 0.187808
0.956203 0.887841 0.264431
0.992230 0.908277 0.364464
0.452523 0.684762 0.081781
0.485828 0.708518 0.080681
0.517644 0.731294 0.080106
0.547390 0.752455 0.078569
0.574736 0.772503 0.077168
0.600898 0.791580 0.075883
0.627548 0.809995 0.074354
0.656343 0.827348 0.073007
0.688120 0.843299 0.071645
0.722377 0.857098 0.069674
0.758182 0.868506 0.070092
0.795538 0.877741 0.074898
0.836869 0.888218 0.093486
0.884891 0.903924 0.140354
0.938513 0.923977 0.231340
0.980684 0.943419 0.356328
0.031785 0.019916 0.165053
0.049815 0.021727 0.172794
0.079760 0.021629 0.180022
0.130403 0.020045 0.187482
0.206293 0.016820 0.194733
0.294244 0.013525 0.202273
0.383821 0.011719 0.209634
0.470046 0.011680 0.217234
0.550711 0.013600 0.224527
0.626234 0.017412 0.232392
0.697536 0.022542 0.240533
0.765532 0.028129 0.249091
0.831051 0.033975 0.258197
0.894480 0.038826 0.267974
0.953335 0.042263 0.278427
0.991275 0.045240 0.289551
0.037714 0.035409 0.188531
0.056883 0.039902 0.197416
0.088732 0.043507 0.205966
0.144877 0.045755 0.213925
0.226187 0.046663 0.221072
0.316963 0.046615 0.227399
0.408298 0.047088 0.233587
0.495563 0.048326 0.240209
0.576693 0.051118 0.248114
0.652312 0.055076 0.257211
0.724070 0.059610 0.267737
0.792481 0.064210 0.279073
0.858324 0.068244 0.291006
0.921302 0.071448 0.303754
0.970451 0.074830 0.317360
0.996890 0.079290 0.331470
0.043405 0.055373 0.210139
0.064520 0.063526 0.219792
0.100030 0.071723 0.228531
0.160679 0.079151 0.236149
0.244675 0.085554 0.242566
0.336651 0.090688 0.247850
0.428026 0.094698 0.252613
0.514335 0.098338 0.257684
0.594261 0.102125 0.264172
0.668567 0.105931 0.272673
0.738976 0.109886 0.283244
0.806945 0.113280 0.295423
0.872941 0.115597 0.308720
0.935200 0.117163 0.323463
0.978750 0.119689 0.339817
0.998945 0.124549 0.357388
0.050938 0.083245 0.228007
0.073255 0.094827 0.236498
0.110125 0.107183 0.244091
0.173811 0.120354 0.250897
0.262047 0.134709 0.257525
0.355975 0.146232 0.263014
0.445617 0.153760 0.267127
0.528275 0.158476 0.270649
0.604948 0.162253 0.275186
0.676762 0.166347 0.281523
0.744918 0.170007 0.290052
0.810856 0.172819 0.300836
0.875728 0.174503 0.313227
0.937497 0.175228 0.327653
0.980470 0.176832 0.344496
0.999650 0.180526 0.363514
0.060322 0.117610 0.241185
0.082320 0.131459 0.247784
0.118313 0.146245 0.253308
0.181062 0.163336 0.257943
0.271357 0.186265 0.264030
0.369295 0.207661 0.270327
0.462366 0.225375 0.275514
0.540377 0.227985 0.279184
0.613521 0.229052 0.283567
0.682468 0.231123 0.289024
0.748341 0.234403 0.295763
0.812487 0.237197 0.304442
0.875462 0.238859 0.315182
0.936444 0.239747 0.327696
0.980185 0.240902 0.342960
0.999854 0.243317 0.360740
0.069590 0.155441 0.249586
0.091074 0.170741 0.254640
0.125027 0.187060 0.257801
0.182906 0.205074 0.259364
0.267198 0.228656 0.262452
0.366715 0.258038 0.268965
0.467643 0.293024 0.276697
0.551171 0.316474 0.279639
0.619308 0.304002 0.286570
0.687369 0.300904 0.294693
0.752435 0.301834 0.302527
0.815429 0.304074 0.310450
0.877388 0.305824 0.319902
0.937379 0.306744 0.331281
0.980718 0.307811 0.344741
0.999981 0.309629 0.360520
0.079116 0.196926 0.253518
0.100168 0.212291 0.257438
0.131558 0.229537 0.258884
0.184665 0.248454 0.257622
0.260810 0.269576 0.256346
0.354708 0.296246 0.260014
0.454552 0.328186 0.269952
0.545238 0.357737 0.280693
0.621430 0.374109 0.287493
0.690583 0.372114 0.298225
0.756301 0.372752 0.308096
0.819524 0.373440 0.318104
0.881210 0.374935 0.326989
0.940210 0.375646 0.337667
0.981840 0.376489 0.350084
1.000012 0.378161 0.364101
0.089596 0.243866 0.252990
0.111307 0.260113 0.256690
0.141951 0.276679 0.257077
0.190112 0.294085 0.253849
0.259404 0.315225 0.248899
0.346445 0.338950 0.247472
0.442480 0.365658 0.254425
0.537311 0.397209 0.270774
