luts/LA_LA_LAND-DAY.cube
LUT_3D_SIZE 16
0.003211 0.000020 0.000000
0.034843 0.002163 0.000269
0.079050 0.003883 0.002494
0.134586 0.007052 0.005967
0.198770 0.011095 0.009962
0.267033 0.016734 0.013982
0.337427 0.023228 0.016956
0.408449 0.030211 0.019269
0.481066 0.037076 0.021811
0.554913 0.043738 0.024123
0.628726 0.048958 0.027103
0.701555 0.053559 0.032206
0.772239 0.057077 0.038167
0.840270 0.059644 0.045172
0.903015 0.061741 0.052899
0.953914 0.063295 0.059959
0.005228 0.016473 0.002862
0.037400 0.021894 0.005000
0.084035 0.031436 0.007766
0.144983 0.040884 0.010634
0.213118 0.048355 0.015060
0.283557 0.055028 0.019511
0.354666 0.061868 0.024335
0.428581 0.069236 0.027255
0.504368 0.076252 0.031987
0.580910 0.082164 0.037366
0.657303 0.087311 0.044602
0.732375 0.091243 0.053140
0.804660 0.093785 0.063112
0.871944 0.095323 0.074013
0.929669 0.097346 0.085640
0.973910 0.099413 0.096036
0.007858 0.036141 0.007087
0.042606 0.046010 0.009503
0.086673 0.059580 0.011465
0.155643 0.086104 0.010635
0.235071 0.109097 0.006807
0.295914 0.100521 0.020324
0.368041 0.105301 0.026057
0.441987 0.111746 0.031132
0.518753 0.119533 0.036313
0.595757 0.126108 0.044170
0.672441 0.131646 0.053358
0.748071 0.135198 0.063797
0.821127 0.136907 0.075920
0.888437 0.137729 0.089568
0.944179 0.139033 0.104861
0.985408 0.140343 0.118887
0.011299 0.057676 0.011203
0.046450 0.070016 0.014034
0.090534 0.087362 0.016216
0.149496 0.110791 0.016923
0.231973 0.150991 0.011263
0.306054 0.161910 0.013262
0.376076 0.156505 0.024770
0.450464 0.161983 0.031320
0.526445 0.170095 0.038031
0.602150 0.178018 0.046010
0.676982 0.184327 0.055808
0.751096 0.188917 0.066036
0.823298 0.190914 0.077963
0.890788 0.191386 0.091717
0.947969 0.191689 0.107762
0.990948 0.191265 0.123239
0.016816 0.083089 0.013928
0.050885 0.097726 0.016403
0.093287 0.114580 0.019365
0.150236 0.135386 0.021669
0.220615 0.164399 0.021404
0.301530 0.192519 0.021654
0.379650 0.207411 0.025230
0.456522 0.217662 0.031731
0.532515 0.226128 0.040301
0.607080 0.235505 0.048577
0.680010 0.242707 0.058177
0.751896 0.248115 0.068040
0.822364 0.251061 0.078381
0.889441 0.251724 0.090328
0.948499 0.251169 0.104611
0.994426 0.248557 0.118473
0.024590 0.112280 0.016023
0.057759 0.128056 0.018647
0.098203 0.146624 0.021032
0.153668 0.167836 0.023033
0.222077 0.192032 0.024696
0.296727 0.219675 0.025235
0.379715 0.248782 0.028556
0.460151 0.270555 0.035119
0.538055 0.285272 0.044867
0.612641 0.296578 0.054177
0.684774 0.305029 0.062971
0.755520 0.310507 0.073205
0.824708 0.313789 0.082540
0.890979 0.314615 0.092974
0.950093 0.313456 0.105130
0.996840 0.309145 0.116474
0.036456 0.149473 0.016879
0.068785 0.166655 0.019176
0.107368 0.184548 0.021470
0.159682 0.204648 0.022862
0.226155 0.228629 0.024233
0.300944 0.255080 0.026543
0.377352 0.281880 0.031933
0.461356 0.314997 0.041107
0.542010 0.341343 0.051797
0.617961 0.359149 0.061809
0.690504 0.370066 0.070977
0.761211 0.376004 0.080695
0.830000 0.378808 0.090475
0.895197 0.379289 0.099631
0.952702 0.377320 0.109880
0.998016 0.371522 0.119617
0.053046 0.191205 0.017472
0.083902 0.210722 0.020139
0.120696 0.230708 0.021928
0.170415 0.251123 0.023010
0.233444 0.272290 0.024327
0.306521 0.296476 0.027140
0.383838 0.325439 0.033301
0.460128 0.355709 0.043083
0.543119 0.391962 0.056758
0.621322 0.418626 0.069536
0.695659 0.435047 0.080372
0.767269 0.443038 0.090210
0.836021 0.445723 0.099891
0.899993 0.445333 0.108273
0.955306 0.442439 0.117420
0.998348 0.435220 0.125725
0.073561 0.238246 0.017679
0.103667 0.259895 0.021050
0.138516 0.282339 0.022881
0.185641 0.305156 0.024588
0.245888 0.327428 0.025574
0.316227 0.349386 0.027457
0.391162 0.373270 0.033113
0.466818 0.402698 0.043436
0.541123 0.435215 0.057371
0.621022 0.470921 0.073996
0.697877 0.495625 0.088517
0.771331 0.508438 0.099830
0.840511 0.512619 0.109324
0.903572 0.511902 0.117307
0.957110 0.508285 0.125731
0.998380 0.499592 0.133247
0.097667 0.289613 0.019321
0.127753 0.313174 0.022648
0.161364 0.337502 0.024984
0.206449 0.362510 0.026396
0.263945 0.386921 0.027248
0.330969 0.409656 0.028302
0.402102 0.431308 0.031655
0.473197 0.455412 0.039586
0.544327 0.484239 0.053988
0.616557 0.515579 0.071991
0.694504 0.547431 0.090827
0.770369 0.567617 0.106180
0.841267 0.576464 0.116814
0.904801 0.577557 0.125538
0.957883 0.573927 0.134632
0.998393 0.564319 0.142893
0.127233 0.344806 0.021424
0.158055 0.369778 0.024537
0.191507 0.395336 0.026178
0.234962 0.421544 0.027778
0.289645 0.447558 0.028884
0.352526 0.471812 0.029244
0.418395 0.493233 0.030318
0.483087 0.513501 0.035509
0.547435 0.536285 0.045688
0.614201 0.563561 0.062481
0.685521 0.592421 0.082992
0.762300 0.618803 0.103069
0.836166 0.634465 0.118604
0.902572 0.640107 0.131280
0.957231 0.638417 0.144178
0.998295 0.628800 0.154882
0.163814 0.403099 0.023409
0.196590 0.428916 0.025778
0.230754 0.455014 0.027342
0.273285 0.481536 0.028591
0.324544 0.507860 0.029324
0.381753 0.532874 0.029650
0.440720 0.554828 0.029711
0.498081 0.573701 0.031942
0.554237 0.591629 0.037836
0.612529 0.612208 0.049844
0.676796 0.636912 0.068424
0.748563 0.662922 0.090246
0.823951 0.684640 0.111846
0.894712 0.697119 0.131830
0.953684 0.700047 0.152443
0.997606 0.692355 0.169612
0.207831 0.462266 0.024600
0.243447 0.488426 0.026268
0.278878 0.514427 0.027708
0.320077 0.540182 0.028208
0.366421 0.565520 0.028958
0.416150 0.589822 0.029020
0.466639 0.611787 0.028933
0.516169 0.630584 0.029613
0.564758 0.646473 0.031948
0.614665 0.662027 0.038599
0.669803 0.680569 0.052030
0.733899 0.703409 0.072037
0.806517 0.727607 0.096174
0.879554 0.745957 0.123652
0.944230 0.755435 0.155651
0.993765 0.752484 0.184181
0.259711 0.520795 0.025566
0.297303 0.546521 0.026417
0.332920 0.571544 0.027113
0.370993 0.595791 0.027610
0.410928 0.619132 0.027650
0.451674 0.641436 0.027815
0.492951 0.662210 0.027673
0.534632 0.680558 0.027444
0.576630 0.696048 0.028028
0.619914 0.709406 0.030618
0.666772 0.723261 0.038087
0.721106 0.740730 0.052582
0.785771 0.762681 0.074965
0.858427 0.786175 0.106607
0.926094 0.801243 0.149344
0.982133 0.804782 0.192569
0.315442 0.575556 0.025319
0.353165 0.600156 0.026076
0.386952 0.623709 0.026114
0.420230 0.645808 0.026556
0.452668 0.666647 0.026623
0.484556 0.686470 0.026041
0.517008 0.705252 0.026191
0.551221 0.722522 0.025681
0.587484 0.737743 0.025455
0.625758 0.750719 0.025880
0.666502 0.762297 0.028796
0.712062 0.774890 0.036629
0.766002 0.791590 0.052697
0.830597 0.813407 0.082413
0.901061 0.837215 0.133755
0.960247 0.845862 0.189424
0.364805 0.620799 0.025078
0.401186 0.643958 0.025059
0.432005 0.665734 0.025078
0.460307 0.685707 0.025097
0.486129 0.704147 0.025143
0.510514 0.721585 0.024737
0.535578 0.738346 0.024542
0.563150 0.754284 0.023971
0.594111 0.769105 0.023542
0.628201 0.782218 0.022691
0.664521 0.793163 0.022779
0.703243 0.802624 0.025341
0.747074 0.813814 0.033903
0.800657 0.830974 0.056363
0.863891 0.853876 0.102423
0.931723 0.878564 0.176543
0.009745 0.007089 0.025144
0.035414 0.008533 0.028080
0.072070 0.010378 0.035268
0.120565 0.011918 0.042227
0.182142 0.013545 0.048321
0.252403 0.015437 0.053381
0.326215 0.019424 0.057153
0.401157 0.025184 0.060234
0.477085 0.031723 0.063520
0.553166 0.039004 0.067916
0.628688 0.045690 0.073308
0.702585 0.052059 0.079957
0.773940 0.056674 0.087475
0.842316 0.060275 0.095671
0.905123 0.062564 0.103586
0.955863 0.064024 0.110331
0.011976 0.022846 0.032281
0.038893 0.026919 0.035932
0.082572 0.029935 0.037020
0.139687 0.029768 0.035286
0.205069 0.030587 0.035593
0.273578 0.033782 0.036342
0.344434 0.038589 0.038028
0.417332 0.044701 0.040287
0.491914 0.051490 0.043650
0.567394 0.057889 0.048275
0.642906 0.064018 0.054443
0.717226 0.069203 0.062636
0.788996 0.073223 0.071874
0.857056 0.076533 0.082233
0.917828 0.079323 0.093165
0.971047 0.092347 0.128283
0.016030 0.043438 0.043328
0.033592 0.046781 0.033999
0.084535 0.061870 0.037183
0.151363 0.081064 0.037901
0.228939 0.097492 0.036733
0.294503 0.095333 0.042353
0.367288 0.100037 0.045930
0.441874 0.105988 0.050156
0.519257 0.113139 0.055428
0.596634 0.119568 0.063759
0.673606 0.124924 0.073798
0.749283 0.128472 0.085582
0.822334 0.130309 0.098624
0.889318 0.131453 0.113181
0.944727 0.133106 0.129284
0.985764 0.138310 0.158957
0.020678 0.067679 0.052750
0.031535 0.068640 0.033600
0.085675 0.089374 0.037510
0.146889 0.113020 0.039306
0.234002 0.155895 0.034557
0.309667 0.168114 0.034513
0.376652 0.156114 0.045889
0.451411 0.160611 0.051761
0.527753 0.167802 0.058431
0.603852 0.175298 0.066753
0.678892 0.181318 0.077257
0.753164 0.185618 0.088679
0.825503 0.187469 0.101714
0.892739 0.187949 0.116893
0.949370 0.188528 0.134200
0.991509 0.190568 0.164633
0.026097 0.095611 0.059880
0.034279 0.094724 0.035420
0.087105 0.116861 0.039261
0.145403 0.139030 0.041384
0.217824 0.168128 0.042327
0.301561 0.198613 0.042272
0.380311 0.212067 0.045788
0.457351 0.219239 0.052786
0.533697 0.226340 0.061620
0.608528 0.234774 0.070334
0.681642 0.241690 0.080369
0.753630 0.246681 0.091178
0.824281 0.249419 0.102720
0.891234 0.249976 0.116018
0.949819 0.249498 0.131380
0.994934 0.248876 0.160486
0.032642 0.126672 0.063844
0.040973 0.124616 0.037368
0.090983 0.149220 0.040215
0.146696 0.170994 0.041949
0.216331 0.195282 0.043882
0.294219 0.225011 0.045430
0.378909 0.254039 0.049469
0.460355 0.274077 0.056563
0.538869 0.287321 0.066665
0.613765 0.297076 0.076837
0.686110 0.305044 0.086181
0.757077 0.310213 0.096942
0.826401 0.313199 0.107553
0.892480 0.313916 0.119336
0.951281 0.312745 0.132516
0.997206 0.310027 0.158886
0.041178 0.164787 0.064615
0.051115 0.162613 0.037942
0.098807 0.187111 0.040302
0.151120 0.207852 0.041232
0.218526 0.232228 0.042193
0.295592 0.259061 0.045620
0.374734 0.286363 0.051901
0.460606 0.318883 0.062106
0.542348 0.344101 0.074009
0.618875 0.360498 0.085485
0.691664 0.370756 0.095301
0.762593 0.376398 0.105517
0.831515 0.378884 0.116528
0.896589 0.379150 0.126893
0.953681 0.377260 0.138265
0.998256 0.372793 0.162290
0.054088 0.207260 0.062934
0.066507 0.205875 0.038226
0.111526 0.233204 0.040895
0.160899 0.254240 0.041296
0.224175 0.275475 0.041750
0.299103 0.300394 0.044163
0.379189 0.329528 0.051278
0.458312 0.359667 0.063025
0.543010 0.395095 0.078875
0.622045 0.420783 0.093492
0.696756 0.436400 0.105689
0.768547 0.443923 0.116422
0.837438 0.446259 0.126715
0.901291 0.445699 0.136437
0.956245 0.442864 0.146518
0.998512 0.436795 0.168247
0.073070 0.254028 0.059717
0.086768 0.254244 0.038616
0.129349 0.284476 0.041434
0.176191 0.307989 0.042302
0.236339 0.330542 0.042442
0.307692 0.352762 0.043447
0.385238 0.377096 0.048901
0.463735 0.406970 0.060982
0.540428 0.439101 0.077617
0.621581 0.473889 0.097115
0.698983 0.497631 0.114059
0.772617 0.509768 0.126776
0.841905 0.513621 0.136915
0.904844 0.512725 0.146183
0.957958 0.509121 0.155605
0.998568 0.501524 0.175373
0.097267 0.304319 0.056298
0.111873 0.306888 0.038896
0.152856 0.339208 0.042409
0.197651 0.364965 0.043538
0.254672 0.389701 0.043535
0.322389 0.412797 0.043448
0.395648 0.434987 0.046178
0.469543 0.459398 0.054922
0.542990 0.488236 0.071530
0.616846 0.519231 0.092876
0.695637 0.550353 0.115081
0.771818 0.569691 0.132581
0.842819 0.577920 0.145015
0.906086 0.578758 0.154680
0.958766 0.575177 0.165108
0.998577 0.566449 0.184413
0.127383 0.357856 0.052922
0.143216 0.363077 0.039517
0.183791 0.396814 0.043039
0.227097 0.423808 0.043935
0.281208 0.450080 0.044252
0.344742 0.474642 0.043859
0.412353 0.496684 0.044108
0.479435 0.517520 0.048814
0.545885 0.540599 0.060801
0.614253 0.567685 0.080474
0.686608 0.595927 0.104618
0.763835 0.621496 0.128001
0.837880 0.636493 0.146105
0.904046 0.641841 0.160658
0.958163 0.640069 0.175064
0.998532 0.631134 0.196057
0.164287 0.414419 0.049841
0.182023 0.422142 0.039851
0.223811 0.456285 0.042459
0.266495 0.483633 0.043383
0.317590 0.510285 0.043803
0.375402 0.535592 0.043259
0.435927 0.558164 0.042528
0.495130 0.577613 0.044176
0.553051 0.595994 0.050536
0.612650 0.616610 0.064591
0.677839 0.640979 0.086072
0.750263 0.666443 0.111966
0.825878 0.687517 0.137120
0.896472 0.699394 0.160344
0.954718 0.702098 0.183728
0.997854 0.694901 0.210352
0.208464 0.472020 0.046073
0.228922 0.481958 0.038979
0.272618 0.515654 0.040767
0.314536 0.542435 0.041441
0.361206 0.568100 0.041480
0.411612 0.592693 0.041564
0.463386 0.615081 0.040751
0.514338 0.634317 0.040636
0.564268 0.650699 0.042987
0.615178 0.666504 0.050777
0.671124 0.684971 0.065714
0.735825 0.707471 0.089459
0.808710 0.731147 0.117810
0.881604 0.748888 0.149823
0.945530 0.757970 0.186477
0.994179 0.755156 0.224621
0.260106 0.529199 0.042474
0.283322 0.540831 0.037526
0.327587 0.572996 0.038571
0.367040 0.598269 0.038836
0.407629 0.622010 0.038989
0.449168 0.644584 0.038610
0.491347 0.665640 0.038136
0.534048 0.684356 0.037582
0.577011 0.700196 0.037809
0.621035 0.713797 0.040817
0.668477 0.727758 0.049225
0.723255 0.745051 0.065993
0.788229 0.766640 0.092119
0.860855 0.789697 0.129302
0.927764 0.804259 0.178838
0.982792 0.807689 0.232349
0.315886 0.583037 0.038499
0.340731 0.595670 0.035683
0.382976 0.625448 0.035867
0.417900 0.648585 0.035832
0.451211 0.669829 0.035872
0.483829 0.689892 0.035387
0.517006 0.708928 0.035214
0.551855 0.726412 0.034706
0.588782 0.741871 0.033966
0.627588 0.755055 0.034536
0.668828 0.766769 0.037955
0.714760 0.779376 0.047044
0.768980 0.795900 0.065840
0.833463 0.817359 0.100764
0.903121 0.840618 0.161150
0.961210 0.849064 0.228333
0.365512 0.627561 0.035628
0.394168 0.643679 0.034407
0.430151 0.668955 0.033887
0.459757 0.689580 0.033617
0.486378 0.708313 0.033448
0.511424 0.725974 0.033122
0.537096 0.742887 0.032747
0.565156 0.758979 0.032098
0.596617 0.773880 0.031707
0.631084 0.787050 0.030871
0.667762 0.798129 0.031085
0.706767 0.807625 0.033924
0.750811 0.818747 0.044384
0.804261 0.835577 0.071198
0.866806 0.857934 0.126546
0.933152 0.881898 0.214543
0.018250 0.016460 0.054946
0.039457 0.017865 0.059967
0.065806 0.018241 0.064927
0.106797 0.018898 0.073917
0.163327 0.018019 0.082493
0.233220 0.017380 0.089880
0.310548 0.018051 0.095798
0.390439 0.021412 0.101137
0.470869 0.027336 0.106662
0.549936 0.034447 0.112826
0.627558 0.042267 0.119946
0.702820 0.049777 0.128011
0.775023 0.055951 0.136675
0.843855 0.060113 0.145452
0.906865 0.063161 0.153956
0.957685 0.065126 0.160356
0.021767 0.032723 0.067142
0.040619 0.035004 0.074022
0.072905 0.036673 0.078188
0.117633 0.036041 0.083287
0.177080 0.034948 0.088136
0.248352 0.034631 0.093009
0.325682 0.035802 0.097547
0.405205 0.039402 0.102004
0.485369 0.045679 0.107513
0.564455 0.052705 0.114491
0.642498 0.060097 0.122880
0.718419 0.067366 0.132502
0.791179 0.072807 0.142614
0.859596 0.076821 0.153381
0.920354 0.080385 0.163914
0.972729 0.093707 0.186739
0.024836 0.050745 0.078009
0.039581 0.055690 0.082134
0.077078 0.065092 0.088216
0.133833 0.073619 0.091852
0.209220 0.076476 0.091235
0.287985 0.074185 0.086418
0.363812 0.072417 0.081446
0.439817 0.073119 0.078723
0.516007 0.075792 0.079287
0.591686 0.079429 0.082672
0.666862 0.083193 0.088635
0.740364 0.086418 0.096200
0.811159 0.088898 0.104987
0.876984 0.090873 0.115354
0.933960 0.093186 0.126580
0.984522 0.129016 0.200900
0.030667 0.076567 0.092539
0.041292 0.081070 0.091783
0.072551 0.092498 0.085794
0.137821 0.114903 0.089420
0.226280 0.144043 0.088648
0.310490 0.156551 0.084733
0.381331 0.148010 0.084648
0.457497 0.149680 0.084910
0.534871 0.154574 0.087322
0.611416 0.159992 0.092995
0.686784 0.164323 0.101654
0.761189 0.167314 0.112013
0.833317 0.168209 0.124274
0.899474 0.168396 0.138817
0.953975 0.169407 0.155301
0.991841 0.185502 0.212339
0.036361 0.106731 0.104252
0.045436 0.110986 0.100362
0.065787 0.118150 0.077784
0.131630 0.143837 0.080406
0.211801 0.174092 0.081544
0.307788 0.216271 0.078652
0.387164 0.222253 0.078691
0.462907 0.217291 0.083973
0.539809 0.221136 0.089183
0.614933 0.227443 0.095335
0.688255 0.232802 0.103399
0.760490 0.236503 0.113110
0.831137 0.238194 0.123921
0.897565 0.238153 0.137042
0.954934 0.237566 0.152587
0.995325 0.246079 0.208720
0.043151 0.140416 0.111795
0.051204 0.144568 0.106227
0.063821 0.146279 0.070829
0.128185 0.174123 0.071952
0.203590 0.199829 0.073071
0.290281 0.232783 0.075365
0.380224 0.261727 0.078301
0.463790 0.277504 0.083927
0.543276 0.287091 0.091651
0.618625 0.293914 0.100171
0.691206 0.300356 0.108169
0.762282 0.304368 0.117540
0.831687 0.306469 0.127513
0.897584 0.306573 0.138666
0.955654 0.305162 0.151712
0.997446 0.308686 0.207365
0.050434 0.179119 0.114687
0.058809 0.183221 0.108245
0.067920 0.181187 0.065041
0.130142 0.209117 0.064767
0.201718 0.235277 0.064450
0.285560 0.263432 0.067767
0.371874 0.292801 0.074859
0.461512 0.324209 0.084817
0.544965 0.346726 0.095856
0.622413 0.359924 0.106854
0.695596 0.368496 0.115770
0.766665 0.373005 0.125003
0.835776 0.374710 0.135125
0.900631 0.374446 0.145131
0.957437 0.372274 0.156440
0.998399 0.372446 0.210834
0.060679 0.223010 0.113780
0.070130 0.227768 0.106784
0.078937 0.222850 0.059849
0.139259 0.253954 0.059921
0.205547 0.277227 0.059170
0.285836 0.303335 0.060597
0.372308 0.333531 0.067955
0.456671 0.364043 0.081189
0.544118 0.398069 0.097732
0.624512 0.422034 0.112907
0.699857 0.435935 0.124580
0.771901 0.442225 0.134513
0.840904 0.443815 0.144158
0.904653 0.442707 0.153680
0.959203 0.439619 0.163470
0.998637 0.437196 0.216436
0.076968 0.270559 0.109178
0.087535 0.276169 0.102283
0.096960 0.269844 0.055870
0.155116 0.305540 0.057293
0.217888 0.330955 0.056099
0.293416 0.354513 0.055916
0.376062 0.379706 0.060509
0.459606 0.410309 0.073372
0.539934 0.442642 0.092407
0.622964 0.476245 0.113383
0.701299 0.498637 0.130857
0.775276 0.509454 0.143436
0.844664 0.512412 0.153001
0.907644 0.510990 0.162102
0.960424 0.507141 0.171402
0.998670 0.502571 0.222909
0.100178 0.320464 0.101886
0.112158 0.327405 0.095657
0.121071 0.321052 0.052617
0.177766 0.360516 0.055111
0.237360 0.388554 0.054546
0.308545 0.413565 0.053433
0.385961 0.436831 0.054831
0.464078 0.461771 0.063348
0.540893 0.490931 0.081519
0.617258 0.522020 0.105159
0.697109 0.552231 0.128879
0.773933 0.570462 0.147126
0.845089 0.577752 0.159482
0.908389 0.577975 0.169314
0.960717 0.574087 0.179744
0.998679 0.567929 0.231050
0.129663 0.372717 0.093066
0.143430 0.381203 0.087747
0.151911 0.375841 0.050200
0.208385 0.417926 0.052722
0.265453 0.447771 0.052696
0.332026 0.474282 0.051667
0.403210 0.497777 0.050913
0.473886 0.519436 0.054966
0.543066 0.542815 0.067183
0.613493 0.569982 0.088510
0.687351 0.598120 0.114937
0.765406 0.622927 0.139952
0.839786 0.637167 0.159040
0.905951 0.641860 0.173733
0.959754 0.639720 0.188570
0.998629 0.633041 0.241862
0.166058 0.427235 0.082952
0.182161 0.437513 0.078851
0.190916 0.433650 0.047169
0.248933 0.476892 0.049521
0.303565 0.507156 0.050066
0.364468 0.534525 0.048966
0.428132 0.558769 0.048008
0.490197 0.579140 0.048734
0.550208 0.597938 0.054735
0.611357 0.618692 0.069579
0.677788 0.642978 0.092874
0.751234 0.668338 0.120669
0.827380 0.688761 0.147399
0.898094 0.700170 0.171822
0.956181 0.702412 0.196109
0.998017 0.697160 0.255637
0.209350 0.482699 0.072454
0.228648 0.494634 0.069117
0.238052 0.492359 0.044383
0.298088 0.535437 0.045871
0.349354 0.564867 0.045873
0.402817 0.591346 0.045679
0.457105 0.615159 0.044624
0.510239 0.635397 0.044042
0.561774 0.652290 0.045824
0.613834 0.668319 0.053676
0.670606 0.686765 0.069643
0.735993 0.709194 0.094636
0.809771 0.732786 0.125094
0.882897 0.750070 0.158978
0.946740 0.758781 0.197472
0.994511 0.757819 0.269577
0.260398 0.538025 0.062191
0.282755 0.551280 0.059372
0.292541 0.550153 0.041015
0.352384 0.591514 0.041625
0.398056 0.618877 0.041790
0.442455 0.643222 0.041529
0.486620 0.665434 0.040597
0.530803 0.685014 0.039898
0.574923 0.701438 0.039846
0.619872 0.715350 0.042605
0.667969 0.729371 0.051329
0.723248 0.746596 0.068782
0.788721 0.768107 0.096477
0.861825 0.791082 0.135844
0.928738 0.805369 0.188084
0.983502 0.810713 0.277208
0.315750 0.590375 0.052584
0.340332 0.604479 0.050450
0.349651 0.603983 0.037613
0.405592 0.642357 0.037518
0.444029 0.667075 0.037550
0.479087 0.688725 0.037286
0.513700 0.708703 0.036637
0.549461 0.726933 0.036082
0.587169 0.742844 0.035195
0.626621 0.756386 0.035588
0.668424 0.768253 0.039171
0.714759 0.780819 0.048683
0.769266 0.797292 0.068047
0.834071 0.818642 0.104743
0.903844 0.841779 0.168500
0.962373 0.852505 0.273298
0.365274 0.633834 0.044803
0.393983 0.650703 0.043224
0.422701 0.669127 0.040434
0.456711 0.692456 0.039644
0.485304 0.712238 0.038872
0.511752 0.730538 0.038261
0.538446 0.747819 0.037483
0.567261 0.764166 0.036776
0.599252 0.779270 0.036324
0.634134 0.792604 0.035501
0.671219 0.803833 0.036489
0.710582 0.813436 0.039886
0.754911 0.824429 0.052409
0.808214 0.840836 0.083922
0.869975 0.862576 0.151220
0.934692 0.885696 0.259193
0.027648 0.027851 0.087675
0.041892 0.029868 0.093061
0.062248 0.030105 0.098245
0.092510 0.029107 0.103587
0.140458 0.027085 0.113383
0.206691 0.023629 0.122969
0.286028 0.021476 0.132251
0.371867 0.021401 0.141486
0.459191 0.024785 0.150975
0.543617 0.030886 0.160906
0.624373 0.038717 0.170811
0.701556 0.046698 0.180799
0.774958 0.053926 0.190716
0.844489 0.058954 0.200373
0.907969 0.062508 0.209251
0.959006 0.065122 0.215181
0.031698 0.044117 0.103026
0.042741 0.045240 0.110546
0.066062 0.046516 0.115145
0.099568 0.045227 0.117710
0.151053 0.042782 0.124514
0.219785 0.040371 0.131825
0.300463 0.038623 0.139324
0.386963 0.039652 0.147709
0.474185 0.043490 0.157171
0.558696 0.049965 0.167471
0.639824 0.057507 0.178525
0.717620 0.064880 0.189984
0.791459 0.071450 0.201420
0.860549 0.076286 0.212805
0.921578 0.080356 0.223427
0.973930 0.094362 0.244164
0.035527 0.062236 0.118100
0.045053 0.066452 0.124567
0.070041 0.073038 0.133921
0.111077 0.078022 0.139433
0.173233 0.079257 0.144493
0.251767 0.076952 0.146973
0.336967 0.073699 0.148865
0.422667 0.072033 0.152237
0.506653 0.073069 0.158051
0.587479 0.076151 0.165837
0.665739 0.080372 0.175280
0.741137 0.084775 0.185492
0.813063 0.088241 0.196225
0.879513 0.091204 0.207355
0.936430 0.094265 0.218202
0.985712 0.130295 0.264819
0.040013 0.084870 0.131141
0.048484 0.089651 0.134837
0.070799 0.101141 0.142841
0.117232 0.114126 0.149028
0.189532 0.126699 0.153357
0.279832 0.133505 0.153747
0.372485 0.132334 0.149296
0.459643 0.128353 0.143424
0.542815 0.125442 0.140408
0.621777 0.123553 0.141521
0.698219 0.122697 0.145754
0.772139 0.121828 0.152416
0.842494 0.120511 0.160881
0.905491 0.119864 0.171268
0.957330 0.121074 0.183026
0.991892 0.177750 0.266585
0.047489 0.116167 0.147783
0.055050 0.121067 0.148744
0.070711 0.131315 0.147455
0.114296 0.148807 0.145321
0.194223 0.175991 0.148928
0.298289 0.208519 0.150216
0.390864 0.221305 0.146426
0.469764 0.211184 0.143641
0.550028 0.210686 0.142299
0.627095 0.212742 0.143439
0.701672 0.214586 0.148127
0.774935 0.215262 0.155595
0.845780 0.214437 0.165024
0.910997 0.213010 0.177700
0.965405 0.212385 0.192699
0.995664 0.241353 0.264626
0.055621 0.151644 0.160497
0.062423 0.156579 0.159765
0.072529 0.164724 0.150570
0.104624 0.179445 0.130791
0.182965 0.208006 0.131150
0.280822 0.242928 0.134198
0.385224 0.284088 0.135122
0.470398 0.288750 0.136028
0.551456 0.286478 0.140195
0.628217 0.287971 0.144955
0.701602 0.291267 0.149732
0.773217 0.292920 0.156702
0.842831 0.293000 0.164962
0.908266 0.291736 0.175317
0.965094 0.289857 0.187970
0.997644 0.305849 0.263436
0.063749 0.190833 0.168906
0.070846 0.195999 0.167037
0.077057 0.201823 0.152126
0.098878 0.211024 0.115289
0.174117 0.240992 0.112034
0.266648 0.270948 0.113321
0.366333 0.305434 0.121018
0.463440 0.335758 0.129827
0.550046 0.352211 0.138427
0.629303 0.359990 0.146972
0.703636 0.364280 0.154504
0.775429 0.366726 0.161536
0.844805 0.366735 0.170279
0.909308 0.365368 0.179355
0.965261 0.362571 0.190222
0.998452 0.370856 0.266914
0.072853 0.236751 0.173138
0.080670 0.242310 0.170404
0.085311 0.246360 0.151187
0.102777 0.250993 0.101888
0.173908 0.280278 0.097296
0.260728 0.308788 0.095360
0.358607 0.340753 0.102291
0.453342 0.372258 0.117109
