luts/LA_LA_LAND-DAY.cube
LUT_3D_SIZE 6
0.003211 0.000020 0.000000
0.134586 0.007052 0.005967
0.337427 0.023228 0.016956
0.554913 0.043738 0.024123
0.772239 0.057077 0.038167
0.953914 0.063295 0.059959
0.011299 0.057676 0.011203
0.149496 0.110791 0.016923
0.376076 0.156505 0.024770
0.602150 0.178018 0.046010
0.823298 0.190914 0.077963
0.990948 0.191265 0.123239
0.036456 0.149473 0.016879
0.159682 0.204648 0.022862
0.377352 0.281880 0.031933
0.617961 0.359149 0.061809
0.830000 0.378808 0.090475
0.998016 0.371522 0.119617
0.097667 0.289613 0.019321
0.206449 0.362510 0.026396
0.402102 0.431308 0.031655
0.616557 0.515579 0.071991
0.841267 0.576464 0.116814
0.998393 0.564319 0.142893
0.207831 0.462266 0.024600
0.320077 0.540182 0.028208
0.466639 0.611787 0.028933
0.614665 0.662027 0.038599
0.806517 0.727607 0.096174
0.993765 0.752484 0.184181
0.364805 0.620799 0.025078
0.460307 0.685707 0.025097
0.535578 0.738346 0.024542
0.628201 0.782218 0.022691
0.747074 0.813814 0.033903
0.931723 0.878564 0.176543
0.027648 0.027851 0.087675
0.092510 0.029107 0.103587
0.286028 0.021476 0.132251
0.543617 0.030886 0.160906
0.774958 0.053926 0.190716
0.959006 0.065122 0.215181
0.040013 0.084870 0.131141
0.117232 0.114126 0.149028
0.372485 0.132334 0.149296
0.621777 0.123553 0.141521
0.842494 0.120511 0.160881
0.991892 0.177750 0.266585
0.063749 0.190833 0.168906
0.098878 0.211024 0.115289
0.366333 0.305434 0.121018
0.629303 0.359990 0.146972
0.844805 0.366735 0.170279
0.998452 0.370856 0.266914
0.106805 0.337635 0.164822
0.137724 0.345558 0.079802
0.366757 0.439926 0.073441
0.617871 0.527197 0.128653
0.849692 0.577549 0.186666
0.998737 0.568689 0.284899
0.210948 0.495419 0.116951
0.254496 0.510760 0.054967
0.444351 0.614667 0.053100
0.611098 0.671675 0.060008
0.811609 0.735627 0.139390
0.994886 0.760115 0.321816
0.365188 0.640209 0.063652
0.451788 0.694369 0.052249
0.539781 0.752953 0.048379
0.637225 0.798408 0.047635
0.758785 0.830279 0.068847
0.936476 0.889521 0.315442
0.047975 0.075306 0.202923
0.065370 0.080943 0.212691
0.175095 0.065979 0.227765
0.465409 0.042020 0.267840
0.756208 0.049032 0.347110
0.958931 0.062738 0.397413
0.058360 0.134415 0.267901
0.072451 0.157480 0.307115
0.213112 0.156863 0.310232
0.556353 0.130427 0.325985
0.832041 0.119554 0.400533
0.991424 0.180663 0.461263
0.095467 0.213708 0.313986
0.114173 0.244994 0.344843
0.271684 0.310233 0.369648
0.628365 0.351100 0.385621
0.876922 0.332648 0.401035
0.998375 0.371745 0.465123
0.129289 0.367190 0.382355
0.144534 0.394534 0.384831
0.260020 0.455792 0.310009
0.612933 0.555870 0.324929
0.868609 0.576439 0.371233
0.998688 0.572621 0.470825
0.205340 0.538892 0.364841
0.241974 0.560835 0.334621
0.360029 0.606248 0.180314
0.593999 0.688980 0.158513
0.820971 0.750109 0.266350
0.995311 0.767359 0.497647
0.381495 0.670312 0.226354
0.460620 0.716135 0.200853
0.550128 0.768677 0.172921
0.651072 0.814569 0.190453
0.770617 0.845122 0.230100
0.938091 0.896286 0.511993
0.051387 0.151249 0.350472
0.054581 0.159213 0.350768
0.092877 0.153932 0.360477
0.294800 0.116595 0.353983
0.654925 0.077073 0.381987
0.912019 0.069531 0.502684
0.050903 0.217701 0.433057
0.056135 0.245115 0.480741
0.110174 0.244540 0.482840
0.371204 0.200019 0.431010
0.735400 0.152802 0.446734
0.944675 0.198158 0.566329
0.081055 0.282760 0.485072
0.090035 0.314764 0.532844
0.155384 0.363009 0.588720
0.461090 0.377263 0.544705
0.817972 0.348030 0.557259
0.978740 0.379691 0.621860
0.112918 0.382073 0.535188
0.117070 0.410744 0.565781
0.182859 0.473186 0.611679
0.535060 0.553093 0.587672
0.849757 0.576158 0.615196
0.989007 0.591432 0.658922
0.122871 0.543269 0.585043
0.137642 0.567919 0.596877
0.221306 0.618465 0.587006
0.548427 0.699675 0.503774
0.821774 0.768008 0.542382
0.990427 0.790644 0.635859
0.260027 0.686202 0.536679
0.322035 0.722431 0.537750
0.461326 0.767080 0.490441
0.652358 0.820810 0.469619
0.789264 0.853117 0.473760
0.927526 0.896674 0.660571
0.048387 0.253025 0.524999
0.053318 0.262592 0.525190
0.064557 0.258404 0.516649
0.167976 0.243173 0.523864
0.508063 0.184585 0.462160
0.804246 0.132324 0.471645
0.055072 0.318478 0.606884
0.069391 0.345070 0.648619
0.092184 0.346924 0.642381
0.235089 0.327420 0.621215
0.607472 0.260267 0.533213
0.848601 0.264951 0.559303
0.070905 0.378658 0.657487
0.089350 0.408723 0.699582
0.143711 0.450007 0.749900
0.337985 0.463475 0.729315
0.709910 0.413319 0.638251
0.886584 0.413790 0.643537
0.080299 0.451628 0.689607
0.092214 0.476160 0.717631
0.156627 0.526249 0.770407
0.435139 0.579109 0.756154
0.765019 0.580084 0.706594
0.921613 0.589714 0.724287
0.068974 0.557062 0.714887
0.081659 0.578917 0.735101
0.137337 0.619852 0.769358
0.453239 0.681739 0.750585
0.788670 0.744180 0.729660
0.938512 0.773874 0.777564
0.083412 0.667859 0.720973
0.122194 0.699361 0.748203
0.251983 0.735389 0.753421
0.561663 0.793063 0.700013
0.796965 0.852163 0.680297
0.922494 0.902020 0.769305
0.060181 0.348947 0.670456
0.068659 0.360620 0.675736
0.072410 0.357116 0.660103
0.112094 0.358561 0.669732
0.336021 0.335538 0.653690
0.741776 0.253783 0.559049
0.081613 0.403332 0.739235
0.098940 0.420510 0.756354
0.119334 0.431782 0.761240
0.194974 0.441075 0.763395
0.467868 0.416429 0.720369
0.798836 0.349891 0.635419
0.099975 0.453443 0.781834
0.130084 0.477221 0.804922
0.173233 0.499444 0.820928
0.288423 0.522381 0.819403
0.577542 0.511488 0.767064
0.834835 0.461931 0.701228
0.110098 0.512551 0.807796
0.147919 0.539414 0.831117
0.212961 0.567108 0.844970
0.416536 0.612073 0.832667
0.682771 0.620558 0.789048
0.853769 0.598816 0.756090
0.105188 0.587364 0.822660
0.153897 0.617290 0.846785
0.244316 0.645382 0.854549
0.506827 0.688109 0.825076
0.759241 0.731836 0.800087
0.873642 0.745518 0.796259
0.098286 0.675404 0.829219
0.155527 0.702355 0.850714
0.274237 0.726957 0.852821
0.578084 0.766265 0.817664
0.795647 0.828474 0.807188
0.890866 0.873111 0.807739
