luts/MAD_MAX_FURY_ROAD.cube
LUT_3D_SIZE 16
0.198169 0.026955 0.024648
0.236149 0.031558 0.026779
0.290386 0.039474 0.027352
0.345471 0.050732 0.028458
0.403445 0.062813 0.023468
0.466192 0.076381 0.001123
0.532628 0.091538 0.000000
0.597357 0.111103 0.000000
0.663360 0.127466 0.000000
0.731039 0.140950 0.000000
0.796931 0.146670 0.000000
0.853728 0.148792 0.014892
0.900833 0.153966 0.023631
0.935390 0.161840 0.025177
0.961714 0.169559 0.026712
0.980694 0.178349 0.027835
0.201078 0.062548 0.025359
0.243842 0.061139 0.028138
0.297374 0.066437 0.029417
0.348913 0.077294 0.029559
0.407965 0.089396 0.021929
0.470874 0.103879 0.000000
0.539153 0.120166 0.000000
0.603545 0.140098 0.000000
0.670093 0.160049 0.000000
0.736739 0.177416 0.000000
0.801955 0.188535 0.000000
0.857766 0.197998 0.009260
0.903905 0.206225 0.017816
0.937546 0.213943 0.018938
0.963218 0.221541 0.019939
0.981427 0.229270 0.020750
0.205967 0.106718 0.026461
0.249554 0.110267 0.025591
0.314035 0.103454 0.027577
0.367827 0.109408 0.022414
0.421234 0.124563 0.003965
0.481645 0.139534 0.000000
0.547728 0.159912 0.000000
0.612711 0.181984 0.000000
0.680869 0.202169 0.000000
0.746842 0.221997 0.000000
0.808551 0.236683 0.000000
0.864164 0.247412 0.000000
0.908146 0.256591 0.007837
0.940931 0.264564 0.008725
0.965197 0.271682 0.009321
0.982737 0.279479 0.009729
0.217869 0.155928 0.023884
0.260769 0.163030 0.020428
0.322221 0.158526 0.026000
0.395146 0.151537 0.005493
0.447491 0.163226 0.000000
0.503072 0.183460 0.000000
0.563033 0.204600 0.000000
0.625587 0.226489 0.000000
0.694271 0.247381 0.000000
0.761313 0.265763 0.000000
0.819776 0.286050 0.000000
0.870744 0.300666 0.000000
0.913433 0.309637 0.000000
0.944632 0.317384 0.000000
0.967213 0.325396 0.000000
0.983525 0.334038 0.000000
0.229328 0.207396 0.023416
0.270969 0.217588 0.017130
0.332855 0.215841 0.022119
0.399035 0.206359 0.022254
0.474538 0.208513 0.000000
0.532590 0.228147 0.000000
0.592524 0.252091 0.000000
0.657055 0.272849 0.000000
0.720746 0.289755 0.000000
0.780383 0.309498 0.000000
0.834438 0.330149 0.000000
0.881064 0.347006 0.000000
0.918886 0.358697 0.000000
0.946989 0.368561 0.000000
0.968160 0.378594 0.000000
0.983518 0.388538 0.000000
0.239655 0.259003 0.022738
0.282539 0.270168 0.015712
0.344991 0.275378 0.017081
0.414669 0.264525 0.026593
0.493221 0.267951 0.000483
0.561516 0.275601 0.000000
0.628964 0.298933 0.000000
0.699800 0.322638 0.000000
0.761046 0.344081 0.000000
0.811539 0.361721 0.000000
0.854701 0.374854 0.000000
0.894934 0.389252 0.000000
0.928052 0.401776 0.000000
0.953436 0.412017 0.000000
0.972642 0.422238 0.000000
0.983571 0.432253 0.000000
0.251739 0.314355 0.021033
0.293410 0.324652 0.010728
0.359191 0.332933 0.012001
0.434866 0.331288 0.022992
0.511528 0.331422 0.003704
0.589243 0.344068 0.001559
0.663657 0.354629 0.000000
0.735659 0.376184 0.000000
0.793651 0.398381 0.000000
0.841587 0.416185 0.000000
0.880724 0.429062 0.000000
0.913182 0.438036 0.000000
0.939352 0.443193 0.000000
0.960703 0.451831 0.000000
0.975799 0.461870 0.000000
0.983349 0.472701 0.000000
0.261887 0.371541 0.016438
0.304954 0.382968 0.004456
0.379841 0.393463 0.005964
0.458933 0.399066 0.018935
0.530952 0.398516 0.021914
0.615478 0.416451 0.000380
0.695465 0.427877 0.000000
0.764375 0.437381 0.000000
0.819580 0.453839 0.000000
0.863524 0.468290 0.000000
0.900621 0.479709 0.000000
0.930796 0.488459 0.000000
0.952867 0.493495 0.000000
0.967729 0.497763 0.000000
0.976270 0.501710 0.000000
0.983616 0.512171 0.000000
0.272589 0.431868 0.009427
0.326443 0.445437 0.000000
0.403099 0.456375 0.001952
0.483158 0.463680 0.015678
0.553644 0.464037 0.025767
0.636479 0.482231 0.005269
0.718879 0.511831 0.011279
0.788613 0.512625 0.000000
0.842925 0.515592 0.000000
0.883445 0.522884 0.000000
0.915370 0.529354 0.000000
0.944430 0.535519 0.000000
0.960855 0.541571 0.000000
0.970127 0.547782 0.000000
0.977772 0.552162 0.000000
0.984578 0.557697 0.000000
0.290907 0.501278 0.000429
0.351325 0.508487 0.000000
0.426637 0.520638 0.000429
0.505851 0.526408 0.013695
0.575379 0.528535 0.025700
0.654328 0.549559 0.015091
0.732793 0.573170 0.015536
0.805763 0.604445 0.017155
0.863396 0.592961 0.000000
0.903694 0.585038 0.000000
0.932709 0.583324 0.000000
0.953732 0.584381 0.000000
0.964628 0.588248 0.000000
0.973019 0.593262 0.000000
0.980402 0.599727 0.000000
0.986865 0.606297 0.000000
0.308433 0.570738 0.000000
0.370453 0.578362 0.000003
0.446054 0.586405 0.000000
0.523782 0.589216 0.012993
0.595136 0.593876 0.027815
0.668181 0.612583 0.019878
0.746242 0.639538 0.015616
0.813145 0.664674 0.015827
0.873587 0.688647 0.016879
0.920888 0.665048 0.000000
0.949230 0.646237 0.000000
0.963022 0.638664 0.000000
0.970175 0.636498 0.000000
0.977439 0.639094 0.000000
0.983962 0.643627 0.000000
0.989478 0.646260 0.000000
0.324863 0.625864 0.000000
0.387232 0.634650 0.000000
0.462468 0.643049 0.000429
0.540142 0.648310 0.014138
0.612416 0.655917 0.031320
0.683994 0.674056 0.022430
0.756689 0.700442 0.015696
0.823602 0.725260 0.015941
0.877479 0.746472 0.016163
0.925764 0.762012 0.016918
0.962598 0.728984 0.014053
0.973663 0.704232 0.000000
0.978543 0.693725 0.000000
0.983488 0.688473 0.000000
0.988497 0.688828 0.000000
0.992609 0.685866 0.000000
0.343515 0.674356 0.006129
0.406505 0.684623 0.003207
0.479705 0.694408 0.003038
0.556439 0.704708 0.017289
0.629752 0.718440 0.030006
0.699680 0.737620 0.023349
0.767309 0.761760 0.015838
0.828742 0.783799 0.016061
0.884925 0.804600 0.016340
0.926940 0.816866 0.016542
0.962967 0.824151 0.016693
0.980996 0.793797 0.018887
0.986922 0.764022 0.000000
0.990624 0.749439 0.000000
0.993634 0.740559 0.000000
0.996484 0.733680 0.000000
0.368650 0.769851 0.000838
0.427620 0.779108 0.000483
0.497739 0.787652 0.000000
0.569264 0.791930 0.000000
0.638864 0.807239 0.000000
0.709519 0.826823 0.000919
0.774557 0.841603 0.010792
0.830837 0.852824 0.016376
0.881275 0.862527 0.016529
0.929865 0.874063 0.016546
0.962074 0.876427 0.016550
0.981662 0.879446 0.016539
0.988972 0.854758 0.016745
0.994366 0.823211 0.017710
0.997629 0.800606 0.016540
0.999572 0.794386 0.000000
0.382885 0.843284 0.000000
0.442513 0.851709 0.000000
0.505959 0.862636 0.000000
0.572901 0.875648 0.000000
0.643234 0.890112 0.000000
0.712416 0.903205 0.005490
0.775039 0.912936 0.014001
0.829363 0.918035 0.016498
0.877850 0.922514 0.016616
0.922829 0.925827 0.016542
0.961792 0.928235 0.016512
0.981661 0.925786 0.016503
0.988998 0.932510 0.016502
0.994506 0.910880 0.016578
0.998296 0.876521 0.016638
1.000024 0.872669 0.019464
0.411117 0.923368 0.000000
0.447431 0.928915 0.000006
0.512469 0.935391 0.000000
0.578584 0.941285 0.004603
0.646708 0.944464 0.010671
0.713921 0.947810 0.016102
0.774596 0.950911 0.016097
0.827077 0.953408 0.016335
0.873915 0.955528 0.016628
0.917459 0.957874 0.016569
0.956145 0.960279 0.016502
0.978739 0.962223 0.016479
0.988395 0.966423 0.016468
0.994507 0.976450 0.016523
0.998299 0.959167 0.016539
1.000024 0.947186 0.016534
0.191301 0.033141 0.051441
0.233349 0.033890 0.052630
0.295622 0.036579 0.054251
0.347090 0.044287 0.053946
0.402369 0.052605 0.051442
0.463858 0.066139 0.032071
0.530370 0.082952 0.005106
0.595133 0.097175 0.000000
0.661587 0.109404 0.000000
0.730229 0.113278 0.017461
0.793724 0.111253 0.034027
0.850526 0.118619 0.053323
0.899014 0.129250 0.064263
0.936533 0.138407 0.065811
0.962567 0.146520 0.066388
0.981189 0.155027 0.066305
0.190260 0.061282 0.052137
0.229450 0.061758 0.052769
0.288304 0.067237 0.054856
0.345028 0.077406 0.055483
0.404525 0.089560 0.052348
0.469728 0.105078 0.032693
0.537412 0.123667 0.000000
0.604957 0.143804 0.000000
0.668811 0.160813 0.000000
0.737488 0.171791 0.002884
0.801432 0.176272 0.024836
0.857038 0.179091 0.040492
0.903692 0.186309 0.048706
0.939492 0.195297 0.050866
0.964469 0.203741 0.052427
0.982605 0.212960 0.053706
0.195289 0.105720 0.052207
0.233883 0.107252 0.054572
0.300103 0.104261 0.054995
0.358193 0.110561 0.056957
0.414898 0.123552 0.049316
0.479764 0.137302 0.024392
0.545983 0.155692 0.000000
0.613083 0.176065 0.000000
0.677049 0.195464 0.000000
0.744238 0.210895 0.000000
0.807904 0.221166 0.019569
0.862563 0.231043 0.032904
0.907626 0.240013 0.041689
0.942092 0.248852 0.043238
0.966178 0.256511 0.044223
0.983673 0.265376 0.045006
0.213608 0.152562 0.046157
0.247391 0.161690 0.048335
0.308185 0.158827 0.051205
0.385199 0.151881 0.043164
0.442775 0.162566 0.026258
0.500160 0.182323 0.000000
0.560300 0.201545 0.000000
0.625493 0.223034 0.000000
0.689489 0.242311 0.000000
0.755852 0.258867 0.000000
0.816970 0.273118 0.000827
0.869746 0.284936 0.017510
0.912758 0.293746 0.030225
0.945624 0.302143 0.031706
0.968198 0.309862 0.032107
0.984641 0.320170 0.032038
0.223953 0.202962 0.047078
0.259548 0.213767 0.044354
0.320643 0.216194 0.044460
0.391914 0.207179 0.049219
0.471809 0.207751 0.016470
0.528374 0.226275 0.000000
0.588925 0.251214 0.000000
0.651208 0.272967 0.000000
0.712233 0.288598 0.000000
0.772796 0.305926 0.000000
0.827466 0.324450 0.000000
0.877326 0.338659 0.000000
0.918655 0.348604 0.011280
0.948845 0.357934 0.014393
0.969920 0.367277 0.013349
0.985428 0.378142 0.010784
0.232924 0.256458 0.046599
0.272619 0.266637 0.040250
0.335282 0.276473 0.036379
0.408670 0.266246 0.048879
0.489936 0.267934 0.016253
0.559995 0.275557 0.000000
0.622990 0.297958 0.000000
0.690868 0.322032 0.000000
0.753680 0.342713 0.000000
0.804809 0.360428 0.000000
0.848131 0.373556 0.000000
0.890497 0.384657 0.000000
0.926154 0.397049 0.000000
0.952723 0.407319 0.000000
0.972150 0.417148 0.000000
0.983493 0.428747 0.000000
0.242355 0.312697 0.044413
0.285231 0.321731 0.034409
0.350046 0.335216 0.027732
0.428672 0.332996 0.042845
0.506098 0.330700 0.026388
0.586905 0.344564 0.017464
0.663126 0.355936 0.000000
0.729387 0.375083 0.000000
0.787321 0.396872 0.000000
0.836364 0.415356 0.000000
0.876041 0.428684 0.000000
0.908810 0.437361 0.000000
0.936411 0.443809 0.000000
0.958129 0.451061 0.000000
0.974940 0.461520 0.000000
0.983319 0.472661 0.000000
0.250230 0.370529 0.039328
0.297831 0.380913 0.025405
0.370841 0.394882 0.021023
0.452774 0.400556 0.036999
0.525996 0.397829 0.045077
0.611879 0.415085 0.015421
0.695338 0.429474 0.018226
0.765645 0.439944 0.000000
0.815146 0.453496 0.000000
0.859504 0.468090 0.000000
0.897216 0.480030 0.000000
0.927422 0.489317 0.000000
0.951774 0.495484 0.000000
0.966986 0.499287 0.000000
0.976478 0.503764 0.000000
0.983629 0.513467 0.000000
0.261606 0.429188 0.034512
0.318045 0.446188 0.015760
0.394630 0.457791 0.016468
0.476544 0.465058 0.033298
0.548797 0.463783 0.048814
0.633846 0.482326 0.023792
0.715536 0.510814 0.028179
0.789967 0.515789 0.030461
0.844709 0.518674 0.000000
0.880729 0.524115 0.000000
0.912649 0.529996 0.000000
0.941922 0.536416 0.000000
0.960522 0.543777 0.000000
0.970251 0.549987 0.000000
0.977953 0.555745 0.000000
0.984708 0.560141 0.000000
0.285080 0.499325 0.018311
0.344309 0.509786 0.015400
0.418458 0.521933 0.015417
0.499194 0.527406 0.031285
0.571859 0.529514 0.048314
0.651011 0.549207 0.036528
0.730788 0.572912 0.033573
0.803650 0.603937 0.035227
0.864052 0.595606 0.027796
0.904857 0.588136 0.000000
0.930688 0.584622 0.000000
0.952585 0.584911 0.000000
0.964678 0.589368 0.000000
0.973048 0.595387 0.000000
0.980596 0.602189 0.000000
0.986949 0.608832 0.000000
0.303408 0.570479 0.015501
0.363766 0.577847 0.015400
0.437659 0.586814 0.015456
0.516878 0.588988 0.030549
0.590769 0.594175 0.050616
0.665410 0.612644 0.042964
0.745192 0.640287 0.033692
0.812457 0.665078 0.033910
0.872401 0.688792 0.034969
0.921050 0.667389 0.032703
0.950078 0.648888 0.000000
0.963040 0.639380 0.000000
0.970271 0.637000 0.000000
0.977501 0.639917 0.000000
0.984089 0.645041 0.000000
0.989714 0.649432 0.000000
0.320209 0.625454 0.016021
0.380934 0.633010 0.015400
0.455208 0.642588 0.015643
0.533637 0.647402 0.031895
0.607938 0.655481 0.052982
0.681151 0.673786 0.047357
0.755242 0.700586 0.033923
0.823023 0.726136 0.034042
0.876963 0.746899 0.034278
0.925027 0.762122 0.035086
0.962589 0.730445 0.038108
0.973891 0.706302 0.000000
0.978521 0.693567 0.000000
0.983322 0.688539 0.000000
0.988581 0.689549 0.000000
0.992758 0.687929 0.000000
0.337532 0.674011 0.025899
0.400519 0.683221 0.021849
0.473220 0.693828 0.020147
0.549750 0.701930 0.037705
0.624093 0.714530 0.054214
0.696374 0.736117 0.048737
0.765771 0.761964 0.034113
0.827567 0.784267 0.034179
0.884839 0.805305 0.034485
0.926225 0.816251 0.034708
0.962192 0.823702 0.034865
0.980814 0.793195 0.037618
0.987086 0.766948 0.035776
0.990444 0.748735 0.000000
0.993682 0.740845 0.000000
0.996364 0.734134 0.000000
0.364327 0.769272 0.016804
0.423521 0.779362 0.016050
0.492005 0.789579 0.015400
0.564730 0.794370 0.015402
0.634478 0.802119 0.015483
0.705875 0.822680 0.016723
0.772162 0.840672 0.027854
0.829642 0.853030 0.034526
0.880677 0.862810 0.034688
0.929114 0.873716 0.034694
0.961785 0.875783 0.034695
0.981466 0.877539 0.034695
0.988978 0.854303 0.034912
0.994431 0.826138 0.035766
0.997622 0.800187 0.039238
0.999539 0.792541 0.035711
0.378966 0.845061 0.015400
0.439691 0.852109 0.015400
0.502260 0.860851 0.015400
0.569355 0.872403 0.015400
0.638434 0.884876 0.015445
0.708477 0.898649 0.019932
0.772615 0.911043 0.031266
0.827790 0.917979 0.034587
0.876851 0.922229 0.034775
0.921938 0.925305 0.034708
0.961578 0.927304 0.034672
0.981615 0.924394 0.034656
0.989013 0.931270 0.034659
0.994506 0.910462 0.034744
0.998295 0.874900 0.034808
1.000025 0.869963 0.037778
0.411408 0.924666 0.015400
0.445679 0.929658 0.015400
0.509259 0.934774 0.015616
0.575039 0.941048 0.020890
0.641934 0.945216 0.028192
0.708663 0.948415 0.034219
0.770509 0.951780 0.034217
0.824992 0.954458 0.034470
0.872903 0.956755 0.034791
0.917033 0.958880 0.034734
0.955892 0.961109 0.034639
0.978508 0.962947 0.034616
0.988489 0.966081 0.034616
0.994507 0.976473 0.034672
0.998299 0.960299 0.034691
1.000024 0.948054 0.034692
0.179033 0.042624 0.086629
0.221130 0.041711 0.084798
0.304380 0.043210 0.089388
0.364772 0.050224 0.090044
0.415375 0.057554 0.090525
0.475118 0.062481 0.081653
0.541371 0.065849 0.059078
0.604282 0.072916 0.040208
0.669008 0.083629 0.041764
0.736277 0.094796 0.060921
0.798994 0.106273 0.080992
0.853733 0.117854 0.098391
0.900863 0.127791 0.109132
0.938809 0.136637 0.111578
0.964345 0.144395 0.112398
0.982164 0.151846 0.112489
0.179724 0.065656 0.083211
0.216509 0.068475 0.086318
0.292027 0.069310 0.089555
0.356091 0.075933 0.090053
0.411145 0.082674 0.088030
0.472117 0.087460 0.069405
0.539786 0.100387 0.042703
0.607393 0.117632 0.030235
0.671318 0.129301 0.033982
0.738235 0.133885 0.049264
0.799982 0.138532 0.062310
0.854459 0.148448 0.079036
0.901285 0.159026 0.089225
0.939267 0.169057 0.091058
0.964956 0.178123 0.091059
0.983021 0.187617 0.090414
0.176114 0.102261 0.090275
0.210984 0.103985 0.090696
0.282109 0.105202 0.090119
0.347904 0.113019 0.091107
0.409988 0.124633 0.088371
0.477733 0.138037 0.067974
0.547856 0.156139 0.036065
0.617821 0.174015 0.019569
0.685154 0.189320 0.015366
0.746999 0.198101 0.034208
0.807282 0.199817 0.054666
0.861038 0.206704 0.067236
0.906249 0.216541 0.074301
0.943353 0.228691 0.075980
0.967637 0.238885 0.077165
0.984761 0.249119 0.078231
0.182606 0.156642 0.088360
0.225004 0.155710 0.083241
0.286313 0.158926 0.087720
0.369099 0.153822 0.087793
0.430764 0.164020 0.080447
0.495207 0.181156 0.055715
0.561270 0.197670 0.031838
0.629120 0.215080 0.013652
0.695625 0.231646 0.006809
0.755711 0.245278 0.022124
0.815151 0.254067 0.042491
0.866751 0.262879 0.056221
0.910785 0.272577 0.065449
0.946162 0.283689 0.066896
0.969519 0.294022 0.067025
0.985800 0.305778 0.066980
0.212617 0.205105 0.081383
0.247485 0.205013 0.076760
0.298325 0.217241 0.075633
0.380831 0.211839 0.080818
0.464107 0.208517 0.055511
0.526200 0.224535 0.033222
0.588103 0.248099 0.016396
0.650653 0.270959 0.002129
0.713272 0.286654 0.000000
0.773513 0.299507 0.000000
0.826544 0.312651 0.016549
0.875242 0.322898 0.035736
0.916659 0.331413 0.050303
0.949664 0.342229 0.052390
0.971107 0.353518 0.051473
0.986542 0.365535 0.049908
0.228540 0.255638 0.075080
0.258423 0.257676 0.074330
0.312658 0.277318 0.062806
0.396417 0.271626 0.074248
0.481772 0.267939 0.043423
0.556449 0.273965 0.033474
0.620090 0.296540 0.015410
0.684146 0.321886 0.000000
0.746389 0.342687 0.000000
0.798104 0.359794 0.000000
0.845223 0.370127 0.007550
0.886377 0.378146 0.026066
0.923849 0.388926 0.034219
0.952991 0.400714 0.032489
0.973105 0.411403 0.027685
0.986219 0.422590 0.020719
0.238610 0.309764 0.074012
0.267937 0.314211 0.072854
0.329028 0.340289 0.044723
0.416803 0.338027 0.064547
0.496500 0.331465 0.061829
0.581620 0.345233 0.035144
0.657346 0.355068 0.020230
0.721165 0.374462 0.000000
0.779706 0.395658 0.000000
0.831518 0.413171 0.005218
0.873700 0.427144 0.011532
0.907152 0.436219 0.009164
0.935724 0.442667 0.007012
0.958361 0.449500 0.002490
0.975822 0.459587 0.000000
0.983444 0.471462 0.000000
0.244700 0.366702 0.074614
0.274571 0.373372 0.067320
0.351012 0.400675 0.035796
0.439685 0.404753 0.055295
0.517173 0.399057 0.073858
0.606920 0.415068 0.033580
0.689715 0.430745 0.039205
0.760181 0.439679 0.002858
0.811056 0.453064 0.002534
0.855650 0.467507 0.000000
0.892740 0.480636 0.000000
0.923726 0.490724 0.000000
0.949589 0.498140 0.000000
0.966347 0.502473 0.000000
0.976571 0.505993 0.000000
0.983629 0.515141 0.000000
0.248415 0.423255 0.078281
0.295026 0.440464 0.050422
0.377386 0.463705 0.033564
0.463665 0.468277 0.051400
0.541076 0.465903 0.075636
0.627988 0.482906 0.051813
0.711261 0.510013 0.046833
0.785802 0.517389 0.056669
0.842164 0.519945 0.005931
0.877225 0.525643 0.000000
0.909546 0.531231 0.000000
0.938781 0.538363 0.000000
0.960012 0.546205 0.000000
0.970272 0.553257 0.000000
0.978117 0.559132 0.000000
0.984889 0.563144 0.000000
0.254857 0.483270 0.071343
0.324598 0.514703 0.035284
0.403247 0.526234 0.033455
0.486212 0.528756 0.049391
0.563423 0.530978 0.074986
0.644068 0.548578 0.066874
0.727587 0.573394 0.052970
0.800209 0.604350 0.054437
0.861819 0.597994 0.055817
0.902722 0.589686 0.000000
0.928203 0.586421 0.000000
0.950914 0.586360 0.000000
0.964727 0.591298 0.000000
0.973313 0.597804 0.000000
0.980643 0.604881 0.000000
0.987095 0.611735 0.000000
0.267751 0.556262 0.052747
0.345666 0.576981 0.033850
0.422893 0.586948 0.033455
0.504602 0.589123 0.048553
0.581810 0.594659 0.076039
0.658323 0.611465 0.075086
0.741123 0.640415 0.053400
0.811041 0.665969 0.053355
0.869910 0.689124 0.054359
0.919626 0.669152 0.057588
0.948568 0.650060 0.000000
0.962748 0.639682 0.000000
0.970312 0.637841 0.000000
0.977458 0.641079 0.000000
0.984330 0.647401 0.000000
0.989854 0.652747 0.000000
0.295136 0.623893 0.049603
0.365328 0.630701 0.035763
0.442182 0.642591 0.033657
0.521692 0.646550 0.050395
0.598469 0.654495 0.076343
0.673621 0.671550 0.079183
0.751126 0.699849 0.060018
0.821503 0.727078 0.053491
0.875914 0.747164 0.053765
0.922896 0.761563 0.054455
0.961319 0.730779 0.059853
0.974089 0.705801 0.024342
0.978196 0.693004 0.000000
0.983341 0.688811 0.000000
0.988641 0.690515 0.000000
0.992978 0.690969 0.000000
0.310501 0.673061 0.061197
0.384435 0.681038 0.048347
0.460807 0.693432 0.041279
0.538602 0.699818 0.058051
0.614389 0.710191 0.079346
0.688279 0.730434 0.081670
0.761616 0.760568 0.060453
0.825625 0.784985 0.053645
0.883125 0.805733 0.053954
0.925330 0.816248 0.054189
0.960862 0.822458 0.054372
0.980857 0.791004 0.057636
0.987134 0.765507 0.057668
0.990515 0.747349 0.042609
0.993815 0.740262 0.031940
0.996339 0.734154 0.000000
0.349348 0.771921 0.036619
0.410531 0.780435 0.034810
0.480593 0.790965 0.033701
0.555207 0.796753 0.033748
0.629376 0.803679 0.035143
0.698825 0.814944 0.036320
0.767817 0.837580 0.046385
0.827105 0.853394 0.054007
0.878972 0.863269 0.054181
0.927629 0.873042 0.054204
0.961028 0.874593 0.054205
0.981375 0.875377 0.054202
0.988981 0.852021 0.054456
0.994376 0.824884 0.055502
0.997586 0.799492 0.060688
0.999547 0.791933 0.060712
0.375559 0.848634 0.033455
0.429082 0.853717 0.033455
0.495021 0.859280 0.033455
0.562338 0.867761 0.033455
0.631198 0.877502 0.033460
0.701500 0.891086 0.035474
0.767170 0.906034 0.048014
0.824752 0.917126 0.054016
0.874994 0.922021 0.054281
0.920288 0.924230 0.054202
0.960538 0.926284 0.054160
0.981588 0.922630 0.054146
0.989027 0.929263 0.054137
0.994507 0.908437 0.054252
0.998296 0.874284 0.054307
1.000025 0.866497 0.057431
0.412114 0.928542 0.033460
0.443133 0.931440 0.033460
0.502769 0.935405 0.033607
0.568618 0.939238 0.037931
0.635421 0.944383 0.045915
0.702083 0.949797 0.053632
0.764819 0.953212 0.053673
0.820723 0.956170 0.053643
0.869742 0.958349 0.054282
0.914343 0.960273 0.054222
0.954505 0.962184 0.054156
0.978306 0.963920 0.054092
0.988380 0.966219 0.054092
0.994507 0.976196 0.054171
0.998300 0.960937 0.054180
1.000025 0.948676 0.054191
0.178217 0.052226 0.122845
0.209603 0.052192 0.123853
0.276492 0.053177 0.127160
0.376021 0.056986 0.129479
0.439284 0.064743 0.132389
0.502025 0.070437 0.124864
0.559310 0.075301 0.109010
0.624252 0.081256 0.092099
0.692879 0.089136 0.095741
0.751298 0.098871 0.103118
0.807862 0.109415 0.119150
0.860778 0.119835 0.136037
0.905547 0.129045 0.144526
0.942873 0.138107 0.146436
0.968144 0.146244 0.146749
0.984646 0.153900 0.146009
0.176446 0.074962 0.120110
0.208450 0.077774 0.123829
0.266776 0.078909 0.127076
0.371709 0.082452 0.130678
0.434253 0.091090 0.132029
0.495896 0.096701 0.123351
0.559095 0.101579 0.101894
0.627812 0.109128 0.081572
0.696732 0.118199 0.083944
0.754750 0.129024 0.089249
0.809900 0.139949 0.103769
0.861714 0.150367 0.120934
0.905750 0.159868 0.129958
0.942235 0.168821 0.132612
0.967538 0.177178 0.134161
0.984407 0.185274 0.134566
0.175624 0.103559 0.120478
0.207485 0.106991 0.123933
0.254995 0.113357 0.130423
0.357192 0.114558 0.133470
0.423728 0.122382 0.132407
0.489930 0.126135 0.118789
0.559784 0.131270 0.089534
0.630162 0.147300 0.073039
0.699119 0.158580 0.072866
0.756417 0.169743 0.076797
0.812105 0.176328 0.087478
0.862565 0.180770 0.099024
0.905841 0.190273 0.109524
0.942925 0.200294 0.113022
0.968144 0.210545 0.113706
0.985172 0.222786 0.115146
0.175624 0.147449 0.129168
0.207216 0.150610 0.131131
0.244687 0.156493 0.135139
0.341244 0.158711 0.136345
0.414901 0.168252 0.135874
0.486763 0.180861 0.120080
0.560405 0.195340 0.091448
0.631710 0.207706 0.072129
0.701753 0.219583 0.064913
0.765303 0.225073 0.071608
0.818518 0.233046 0.079933
0.868206 0.241427 0.090975
0.911140 0.251579 0.098275
0.947422 0.265215 0.099916
0.971261 0.277573 0.100522
0.987080 0.289375 0.101468
0.177886 0.210672 0.133139
0.213166 0.211735 0.129026
0.258882 0.215450 0.123679
0.345909 0.218321 0.125298
0.446191 0.211866 0.120940
0.513860 0.226632 0.103292
0.580536 0.247830 0.082869
0.647983 0.267661 0.066564
0.713783 0.281887 0.052296
0.776265 0.287373 0.063014
0.832997 0.293753 0.072921
0.878876 0.302722 0.080510
0.918332 0.312886 0.087135
0.951587 0.325638 0.087717
0.973286 0.337680 0.087552
0.987871 0.350484 0.087203
0.205933 0.265592 0.127963
0.242644 0.262446 0.120362
0.281236 0.268472 0.112547
0.364712 0.279981 0.104792
0.465804 0.269633 0.097148
0.548203 0.274970 0.080095
0.615083 0.295060 0.059340
0.681040 0.320419 0.039895
0.743730 0.342860 0.034293
0.799726 0.358882 0.043625
0.847780 0.367548 0.058999
0.890324 0.368746 0.073300
0.928728 0.375151 0.081327
0.958334 0.387297 0.079547
0.977624 0.398782 0.077772
0.988062 0.410425 0.075986
0.223563 0.316841 0.123501
0.258789 0.313380 0.112116
0.294023 0.327469 0.104864
0.387727 0.346685 0.087559
0.482386 0.336755 0.101588
0.575948 0.347242 0.055591
0.650987 0.354694 0.051439
0.717572 0.373832 0.035309
0.778050 0.395201 0.031760
0.829930 0.413663 0.041559
0.872770 0.427510 0.047863
0.907399 0.437239 0.050346
0.937826 0.440807 0.056269
0.962347 0.444432 0.061640
0.979394 0.453642 0.056751
0.986845 0.464766 0.052286
0.235366 0.367736 0.120476
0.267947 0.367129 0.110422
0.305906 0.392362 0.085173
0.414284 0.412646 0.073297
0.503996 0.404523 0.106098
0.595538 0.413800 0.064970
0.681120 0.432907 0.060723
0.753684 0.440084 0.047366
