luts/MAD_MAX_FURY_ROAD.cube
LUT_3D_SIZE 6
0.198169 0.026955 0.024648
0.345471 0.050732 0.028458
0.532628 0.091538 0.000000
0.731039 0.140950 0.000000
0.900833 0.153966 0.023631
0.980694 0.178349 0.027835
0.217869 0.155928 0.023884
0.395146 0.151537 0.005493
0.563033 0.204600 0.000000
0.761313 0.265763 0.000000
0.913433 0.309637 0.000000
0.983525 0.334038 0.000000
0.251739 0.314355 0.021033
0.434866 0.331288 0.022992
0.663657 0.354629 0.000000
0.841587 0.416185 0.000000
0.939352 0.443193 0.000000
0.983349 0.472701 0.000000
0.290907 0.501278 0.000429
0.505851 0.526408 0.013695
0.732793 0.573170 0.015536
0.903694 0.585038 0.000000
0.964628 0.588248 0.000000
0.986865 0.606297 0.000000
0.343515 0.674356 0.006129
0.556439 0.704708 0.017289
0.767309 0.761760 0.015838
0.926940 0.816866 0.016542
0.986922 0.764022 0.000000
0.996484 0.733680 0.000000
0.411117 0.923368 0.000000
0.578584 0.941285 0.004603
0.774596 0.950911 0.016097
0.917459 0.957874 0.016569
0.988395 0.966423 0.016468
1.000024 0.947186 0.016534
0.178217 0.052226 0.122845
0.376021 0.056986 0.129479
0.559310 0.075301 0.109010
0.751298 0.098871 0.103118
0.905547 0.129045 0.144526
0.984646 0.153900 0.146009
0.175624 0.147449 0.129168
0.341244 0.158711 0.136345
0.560405 0.195340 0.091448
0.765303 0.225073 0.071608
0.911140 0.251579 0.098275
0.987080 0.289375 0.101468
0.223563 0.316841 0.123501
0.387727 0.346685 0.087559
0.650987 0.354694 0.051439
0.829930 0.413663 0.041559
0.937826 0.440807 0.056269
0.986845 0.464766 0.052286
0.243688 0.470494 0.126758
0.465645 0.533190 0.066961
0.720869 0.572914 0.075288
0.901156 0.591296 0.046194
0.966201 0.593267 0.005666
0.987267 0.614966 0.000000
0.269306 0.663674 0.138041
0.521621 0.700451 0.079678
0.752685 0.755820 0.103413
0.924256 0.816233 0.074824
0.986824 0.763486 0.080147
0.996783 0.735100 0.051153
0.409390 0.930331 0.052884
0.558145 0.940336 0.057431
0.757923 0.954683 0.074267
0.911281 0.961745 0.074867
0.988305 0.967091 0.074707
1.000025 0.948455 0.074793
0.181122 0.092333 0.239483
0.276513 0.092330 0.260694
0.622856 0.113322 0.273445
0.832980 0.126784 0.279262
0.933887 0.154401 0.282322
0.995480 0.175123 0.264696
0.176320 0.169450 0.230931
0.265910 0.189017 0.255737
0.618704 0.201924 0.279818
0.821320 0.219145 0.260349
0.932657 0.250820 0.270748
0.994885 0.273791 0.255583
0.175624 0.312852 0.263325
0.265725 0.338382 0.282797
0.571901 0.368383 0.318735
0.801207 0.414039 0.269861
0.934676 0.416116 0.273445
0.993447 0.429322 0.271618
0.175625 0.542464 0.316280
0.268662 0.516490 0.281915
0.653051 0.573028 0.253508
0.881522 0.599219 0.232990
0.967477 0.606963 0.254694
0.992478 0.628405 0.263958
0.175624 0.651672 0.315826
0.317160 0.661457 0.277285
0.700900 0.740008 0.242109
0.913431 0.815505 0.202470
0.986476 0.758986 0.153627
0.997603 0.748418 0.267695
0.333395 0.924750 0.234219
0.480342 0.937725 0.128749
0.722708 0.957369 0.142409
0.891129 0.966967 0.195652
0.988275 0.966840 0.214596
1.000024 0.927288 0.204457
0.183631 0.144976 0.377807
0.267885 0.141434 0.389689
0.584330 0.142641 0.409252
0.863040 0.166570 0.409983
0.966887 0.180452 0.399267
0.998515 0.215426 0.399858
0.180370 0.226451 0.372135
0.266646 0.233894 0.387328
0.552364 0.220438 0.437696
0.860394 0.256314 0.406298
0.965379 0.279657 0.402084
0.997994 0.320377 0.414483
0.175625 0.333709 0.381591
0.263030 0.358239 0.409088
0.364868 0.399102 0.487457
0.842400 0.403334 0.450876
0.957671 0.412131 0.442385
0.996894 0.449648 0.453494
0.175625 0.513988 0.449662
0.263056 0.539533 0.470251
0.346871 0.595321 0.522569
0.812224 0.631509 0.563725
0.950619 0.665316 0.538019
0.996022 0.668128 0.522797
0.175624 0.766388 0.544635
0.263512 0.758108 0.524615
0.377094 0.739866 0.485046
0.855755 0.805489 0.483989
0.983959 0.780411 0.465332
0.998147 0.786440 0.497556
0.175624 0.937682 0.433592
0.310408 0.936997 0.412836
0.566509 0.976276 0.310061
0.851151 0.974723 0.378054
0.987049 0.967099 0.440039
1.000024 0.922915 0.417176
0.185932 0.201805 0.531341
0.269394 0.196915 0.537347
0.520116 0.175633 0.583418
0.829346 0.208845 0.538157
0.969197 0.231488 0.575468
0.999144 0.266212 0.589458
0.183719 0.289360 0.531217
0.268279 0.289171 0.535997
0.377850 0.286217 0.588507
0.811723 0.299034 0.573300
0.966154 0.332428 0.599550
0.998742 0.370216 0.611264
0.176723 0.385395 0.527944
0.264751 0.400964 0.549746
0.343084 0.424306 0.601346
0.786265 0.403060 0.651363
0.960471 0.449583 0.650627
0.998339 0.497767 0.658828
0.175624 0.525552 0.567990
0.262174 0.553247 0.597466
0.343081 0.581652 0.635284
0.621610 0.616049 0.771609
0.952732 0.653405 0.743813
0.998225 0.681169 0.732571
0.175624 0.718099 0.649410
0.262733 0.735605 0.663644
0.343771 0.764223 0.687388
0.569632 0.829602 0.774120
0.957903 0.844097 0.780398
0.998791 0.859355 0.771798
0.175624 0.913270 0.707843
0.263520 0.929952 0.715378
0.345239 0.945489 0.676170
0.648418 0.982393 0.596639
0.965995 0.968602 0.714320
1.000038 0.941657 0.677330
0.190173 0.257526 0.677276
0.272198 0.254044 0.681063
0.396946 0.236973 0.725760
0.793885 0.240543 0.766399
0.949627 0.266308 0.779155
0.998770 0.302529 0.808912
0.187268 0.354374 0.690816
0.270205 0.350799 0.690281
0.344207 0.352355 0.719653
0.741145 0.315728 0.802165
0.949576 0.347604 0.801181
0.998934 0.395442 0.825622
0.182174 0.440681 0.686077
0.266955 0.449599 0.703209
0.342997 0.460616 0.732631
0.507628 0.421032 0.835910
0.944453 0.435074 0.849164
0.998952 0.502781 0.850471
0.175624 0.578033 0.718750
0.261513 0.598881 0.741422
0.341700 0.605420 0.755485
0.416053 0.627588 0.838455
0.883894 0.618497 0.904804
0.998730 0.662186 0.880161
0.175624 0.719399 0.754324
0.262033 0.737264 0.771076
0.338822 0.746366 0.782470
0.419003 0.772200 0.838966
0.890970 0.825018 0.920427
0.998170 0.845528 0.911830
0.175625 0.875609 0.790271
0.262738 0.886686 0.798074
0.339721 0.898693 0.806156
0.423636 0.925306 0.826415
0.883232 0.966211 0.922342
0.999969 0.971117 0.914872
