luts/MOONLIGHT.cube
LUT_3D_SIZE 16
0.000000 0.000000 0.000000
0.006230 0.000509 0.000792
0.029263 0.001704 0.001332
0.077778 0.003037 0.001282
0.140047 0.004028 0.000416
0.208643 0.004674 0.000000
0.282548 0.004477 0.000000
0.358574 0.003673 0.000000
0.436545 0.002678 0.000000
0.516048 0.001642 0.000000
0.595221 0.001140 0.000000
0.675383 0.000706 0.000000
0.756144 0.000354 0.000000
0.838386 0.000094 0.000000
0.920473 0.000009 0.000000
0.989402 0.000000 0.000000
0.000243 0.016077 0.002340
0.008030 0.018415 0.003094
0.033503 0.019276 0.001162
0.083398 0.020901 0.000245
0.146053 0.023004 0.000000
0.215292 0.025200 0.000000
0.289591 0.026113 0.000000
0.365479 0.026469 0.000000
0.442964 0.026002 0.000000
0.521192 0.025286 0.000000
0.599727 0.025101 0.000000
0.679176 0.024792 0.000000
0.759577 0.024305 0.000000
0.841414 0.023672 0.000000
0.922940 0.022918 0.000000
0.990658 0.021930 0.000000
0.001436 0.051439 0.006611
0.011018 0.054261 0.007371
0.030396 0.058291 0.005500
0.092078 0.057543 0.000000
0.155269 0.059590 0.000000
0.225702 0.061629 0.000000
0.300110 0.063821 0.000000
0.375637 0.066029 0.000000
0.452077 0.067373 0.000000
0.528722 0.068931 0.000000
0.606376 0.070284 0.000000
0.685124 0.071319 0.000000
0.764825 0.071951 0.000000
0.845916 0.072209 0.000000
0.926623 0.072073 0.000000
0.992660 0.071497 0.000000
0.004571 0.103013 0.010854
0.016350 0.106566 0.010648
0.036000 0.111216 0.008890
0.082640 0.116094 0.001319
0.167882 0.116216 0.000000
0.238155 0.118159 0.000000
0.311365 0.120706 0.000000
0.386764 0.123649 0.000000
0.461973 0.127004 0.000000
0.537786 0.130300 0.000000
0.614673 0.133135 0.000000
0.692635 0.135628 0.000000
0.771695 0.137685 0.000000
0.851973 0.139139 0.000000
0.931213 0.139891 0.000000
0.995135 0.139994 0.000000
0.011704 0.160758 0.006362
0.028267 0.165280 0.004768
0.054512 0.169874 0.002786
0.099105 0.172859 0.000504
0.173025 0.179305 0.000000
0.247606 0.185294 0.000000
0.320203 0.188140 0.000000
0.394090 0.191301 0.000000
0.469294 0.194837 0.000000
0.545335 0.198183 0.000000
0.622132 0.201307 0.000000
0.699797 0.204241 0.000000
0.778244 0.206848 0.000000
0.858008 0.209023 0.000000
0.936097 0.210491 0.000000
0.997384 0.211175 0.000000
0.021316 0.215998 0.000383
0.043164 0.222364 0.000089
0.077992 0.227353 0.000000
0.127652 0.230301 0.000000
0.188599 0.238039 0.000000
0.253766 0.250352 0.000000
0.324764 0.259549 0.000000
0.398307 0.263523 0.000000
0.473568 0.266464 0.000000
0.549524 0.269608 0.000000
0.626346 0.272650 0.000000
0.704317 0.275251 0.000000
0.783003 0.277566 0.000000
0.862507 0.279725 0.000000
0.939950 0.281405 0.000000
0.999107 0.282350 0.000000
0.030607 0.270058 0.000000
0.055278 0.276814 0.000000
0.093678 0.283084 0.000000
0.146401 0.286988 0.000000
0.207424 0.296138 0.000000
0.267357 0.311529 0.000000
0.331423 0.326950 0.000000
0.401738 0.336527 0.000000
0.475288 0.341153 0.000000
0.551203 0.343491 0.000000
0.627985 0.346085 0.000000
0.705922 0.348461 0.000000
0.785030 0.350532 0.000000
0.865271 0.352140 0.000000
0.942558 0.353304 0.000000
1.000030 0.354242 0.000000
0.040518 0.322773 0.000000
0.068028 0.329873 0.000000
0.109246 0.337313 0.000000
0.164284 0.343079 0.000000
0.230279 0.350334 0.000000
0.289735 0.369365 0.000000
0.345669 0.390932 0.000000
0.408529 0.406097 0.000000
0.477922 0.414526 0.000000
0.550985 0.419333 0.000000
0.627844 0.421077 0.000000
0.705943 0.422811 0.000000
0.785263 0.424428 0.000000
0.865601 0.425797 0.000000
0.943443 0.426789 0.000000
1.000030 0.427252 0.000000
0.051443 0.375178 0.000000
0.082887 0.383000 0.000000
0.126621 0.391123 0.000000
0.183473 0.397836 0.000000
0.251715 0.403379 0.000000
0.314526 0.421793 0.000000
0.370203 0.448218 0.000000
0.419669 0.475046 0.000000
0.483555 0.486411 0.000000
0.553537 0.492586 0.000000
0.627005 0.496719 0.000000
0.705319 0.497844 0.000000
0.784669 0.498866 0.000000
0.865211 0.499794 0.000000
0.943227 0.500395 0.000000
1.000030 0.500733 0.000000
0.064789 0.429119 0.000000
0.099149 0.436997 0.000000
0.144567 0.444565 0.000000
0.202109 0.451047 0.000000
0.268957 0.457141 0.000000
0.338301 0.469326 0.000000
0.395246 0.499655 0.000000
0.445623 0.530859 0.000000
0.490602 0.560087 0.000000
0.557695 0.567135 0.000000
0.629529 0.570420 0.000000
0.704587 0.572532 0.000000
0.783789 0.573196 0.000000
0.864409 0.573585 0.000000
0.942447 0.573842 0.000000
1.000030 0.573926 0.000000
0.079920 0.483301 0.000000
0.115485 0.490191 0.000000
0.161734 0.496883 0.000000
0.219554 0.503053 0.000000
0.284947 0.509372 0.000016
0.355506 0.518994 0.000000
0.419387 0.544795 0.000000
0.470541 0.581893 0.000000
0.516020 0.615669 0.000000
0.562317 0.643777 0.000000
0.632339 0.647519 0.000000
0.707078 0.647569 0.000000
0.783517 0.647031 0.000000
0.863268 0.646694 0.000000
0.941656 0.646471 0.000000
1.000030 0.646451 0.000000
0.095225 0.534605 0.000125
0.131018 0.540612 0.000000
0.177687 0.547391 0.000000
0.235355 0.554213 0.000083
0.300187 0.561622 0.000420
0.369622 0.572364 0.000064
0.441604 0.589136 0.000000
0.495240 0.627579 0.000000
0.540804 0.666674 0.000000
0.584230 0.701903 0.000000
0.635130 0.727300 0.000000
0.708830 0.727265 0.000000
0.786033 0.723654 0.000000
0.864231 0.720329 0.000000
0.941328 0.718918 0.000000
1.000030 0.718879 0.000000
0.111545 0.587332 0.001155
0.147792 0.593622 0.000388
0.194398 0.601467 0.000135
0.251723 0.609999 0.000306
0.316235 0.619683 0.000306
0.385288 0.632075 0.000044
0.457359 0.647575 0.000000
0.521034 0.673906 0.000000
0.565909 0.714668 0.000000
0.608836 0.752537 0.000000
0.654481 0.786767 0.000000
0.712624 0.807646 0.000000
0.790067 0.803680 0.000000
0.868345 0.798104 0.000000
0.943582 0.793812 0.000000
1.000030 0.791180 0.000000
0.132846 0.653036 0.000117
0.168336 0.659485 0.000043
0.213832 0.667901 0.000000
0.270272 0.678040 0.000000
0.334205 0.689530 0.000000
0.402989 0.703147 0.000000
0.474070 0.717994 0.000000
0.544482 0.732201 0.000000
0.593388 0.764062 0.000000
0.635566 0.799752 0.000000
0.679960 0.833979 0.000000
0.730460 0.866528 0.000000
0.794559 0.884511 0.000000
0.873126 0.878702 0.000000
0.947895 0.872274 0.000000
1.000030 0.867183 0.000000
0.161477 0.735079 0.000000
0.193741 0.741338 0.000000
0.236150 0.749223 0.000000
0.290890 0.758950 0.000000
0.354261 0.769921 0.000000
0.422325 0.781419 0.000000
0.492217 0.792538 0.000000
0.560674 0.802260 0.000000
0.621430 0.814918 0.000000
0.661548 0.846458 0.000000
0.703866 0.878731 0.000000
0.751936 0.911676 0.000000
0.808311 0.944455 0.000000
0.877666 0.959546 0.000000
0.952428 0.952616 0.000000
1.000030 0.945629 0.000000
0.196122 0.827406 0.000000
0.224309 0.832788 0.000000
0.261970 0.839710 0.000000
0.313926 0.847529 0.000000
0.376016 0.854172 0.000000
0.442428 0.859149 0.000000
0.510049 0.863348 0.000000
0.576160 0.867093 0.000000
0.638994 0.870389 0.000000
0.686064 0.888521 0.000000
0.726363 0.918228 0.000000
0.771648 0.950494 0.000000
0.824952 0.983512 0.000000
0.887949 1.000039 0.000000
0.956625 1.000024 0.000000
1.000030 1.000024 0.000000
0.000000 0.000357 0.013470
0.004607 0.001739 0.018851
0.022311 0.003716 0.026474
0.077614 0.004521 0.024328
0.139931 0.005426 0.024017
0.208859 0.005706 0.021995
0.283452 0.004931 0.019580
0.359747 0.003753 0.019065
0.437255 0.002570 0.020660
0.516068 0.001600 0.022819
0.594788 0.001153 0.024544
0.674510 0.000757 0.025545
0.755495 0.000389 0.025742
0.837506 0.000121 0.025300
0.919707 0.000010 0.024507
0.988848 0.000000 0.023484
0.000008 0.018159 0.021829
0.005675 0.020671 0.025157
0.029580 0.022324 0.026031
0.080175 0.023737 0.024600
0.143933 0.025544 0.023333
0.214164 0.027076 0.020823
0.289878 0.027205 0.018111
0.366312 0.026839 0.017441
0.443352 0.026007 0.018864
0.521232 0.025203 0.020984
0.599221 0.025010 0.022688
0.678424 0.024733 0.023614
0.758772 0.024290 0.023991
0.840528 0.023649 0.023769
0.922314 0.022828 0.023181
0.990114 0.021845 0.022416
0.000428 0.053068 0.028253
0.008386 0.055935 0.029722
0.027088 0.059895 0.030474
0.087578 0.059983 0.024173
0.152130 0.061815 0.021434
0.224086 0.063509 0.018103
0.299707 0.065164 0.015599
0.375758 0.066623 0.015289
0.452189 0.067533 0.016508
0.528402 0.068798 0.018426
0.605683 0.069988 0.019980
0.684141 0.070903 0.020967
0.763882 0.071610 0.021440
0.844876 0.071876 0.021513
0.925669 0.071761 0.021219
0.992133 0.071255 0.020780
0.002478 0.104731 0.036695
0.012687 0.108177 0.036879
0.030337 0.112670 0.036730
0.073223 0.118347 0.028979
0.164952 0.118679 0.018531
0.236690 0.120148 0.015312
0.310935 0.122083 0.012934
0.386533 0.124406 0.012498
0.461587 0.127397 0.013925
0.537100 0.130296 0.015600
0.613780 0.132955 0.016964
0.691564 0.135303 0.017909
0.770571 0.137216 0.018470
0.850832 0.138593 0.018692
0.930352 0.139424 0.018699
0.994795 0.139680 0.018585
0.008739 0.163323 0.034075
0.023655 0.167127 0.032244
0.048072 0.171387 0.029370
0.090044 0.175012 0.025107
0.168141 0.181788 0.015211
0.246969 0.187273 0.012498
0.320079 0.189538 0.011162
0.393959 0.192309 0.011328
0.468963 0.195462 0.012106
0.544723 0.198549 0.013235
0.621271 0.201449 0.014396
0.698587 0.204251 0.015236
0.777218 0.206739 0.015794
0.856864 0.208906 0.016116
0.935341 0.210341 0.016308
0.997130 0.211083 0.016422
0.018658 0.218631 0.022536
0.038767 0.223983 0.019380
0.071482 0.229401 0.017361
0.121935 0.233008 0.016837
0.185194 0.240248 0.012161
0.253179 0.252262 0.009050
0.324829 0.261078 0.010388
0.398514 0.264550 0.010860
0.473630 0.267268 0.011556
0.549301 0.270252 0.012219
0.626015 0.273048 0.012846
0.703599 0.275473 0.013329
0.782340 0.277764 0.013909
0.861914 0.279868 0.014348
0.939451 0.281519 0.014655
0.998997 0.282508 0.014979
0.028313 0.271915 0.018713
0.051230 0.278124 0.015190
0.087614 0.285434 0.012780
0.140037 0.290528 0.013028
0.203883 0.298268 0.012460
0.267015 0.313106 0.008066
0.331643 0.328354 0.007791
0.401987 0.337724 0.009756
0.475593 0.342029 0.011313
0.551351 0.344149 0.011876
0.627901 0.346577 0.012390
0.705829 0.348764 0.012785
0.784868 0.350720 0.013087
0.864839 0.352310 0.013441
0.942373 0.353506 0.013927
1.000030 0.354349 0.014434
0.037731 0.323368 0.018686
0.063953 0.330698 0.014150
0.103413 0.339666 0.010944
0.157853 0.346826 0.010634
0.225997 0.353202 0.012246
0.289318 0.370635 0.008663
0.346416 0.391987 0.007187
0.408954 0.407241 0.007564
0.478160 0.415293 0.009689
0.551322 0.419851 0.011966
0.628065 0.421360 0.012399
0.706021 0.423108 0.012872
0.785322 0.424686 0.013254
0.865475 0.426000 0.013664
0.943339 0.426846 0.014142
1.000030 0.427362 0.014730
0.048009 0.373910 0.019257
0.078132 0.382956 0.013539
0.120672 0.393054 0.009810
0.176913 0.401177 0.009837
0.246505 0.406851 0.012507
0.313752 0.422842 0.010517
0.370903 0.449091 0.007217
0.420795 0.475535 0.006986
0.483886 0.487276 0.007566
0.553622 0.493147 0.009835
0.627164 0.496971 0.012935
0.705383 0.497993 0.013471
0.784685 0.499051 0.013914
0.865207 0.499906 0.014403
0.943218 0.500438 0.014950
1.000030 0.500782 0.015542
0.059897 0.425463 0.019750
0.093757 0.435693 0.013281
0.138331 0.445867 0.009677
0.195581 0.453663 0.010459
0.263745 0.459971 0.013504
0.336187 0.470600 0.013163
0.395861 0.500260 0.007787
0.446842 0.531476 0.006935
0.491430 0.560453 0.006985
0.557799 0.567667 0.007624
0.629574 0.570777 0.010169
0.704599 0.572656 0.013884
0.783726 0.573273 0.014901
0.864417 0.573608 0.015392
0.942436 0.573859 0.015933
1.000030 0.573926 0.016509
0.073992 0.478224 0.020388
0.109566 0.487948 0.014310
0.155277 0.497194 0.011478
0.213020 0.504575 0.012804
0.279625 0.511110 0.015933
0.351977 0.520847 0.015857
0.419632 0.544935 0.010212
0.471854 0.582345 0.007032
0.517225 0.616075 0.006844
0.562636 0.643957 0.007079
0.632384 0.647852 0.007724
0.706979 0.647587 0.010619
0.783430 0.647046 0.014899
0.863164 0.646694 0.016527
0.941645 0.646471 0.017017
1.000030 0.646451 0.017336
0.089130 0.530121 0.023467
0.125248 0.538603 0.018048
0.171436 0.547177 0.015417
0.229036 0.554796 0.016419
0.294692 0.562452 0.018735
0.365672 0.573280 0.017960
0.440204 0.589557 0.012703
0.496291 0.627586 0.007265
0.542134 0.667027 0.006818
0.585071 0.701891 0.006847
0.635287 0.727437 0.007162
0.708773 0.727402 0.007886
0.786057 0.723588 0.011078
0.864029 0.720274 0.015549
0.941318 0.718901 0.017299
1.000030 0.718879 0.017339
0.106267 0.584932 0.025528
0.142572 0.592928 0.020659
0.188704 0.601703 0.017591
0.245895 0.610430 0.017247
0.310868 0.619706 0.017638
0.380920 0.631883 0.016012
0.454475 0.647848 0.011518
0.521373 0.673314 0.007222
0.567145 0.714882 0.006797
0.609858 0.752468 0.006772
0.655045 0.786393 0.006872
0.712673 0.807481 0.007242
0.790067 0.803681 0.007935
0.868505 0.798028 0.010817
0.943460 0.793742 0.014919
1.000030 0.791179 0.017331
0.129190 0.652779 0.020574
0.164418 0.660565 0.016197
0.209196 0.669441 0.013255
0.265176 0.678780 0.011852
0.329189 0.689093 0.011312
0.398304 0.701904 0.010000
0.470386 0.716943 0.007674
0.542400 0.732469 0.006868
0.594139 0.763862 0.006694
0.636375 0.799540 0.006703
0.680479 0.833628 0.006774
0.730901 0.865997 0.006903
0.794711 0.884415 0.007283
0.873126 0.878702 0.007895
0.947838 0.872258 0.010515
1.000030 0.867017 0.014353
0.160407 0.737097 0.011044
0.192038 0.743597 0.008788
0.233068 0.751311 0.007309
0.286642 0.759813 0.006996
0.349536 0.769220 0.006858
0.417482 0.779922 0.006735
0.487963 0.791593 0.006655
0.557673 0.802700 0.006597
0.621301 0.814916 0.006557
0.661982 0.846444 0.006609
0.704345 0.878428 0.006703
0.752298 0.911237 0.006787
0.808584 0.944075 0.006912
0.877796 0.959775 0.007331
0.952435 0.952625 0.007859
1.000030 0.945625 0.010229
0.197627 0.831500 0.006552
0.224831 0.835944 0.006549
0.260454 0.841754 0.006548
0.310473 0.848058 0.006548
0.371694 0.854133 0.006548
0.437995 0.859786 0.006547
0.505941 0.864936 0.006547
0.572988 0.868973 0.006547
0.637172 0.872612 0.006547
0.686007 0.889477 0.006559
0.726735 0.918739 0.006632
0.772175 0.950525 0.006718
0.825273 0.983321 0.006827
0.888068 1.000038 0.006912
0.956697 1.000024 0.007362
1.000030 1.000024 0.007879
0.000000 0.001921 0.039492
0.003015 0.003677 0.046691
0.014931 0.006965 0.057450
0.052661 0.009687 0.070480
0.140590 0.008369 0.064971
0.210924 0.008253 0.062505
0.286558 0.006757 0.060518
0.363702 0.004860 0.060304
0.440917 0.003277 0.062707
0.518486 0.002118 0.066303
0.596023 0.001588 0.069677
0.674875 0.001074 0.072134
0.755160 0.000604 0.073696
0.836832 0.000233 0.074504
0.918943 0.000020 0.074737
0.988257 0.000000 0.074525
0.000000 0.021180 0.052040
0.003009 0.024071 0.058266
0.014160 0.028079 0.067364
0.058170 0.030604 0.072212
0.141350 0.030573 0.066429
0.213564 0.031212 0.064030
0.291114 0.030034 0.060743
0.368862 0.028472 0.059546
0.446060 0.026949 0.061332
0.522885 0.025933 0.064728
0.599915 0.025651 0.067989
0.678198 0.025241 0.070449
0.758074 0.024691 0.072097
0.839410 0.023939 0.073056
0.920995 0.023017 0.073363
0.989467 0.021969 0.073412
0.000000 0.055607 0.061913
0.004258 0.058665 0.065291
0.017607 0.063181 0.071262
0.071635 0.066017 0.071306
0.146405 0.067244 0.067997
0.221566 0.067892 0.064477
0.299434 0.067997 0.060362
0.376846 0.068043 0.058597
0.453527 0.068043 0.059822
0.529046 0.068906 0.062688
0.605515 0.069958 0.065579
0.683259 0.070807 0.067948
0.762801 0.071383 0.069667
0.843572 0.071609 0.070729
0.924539 0.071576 0.071353
0.991564 0.071099 0.071634
0.000529 0.106944 0.070821
0.008361 0.110446 0.071709
0.024055 0.115079 0.073191
0.062489 0.120890 0.073367
0.159052 0.122247 0.066949
0.234011 0.123014 0.062613
0.310043 0.124090 0.058930
0.386505 0.125577 0.057368
0.461593 0.127823 0.058470
0.536767 0.130196 0.060631
0.612793 0.132515 0.062919
0.690156 0.134683 0.064936
0.769046 0.136497 0.066533
0.849382 0.137948 0.067718
0.929103 0.138867 0.068599
0.994022 0.139271 0.069175
0.004669 0.166759 0.075427
0.017503 0.170084 0.073461
0.039496 0.174092 0.071402
0.078996 0.178196 0.068759
0.157060 0.184588 0.062367
0.244904 0.189955 0.059576
0.319041 0.191435 0.057533
0.393377 0.193639 0.057039
0.468469 0.196159 0.057876
0.544102 0.198829 0.059422
0.620203 0.201447 0.061034
0.697497 0.203998 0.062559
0.775694 0.206446 0.063901
0.855589 0.208524 0.064963
0.934326 0.210016 0.065914
0.996651 0.210878 0.066712
0.014203 0.223996 0.065833
0.032305 0.227550 0.061053
0.061860 0.232578 0.057392
0.111283 0.236821 0.055568
0.177300 0.242721 0.053155
0.250486 0.255037 0.053257
0.323806 0.263395 0.056985
0.397964 0.265961 0.057269
0.473031 0.268287 0.057968
0.548762 0.270951 0.059209
0.625281 0.273412 0.060496
0.702812 0.275689 0.061634
0.781327 0.277851 0.062654
0.860842 0.279962 0.063516
0.938867 0.281599 0.064384
0.998806 0.282633 0.065292
0.024231 0.277574 0.060939
0.045209 0.281649 0.054953
0.078346 0.288334 0.049699
0.128926 0.294835 0.047751
0.195439 0.300850 0.048267
0.264420 0.315114 0.047110
0.330580 0.330421 0.050156
0.401385 0.339374 0.056366
0.475295 0.342858 0.058582
0.550987 0.344817 0.059628
0.627595 0.347082 0.060851
0.705307 0.349196 0.061937
0.784452 0.350991 0.062908
0.864508 0.352468 0.063754
0.941913 0.353813 0.064572
0.999991 0.354576 0.065505
0.033901 0.327746 0.059021
0.057690 0.333056 0.051978
0.094388 0.341778 0.045297
0.147036 0.350588 0.042781
0.216564 0.356604 0.044507
0.286772 0.372007 0.044587
0.346367 0.393149 0.042441
0.408517 0.408662 0.048738
0.477685 0.416635 0.056828
0.551135 0.420368 0.060921
0.627905 0.421772 0.061923
0.705836 0.423375 0.062974
0.785081 0.424986 0.063935
0.865529 0.426132 0.064957
0.943469 0.426971 0.066006
1.000030 0.427340 0.066950
0.043441 0.375339 0.059092
0.071015 0.383299 0.050429
0.111210 0.393969 0.042780
0.166178 0.404098 0.040100
0.236695 0.411088 0.043217
0.310970 0.423553 0.043631
0.371323 0.449677 0.039915
0.421936 0.475861 0.040218
0.483730 0.488242 0.049165
0.553349 0.493878 0.058067
0.627085 0.497297 0.063634
0.705294 0.498241 0.064624
0.784595 0.499185 0.065556
0.865098 0.500025 0.066532
0.943138 0.500574 0.067498
1.000030 0.500807 0.068461
0.053381 0.422599 0.060733
0.085222 0.433020 0.050257
0.128148 0.445210 0.042154
0.184857 0.455734 0.040243
0.254580 0.463328 0.044156
0.331669 0.472283 0.045385
0.395962 0.500026 0.039970
0.448236 0.531733 0.036667
0.492554 0.560461 0.041669
0.557737 0.568250 0.051041
0.629399 0.571078 0.059786
0.704353 0.572829 0.066000
0.783773 0.573318 0.067437
0.864367 0.573644 0.068248
0.942419 0.573878 0.069072
1.000030 0.573895 0.069882
0.064679 0.471027 0.063470
0.099638 0.482769 0.052494
0.144571 0.495169 0.044569
0.202463 0.505538 0.043088
0.270878 0.513558 0.046883
0.345767 0.523376 0.048731
0.418828 0.543971 0.042695
0.473280 0.581817 0.036002
0.518818 0.615912 0.036432
0.562984 0.644304 0.044205
0.632448 0.648057 0.053335
0.706802 0.647617 0.061582
0.783260 0.647036 0.067846
0.863124 0.646696 0.069911
0.941637 0.646471 0.070560
1.000030 0.646451 0.070959
0.077985 0.520899 0.067953
0.114481 0.532659 0.057271
0.160557 0.544676 0.049567
0.218770 0.555013 0.047488
0.286203 0.563866 0.049989
0.359216 0.574757 0.051053
0.436371 0.590237 0.045373
0.497297 0.626022 0.036638
0.543959 0.666315 0.033893
0.586540 0.701336 0.037812
0.635634 0.727211 0.046754
0.708728 0.727426 0.055556
0.785991 0.723611 0.063064
0.863856 0.720084 0.068945
0.941294 0.718959 0.070920
1.000030 0.718879 0.070961
0.095022 0.576450 0.070106
0.132029 0.587960 0.059565
0.178404 0.600055 0.051317
0.236230 0.610978 0.047563
0.302720 0.620877 0.047658
0.374391 0.632504 0.047052
0.449574 0.648289 0.042101
0.521439 0.670949 0.034354
0.568674 0.713546 0.031529
0.611338 0.751664 0.033821
0.655970 0.785673 0.039693
0.713111 0.807432 0.048584
0.790064 0.803687 0.056109
0.868447 0.797870 0.062764
0.943563 0.793505 0.068091
1.000030 0.791177 0.070953
0.120575 0.646777 0.061855
0.156128 0.657977 0.051672
0.200629 0.669739 0.043200
0.256689 0.680709 0.038515
0.321699 0.690642 0.036792
0.391976 0.702073 0.035515
0.465247 0.716433 0.032582
0.538669 0.732808 0.028587
0.594839 0.762143 0.027381
0.637586 0.798624 0.029914
0.681545 0.832601 0.034467
0.731526 0.865231 0.040798
0.794803 0.884462 0.049401
0.873122 0.878702 0.056106
0.947788 0.872061 0.062318
1.000030 0.866975 0.067378
0.156443 0.735372 0.042496
0.187928 0.743748 0.036017
0.227560 0.753100 0.030676
0.279795 0.762179 0.027477
0.342769 0.770631 0.026142
0.411404 0.780136 0.025345
0.482678 0.791373 0.024597
0.553681 0.803092 0.023484
0.620458 0.814621 0.023121
0.662657 0.845683 0.026384
0.705143 0.877539 0.030335
0.752732 0.910299 0.035572
0.808895 0.943387 0.041840
0.877865 0.959733 0.050044
0.952433 0.952627 0.056110
1.000030 0.945467 0.061918
0.198319 0.834376 0.022273
0.224839 0.838854 0.021635
0.258170 0.844133 0.021216
0.305191 0.849652 0.021139
0.365662 0.855172 0.021133
0.432440 0.860935 0.021131
0.501091 0.866532 0.021127
0.569054 0.871673 0.021124
0.634284 0.875416 0.021467
0.686503 0.889687 0.023349
0.727363 0.918832 0.027189
0.772971 0.950297 0.031709
0.825647 0.982894 0.036778
0.888192 1.000036 0.042624
0.956677 1.000024 0.050478
1.000030 1.000024 0.056102
0.000000 0.005234 0.075313
0.002849 0.007230 0.082421
0.010625 0.010622 0.093573
0.027387 0.015863 0.111124
0.101096 0.018196 0.124191
0.210898 0.014250 0.117138
0.293183 0.010481 0.112098
0.370904 0.007937 0.112221
0.448388 0.005654 0.115029
0.524499 0.003858 0.119228
0.600070 0.002829 0.123656
0.677293 0.001961 0.127530
0.756123 0.001190 0.130676
0.836934 0.000571 0.133126
0.918330 0.000144 0.134927
0.987656 0.000000 0.136180
0.000000 0.025920 0.090332
0.002849 0.028884 0.096307
0.009721 0.032942 0.104718
0.026038 0.039154 0.117964
0.099609 0.042235 0.128697
0.213288 0.038025 0.119679
0.296000 0.035156 0.114290
0.374366 0.032728 0.113591
0.452047 0.030256 0.115611
0.527750 0.028630 0.119310
0.603078 0.027820 0.123357
0.679811 0.026968 0.127046
0.758524 0.026007 0.130088
0.839046 0.024963 0.132504
0.920307 0.023822 0.134337
0.988807 0.022553 0.135678
0.000000 0.059569 0.102690
0.002849 0.063187 0.108799
0.009496 0.068506 0.118516
0.024473 0.075356 0.130497
0.111426 0.077837 0.131291
0.219821 0.075100 0.121732
0.301041 0.073641 0.117694
0.380015 0.072057 0.115897
0.457300 0.070602 0.116584
0.532101 0.070801 0.119581
0.607301 0.071251 0.122988
0.683983 0.071702 0.126242
0.762292 0.071997 0.129046
0.842646 0.072072 0.131352
0.923235 0.071835 0.133187
0.990738 0.071277 0.134593
0.000000 0.109630 0.115409
0.003401 0.113565 0.118230
0.013925 0.118705 0.122859
0.041355 0.124918 0.129631
0.143465 0.127748 0.127533
0.229295 0.128304 0.123921
0.309216 0.128292 0.121084
0.387276 0.128303 0.118619
0.462707 0.129371 0.118740
0.537616 0.130910 0.120387
0.613075 0.132581 0.122751
0.689693 0.134363 0.125237
0.767871 0.136027 0.127532
0.847940 0.137431 0.129645
0.927854 0.138406 0.131409
0.993483 0.138866 0.132978
0.000713 0.169560 0.123676
0.009601 0.173316 0.123320
0.028553 0.177627 0.123085
0.064420 0.182456 0.123355
0.142314 0.187328 0.123471
0.240557 0.191922 0.123765
0.317079 0.193983 0.122895
0.392335 0.195567 0.121947
0.468035 0.197241 0.121474
0.543619 0.199230 0.122003
0.619490 0.201369 0.123349
0.696250 0.203637 0.124940
0.774438 0.205866 0.126560
0.854039 0.207867 0.128188
0.933156 0.209472 0.129786
0.996087 0.210471 0.131378
0.007143 0.230174 0.125100
0.022354 0.232921 0.120667
0.048151 0.237332 0.116731
0.094003 0.242076 0.114174
0.161385 0.246011 0.112901
0.244776 0.256716 0.117131
0.321645 0.266051 0.123578
0.396361 0.268052 0.123499
0.471953 0.269842 0.123442
0.547874 0.271840 0.124183
0.624567 0.273793 0.125095
0.701904 0.275758 0.125921
0.780297 0.277853 0.126933
0.859812 0.279909 0.128044
0.937825 0.281558 0.129359
0.998355 0.282643 0.130780
0.017066 0.287216 0.124770
0.035661 0.288917 0.117348
0.064532 0.293589 0.110123
0.111220 0.299998 0.105206
0.177772 0.305280 0.103454
0.256845 0.317118 0.106531
0.327920 0.332868 0.114885
0.399545 0.341886 0.123322
0.474375 0.344236 0.124601
0.550257 0.345889 0.125340
0.626985 0.347814 0.126622
0.704797 0.349672 0.127935
0.783842 0.351242 0.129034
0.863690 0.352747 0.129784
0.941482 0.353967 0.130753
0.999806 0.354896 0.131999
0.027543 0.338794 0.123487
0.048787 0.340387 0.113938
0.081136 0.346065 0.104142
0.129809 0.354655 0.097300
0.197886 0.361841 0.095749
0.278395 0.373378 0.098115
0.344365 0.394301 0.102696
0.406972 0.410676 0.113562
