luts/MOONRISE_KINGDOM.cube
LUT_3D_SIZE 6
0.036104 0.005697 0.001690
0.225623 0.022155 0.002952
0.413775 0.009002 0.000233
0.623360 0.000000 0.000000
0.825964 0.000000 0.000000
0.980591 0.000000 0.000000
0.059464 0.160494 0.003482
0.226439 0.173731 0.001498
0.417708 0.181734 0.000000
0.625021 0.164836 0.000000
0.819552 0.126041 0.000000
0.981435 0.120994 0.000000
0.063609 0.309402 0.000000
0.230360 0.313203 0.000000
0.406346 0.324980 0.000000
0.600522 0.336632 0.000000
0.817269 0.345657 0.000000
0.986368 0.355549 0.000000
0.031901 0.433702 0.000000
0.187827 0.434834 0.000000
0.369636 0.443967 0.000000
0.561481 0.459452 0.000000
0.767154 0.481955 0.000000
0.967735 0.512402 0.000000
0.031901 0.529190 0.000000
0.147873 0.528462 0.000000
0.256571 0.530340 0.000000
0.470332 0.542567 0.000000
0.675088 0.561971 0.000000
0.920521 0.588359 0.000000
0.042214 0.483356 0.005391
0.153253 0.490950 0.004613
0.249636 0.489118 0.004821
0.337317 0.491968 0.004276
0.428761 0.518472 0.000289
0.677898 0.572221 0.000000
0.049178 0.018098 0.084438
0.238476 0.018738 0.112521
0.420664 0.007443 0.112044
0.625511 0.000000 0.103828
0.821124 0.000000 0.098777
0.978757 0.000000 0.092652
0.042955 0.202213 0.125123
0.252721 0.200920 0.104615
0.437385 0.198924 0.102018
0.621908 0.182459 0.096582
0.812617 0.138700 0.089934
0.976657 0.121061 0.081972
0.031901 0.363213 0.082278
0.240349 0.352279 0.081601
0.434229 0.357947 0.087154
0.631896 0.367432 0.087651
0.831175 0.372770 0.084168
0.980377 0.368740 0.080291
0.031901 0.475705 0.075162
0.165132 0.469618 0.075162
0.385345 0.474538 0.075162
0.590175 0.491025 0.075162
0.793283 0.514700 0.075162
0.967265 0.544653 0.078261
0.031901 0.565991 0.075162
0.147873 0.562237 0.075162
0.250195 0.558237 0.075162
0.483325 0.565989 0.075162
0.696925 0.585974 0.075162
0.932788 0.615762 0.075162
0.038590 0.496784 0.082194
0.152496 0.507447 0.079733
0.249116 0.500062 0.079838
0.337079 0.500714 0.080011
0.429606 0.524189 0.075332
0.677657 0.573358 0.075162
0.066252 0.030093 0.177139
0.251875 0.021105 0.226900
0.429077 0.003737 0.235952
0.612895 0.000000 0.234331
0.819174 0.000000 0.233686
0.978778 0.000000 0.233077
0.123564 0.204318 0.220859
0.257055 0.205076 0.228531
0.427969 0.205383 0.229519
0.608433 0.198230 0.227100
0.810896 0.152886 0.225572
0.976414 0.123726 0.224025
0.032190 0.389981 0.257414
0.234574 0.385046 0.219203
0.453942 0.382702 0.227575
0.650645 0.386992 0.231543
0.829030 0.382383 0.228570
0.974685 0.380279 0.230381
0.031901 0.533727 0.184653
0.148261 0.525791 0.174951
0.404437 0.519824 0.180851
0.624693 0.532257 0.196272
0.812772 0.552664 0.218576
0.962630 0.568713 0.246894
0.031901 0.629105 0.158127
0.147873 0.623938 0.158127
0.244029 0.614683 0.158127
0.505531 0.610883 0.158127
0.732119 0.627690 0.158127
0.943379 0.660032 0.176189
0.031901 0.551188 0.162560
0.147873 0.565057 0.161257
0.243985 0.553573 0.160920
0.331990 0.542742 0.159912
0.422951 0.527037 0.159710
0.688363 0.578915 0.158127
0.085648 0.046712 0.268259
0.242352 0.040869 0.313854
0.442034 0.002258 0.362598
0.623041 0.000000 0.367290
0.805909 0.000000 0.370740
0.978522 0.000000 0.372391
0.143558 0.213608 0.305720
0.250219 0.218445 0.315096
0.442082 0.204590 0.360552
0.611503 0.200862 0.360604
0.794851 0.184734 0.360920
0.975184 0.127979 0.362303
0.177401 0.391843 0.384077
0.287060 0.391801 0.384193
0.459690 0.395823 0.365609
0.632239 0.396349 0.364415
0.810813 0.395162 0.364445
0.969743 0.390080 0.369247
0.031901 0.566498 0.412979
0.147873 0.569755 0.378094
0.413202 0.564699 0.339125
0.648222 0.565567 0.358322
0.821731 0.578779 0.380522
0.955069 0.573299 0.383932
0.031901 0.687829 0.340808
0.147873 0.687575 0.317531
0.243985 0.682545 0.273768
0.530038 0.663339 0.274286
0.761759 0.671352 0.311314
0.945265 0.700470 0.375963
0.031901 0.645753 0.274567
0.147873 0.657879 0.258284
0.243985 0.655288 0.238400
0.331977 0.650820 0.237593
0.415168 0.613161 0.237593
0.705953 0.591472 0.237593
0.103835 0.062334 0.357781
0.226555 0.069321 0.375749
0.419250 0.040956 0.468626
0.635767 0.000000 0.518453
0.821143 0.000000 0.527636
0.974272 0.000000 0.531132
0.158419 0.227159 0.391973
0.260604 0.229969 0.398371
0.410850 0.229127 0.456526
0.629714 0.196948 0.509816
0.806151 0.178529 0.513703
0.967732 0.159829 0.515347
0.251477 0.396766 0.459049
0.341609 0.397080 0.460063
0.446126 0.409684 0.480853
0.646885 0.396046 0.518009
0.809623 0.399255 0.518169
0.960221 0.404349 0.521212
0.225474 0.573813 0.554190
0.331775 0.571682 0.558143
0.444686 0.586002 0.548226
0.654688 0.585899 0.522272
0.801505 0.586389 0.524655
0.944380 0.579817 0.526273
0.031901 0.700245 0.608635
0.148536 0.704177 0.593383
0.244928 0.718479 0.549042
0.548054 0.712999 0.473535
0.783940 0.708740 0.504511
0.940938 0.720594 0.540786
0.031901 0.695794 0.545105
0.147873 0.707727 0.531846
0.243985 0.716076 0.502069
0.331977 0.742422 0.407435
0.415205 0.736969 0.314216
0.841659 0.716654 0.316582
0.113852 0.072844 0.438086
0.226726 0.081327 0.449058
0.357902 0.095630 0.487944
0.590004 0.044202 0.629982
0.831049 0.000000 0.686528
0.980086 0.000000 0.689620
0.170437 0.238301 0.474868
0.269594 0.240073 0.479493
0.380910 0.253376 0.501995
0.574976 0.236822 0.612803
0.819055 0.154874 0.684501
0.973169 0.140647 0.684516
0.264184 0.405739 0.540715
0.351765 0.406941 0.541034
0.449797 0.420354 0.555884
0.605378 0.417519 0.628738
0.825337 0.392518 0.681535
0.962171 0.400661 0.679497
0.358906 0.568944 0.616777
0.444050 0.570649 0.618418
0.535488 0.580462 0.627043
0.631258 0.592271 0.645506
0.804082 0.580046 0.676845
0.939609 0.573754 0.678280
0.346341 0.722197 0.681547
0.431586 0.720774 0.680856
0.527640 0.722917 0.685252
0.637789 0.724522 0.697103
0.784021 0.727034 0.684995
0.925112 0.721138 0.691396
0.032021 0.832831 0.731362
0.148049 0.829328 0.735832
0.244347 0.829355 0.742555
0.353965 0.823956 0.759139
0.556121 0.840743 0.758450
0.928613 0.878586 0.745512
