luts/MOONRISE_KINGDOM.cube
LUT_3D_SIZE 16
0.036104 0.005697 0.001690
0.089085 0.011974 0.003482
0.158180 0.017595 0.003482
0.225623 0.022155 0.002952
0.289318 0.021580 0.001719
0.351960 0.017322 0.001236
0.413775 0.009002 0.000233
0.480170 0.000897 0.000000
0.550128 0.000000 0.000000
0.623360 0.000000 0.000000
0.694477 0.000000 0.000000
0.761647 0.000000 0.000000
0.825964 0.000000 0.000000
0.886588 0.000000 0.000000
0.944059 0.000000 0.000000
0.980591 0.000000 0.000000
0.045757 0.058589 0.004245
0.097323 0.063547 0.003482
0.165633 0.068815 0.003482
0.232416 0.070985 0.001969
0.296453 0.070583 0.001704
0.358970 0.068012 0.000628
0.420345 0.061405 0.000131
0.484921 0.050410 0.000000
0.553215 0.046425 0.000000
0.624190 0.046425 0.000000
0.692037 0.046425 0.000000
0.758123 0.046425 0.000000
0.821903 0.046425 0.000000
0.882185 0.046425 0.000000
0.939864 0.046425 0.000000
0.981398 0.046425 0.000000
0.051783 0.107238 0.003978
0.099774 0.111207 0.003482
0.161862 0.117919 0.003414
0.227147 0.123421 0.001875
0.294190 0.126575 0.001236
0.361029 0.126473 0.000226
0.424885 0.122252 0.000000
0.492548 0.112854 0.000000
0.560081 0.096848 0.000000
0.626959 0.087876 0.000000
0.691526 0.084963 0.000000
0.754951 0.084963 0.000000
0.818951 0.084963 0.000000
0.878787 0.084963 0.000000
0.935846 0.084963 0.000000
0.982220 0.084963 0.000000
0.059464 0.160494 0.003482
0.105959 0.161917 0.003434
0.163698 0.167557 0.002023
0.226439 0.173731 0.001498
0.290437 0.178241 0.000410
0.354406 0.181398 0.000000
0.417708 0.181734 0.000000
0.486225 0.180499 0.000000
0.556295 0.174661 0.000000
0.625021 0.164836 0.000000
0.691516 0.152278 0.000000
0.756221 0.135312 0.000000
0.819552 0.126041 0.000000
0.880256 0.121330 0.000000
0.936137 0.120994 0.000000
0.981435 0.120994 0.000000
0.062996 0.212709 0.001757
0.110001 0.212748 0.001802
0.166829 0.216011 0.001132
0.229396 0.221367 0.000378
0.291396 0.226726 0.000000
0.352452 0.231308 0.000000
0.413445 0.233901 0.000000
0.479241 0.234932 0.000000
0.546941 0.235679 0.000000
0.616238 0.233118 0.000000
0.685847 0.229563 0.000000
0.756053 0.223190 0.000000
0.823481 0.211444 0.000000
0.884075 0.196757 0.000000
0.939147 0.183169 0.000000
0.982924 0.167473 0.000000
0.063930 0.261923 0.000287
0.111102 0.262091 0.000343
0.169609 0.264200 0.000131
0.230882 0.269262 0.000000
0.293098 0.274237 0.000000
0.351324 0.277255 0.000000
0.410623 0.281291 0.000000
0.472953 0.284351 0.000000
0.539370 0.286617 0.000000
0.608567 0.288052 0.000000
0.678972 0.289295 0.000000
0.752081 0.288954 0.000000
0.822557 0.287780 0.000000
0.886300 0.284280 0.000000
0.943415 0.280261 0.000000
0.985320 0.272978 0.000000
0.063609 0.309402 0.000000
0.111184 0.308814 0.000000
0.169992 0.310226 0.000000
0.230360 0.313203 0.000000
0.290997 0.317903 0.000000
0.349977 0.321961 0.000000
0.406346 0.324980 0.000000
0.467998 0.329725 0.000000
0.532896 0.333819 0.000000
0.600522 0.336632 0.000000
0.671540 0.340345 0.000000
0.745253 0.343492 0.000000
0.817269 0.345657 0.000000
0.883402 0.348334 0.000000
0.943358 0.351973 0.000000
0.986368 0.355549 0.000000
0.058724 0.354657 0.000000
0.106050 0.353862 0.000000
0.164362 0.353526 0.000000
0.224196 0.355707 0.000000
0.283075 0.359357 0.000000
0.340998 0.362397 0.000000
0.398672 0.366996 0.000000
0.458343 0.371706 0.000000
0.522780 0.376533 0.000000
0.588801 0.381261 0.000000
0.659201 0.386037 0.000000
0.731952 0.390879 0.000000
0.803017 0.397899 0.000000
0.871502 0.404390 0.000000
0.935672 0.412367 0.000000
0.982334 0.420365 0.000000
0.043366 0.396147 0.000000
0.090543 0.395325 0.000000
0.150743 0.395009 0.000000
0.212182 0.396563 0.000000
0.270974 0.398853 0.000000
0.328375 0.403387 0.000000
0.386485 0.407999 0.000000
0.448976 0.412590 0.000000
0.509998 0.417532 0.000000
0.575796 0.422550 0.000000
0.645704 0.428413 0.000000
0.717637 0.436089 0.000000
0.787011 0.443860 0.000000
0.855237 0.451552 0.000000
0.925118 0.461572 0.000000
0.975187 0.473757 0.000000
0.031901 0.433702 0.000000
0.075188 0.433654 0.000000
0.123313 0.433391 0.000000
0.187827 0.434834 0.000000
0.251753 0.436622 0.000000
0.310714 0.439246 0.000000
0.369636 0.443967 0.000000
0.432891 0.448924 0.000000
0.496867 0.453965 0.000000
0.561481 0.459452 0.000000
0.629333 0.466945 0.000000
0.700897 0.474456 0.000000
0.767154 0.481955 0.000000
0.837531 0.491444 0.000000
0.909861 0.501334 0.000000
0.967735 0.512402 0.000000
0.031901 0.469050 0.000000
0.074991 0.468826 0.000000
0.112884 0.469947 0.000000
0.152620 0.470258 0.000000
0.214691 0.471039 0.000000
0.281398 0.474309 0.000000
0.343417 0.477008 0.000000
0.407833 0.481776 0.000000
0.473758 0.486867 0.000000
0.539609 0.493864 0.000000
0.607565 0.500639 0.000000
0.675455 0.507573 0.000000
0.742446 0.515149 0.000000
0.813596 0.522673 0.000000
0.889843 0.533924 0.000000
0.956320 0.545161 0.000000
0.031901 0.502940 0.000000
0.074991 0.502783 0.000000
0.112788 0.502607 0.000000
0.147873 0.502706 0.000000
0.183056 0.503186 0.000000
0.237589 0.504449 0.000000
0.309775 0.507291 0.000000
0.377390 0.510753 0.000000
0.442809 0.515512 0.000000
0.510813 0.522217 0.000000
0.578931 0.529107 0.000000
0.646045 0.534622 0.000000
0.713136 0.541672 0.000000
0.785699 0.550576 0.000000
0.865483 0.560658 0.000000
0.942358 0.571011 0.000000
0.031901 0.529190 0.000000
0.074991 0.529366 0.000000
0.112788 0.529366 0.000000
0.147873 0.528462 0.000000
0.181160 0.528141 0.000000
0.213431 0.529125 0.000000
0.256571 0.530340 0.000000
0.334261 0.533339 0.000000
0.403347 0.536915 0.000000
0.470332 0.542567 0.000000
0.537309 0.549237 0.000000
0.606903 0.556013 0.000000
0.675088 0.561971 0.000000
0.749633 0.569482 0.000000
0.832048 0.579105 0.000000
0.920521 0.588359 0.000000
0.031901 0.544413 0.000000
0.074991 0.544776 0.000000
0.112788 0.544439 0.000000
0.147873 0.544650 0.000000
0.181160 0.544081 0.000000
0.213084 0.542760 0.000000
0.243985 0.542732 0.000000
0.276283 0.545034 0.000000
0.327930 0.547761 0.000000
0.400239 0.552574 0.000000
0.470124 0.557570 0.000000
0.540354 0.563393 0.000000
0.612866 0.570926 0.000000
0.689969 0.577792 0.000000
0.777148 0.584767 0.000000
0.874359 0.590782 0.000000
0.031901 0.528926 0.000000
0.074991 0.531971 0.000000
0.112788 0.534351 0.000000
0.147873 0.535492 0.000000
0.181160 0.534814 0.000000
0.213084 0.533923 0.000000
0.243985 0.533502 0.000000
0.273994 0.532079 0.000000
0.303408 0.533244 0.000000
0.334732 0.536648 0.000000
0.381594 0.540842 0.000000
0.442921 0.547261 0.000000
0.513046 0.554411 0.000000
0.587625 0.562587 0.000000
0.673690 0.567815 0.000000
0.760406 0.564388 0.000000
0.042214 0.483356 0.005391
0.082633 0.486516 0.005383
0.118868 0.489683 0.005306
0.153253 0.490950 0.004613
0.186448 0.490531 0.004654
0.218549 0.489879 0.004733
0.249636 0.489118 0.004821
0.279469 0.489330 0.004808
0.308662 0.490552 0.004778
0.337317 0.491968 0.004276
0.366081 0.497270 0.003843
0.394801 0.506057 0.002020
0.428761 0.518472 0.000289
0.481451 0.534971 0.000000
0.570711 0.556443 0.000000
0.677898 0.572221 0.000000
0.040433 0.010256 0.027192
0.095116 0.013052 0.030050
0.165013 0.017586 0.032790
0.231449 0.018847 0.031970
0.293798 0.018914 0.031510
0.356441 0.016017 0.030112
0.417524 0.008556 0.028428
0.483620 0.000847 0.026262
0.551841 0.000000 0.025128
0.623340 0.000000 0.023231
0.691875 0.000000 0.022942
0.758032 0.000000 0.022863
0.823017 0.000000 0.022801
0.883173 0.000000 0.022794
0.941626 0.000000 0.022794
0.979952 0.000000 0.022794
0.049706 0.067700 0.033275
0.104574 0.069174 0.032759
0.172722 0.071844 0.032567
0.237022 0.071470 0.031632
0.299466 0.070769 0.030467
0.361377 0.068191 0.029082
0.421479 0.061467 0.027533
0.486446 0.050696 0.025807
0.554488 0.046425 0.023944
0.622531 0.046425 0.023069
0.689836 0.046425 0.022813
0.754600 0.046425 0.022794
0.818662 0.046425 0.022794
0.879411 0.046425 0.022794
0.937206 0.046425 0.022794
0.980292 0.046425 0.022794
0.049989 0.123762 0.032158
0.103942 0.123578 0.030853
0.172371 0.127220 0.030295
0.239099 0.130080 0.029268
0.305300 0.131320 0.028117
0.368303 0.129945 0.026760
0.429304 0.125224 0.025416
0.493234 0.115690 0.024126
0.558850 0.100940 0.023115
0.623974 0.089077 0.022973
0.687957 0.085420 0.022794
0.751485 0.084963 0.022794
0.815668 0.084963 0.022794
0.876586 0.084963 0.022794
0.934052 0.084963 0.022794
0.980786 0.084963 0.022794
0.055322 0.174965 0.028502
0.105190 0.174195 0.028268
0.170463 0.177097 0.027691
0.236384 0.181908 0.026508
0.300966 0.185786 0.025478
0.364388 0.187908 0.024393
0.427583 0.187937 0.023767
0.493988 0.185265 0.023070
0.560532 0.179834 0.022946
0.625868 0.170594 0.022812
0.689901 0.156768 0.022794
0.753360 0.139442 0.022794
0.817179 0.127161 0.022794
0.877710 0.121946 0.022794
0.934557 0.120999 0.022794
0.980316 0.120994 0.022794
0.055794 0.225939 0.026048
0.106174 0.224502 0.025833
0.170238 0.225570 0.024906
0.236612 0.229657 0.024033
0.299030 0.234623 0.023276
0.360155 0.237802 0.023043
0.422019 0.240381 0.022938
0.486324 0.241883 0.022827
0.553058 0.241353 0.022817
0.621044 0.239814 0.022794
0.689567 0.235583 0.022794
0.757325 0.227761 0.022794
0.822591 0.214763 0.022794
0.882326 0.199012 0.022794
0.938003 0.186457 0.022794
0.982203 0.169401 0.022794
0.055161 0.273959 0.023104
0.105867 0.272344 0.023070
0.169989 0.273021 0.022954
0.235918 0.276055 0.022828
0.298358 0.280142 0.022828
0.357223 0.284261 0.022801
0.416507 0.287284 0.022794
0.479460 0.289975 0.022794
0.545272 0.292459 0.022794
0.613323 0.293314 0.022794
0.684308 0.294424 0.022794
0.755847 0.293351 0.022794
0.824772 0.291485 0.022794
0.887284 0.288847 0.022794
0.942487 0.282797 0.022794
0.984707 0.275398 0.022794
0.052944 0.319373 0.022794
0.105039 0.317547 0.022794
0.168537 0.317931 0.022794
0.233670 0.320121 0.022794
0.295131 0.323293 0.022794
0.354304 0.327598 0.022794
0.411249 0.330406 0.022794
0.472921 0.334763 0.022794
0.537173 0.338017 0.022794
0.606638 0.341330 0.022794
0.675762 0.344499 0.022794
0.749388 0.347800 0.022794
0.819901 0.350425 0.022794
0.884477 0.353537 0.022794
0.943714 0.356902 0.022794
0.985416 0.358114 0.022794
0.048901 0.360861 0.022794
0.099740 0.359237 0.022794
0.161589 0.359759 0.022794
0.225116 0.360926 0.022794
0.285749 0.364013 0.022794
0.344324 0.367166 0.022794
0.402058 0.371372 0.022794
0.462177 0.375945 0.022794
0.526520 0.380510 0.022794
0.592377 0.384683 0.022794
0.663079 0.389713 0.022794
0.736027 0.395234 0.022794
0.805733 0.401469 0.022794
0.873320 0.408189 0.022794
0.937009 0.416023 0.022794
0.982193 0.425646 0.022794
0.035330 0.401170 0.022794
0.084434 0.399802 0.022794
0.146274 0.398902 0.022794
0.211266 0.400457 0.022794
0.271397 0.402752 0.022794
0.329284 0.406342 0.022794
0.389402 0.411055 0.022794
0.451798 0.414314 0.022794
0.513181 0.419178 0.022794
0.579199 0.425656 0.022794
0.650018 0.431803 0.022794
0.720948 0.439521 0.022794
0.790269 0.447371 0.022794
0.858098 0.455497 0.022794
0.926164 0.465781 0.022794
0.974957 0.477684 0.022794
0.031901 0.438443 0.022794
0.075079 0.437359 0.022794
0.120630 0.437232 0.022794
0.186976 0.437794 0.022794
0.251212 0.439517 0.022794
0.311169 0.442559 0.022794
0.370921 0.446785 0.022794
0.434581 0.451652 0.022794
0.499578 0.457598 0.022794
0.564178 0.463127 0.022794
0.632937 0.470242 0.022794
0.703302 0.478101 0.022794
0.770590 0.485790 0.022794
0.840155 0.494796 0.022794
0.910450 0.504718 0.022794
0.967529 0.516312 0.022794
0.031901 0.473886 0.022794
0.074991 0.473271 0.022794
0.112887 0.472682 0.022794
0.152268 0.472796 0.022794
0.212176 0.474169 0.022794
0.281166 0.476625 0.022794
0.345137 0.480111 0.022794
0.410246 0.484936 0.022794
0.475451 0.490408 0.022794
0.542622 0.496867 0.022794
0.610468 0.503112 0.022794
0.678226 0.510779 0.022794
0.745392 0.517698 0.022794
0.815200 0.525985 0.022794
0.890946 0.536709 0.022794
0.956995 0.548310 0.022794
0.031901 0.506644 0.022794
0.074991 0.506153 0.022794
0.112788 0.505475 0.022794
0.147873 0.505570 0.022794
0.182685 0.505909 0.022794
0.235631 0.507544 0.022794
0.309537 0.509849 0.022794
0.378930 0.513920 0.022794
0.445167 0.518466 0.022794
0.512455 0.523780 0.022794
0.581041 0.530487 0.022794
0.648017 0.537063 0.022794
0.715466 0.544270 0.022794
0.787434 0.552517 0.022794
0.867292 0.563110 0.022794
0.942970 0.573378 0.022794
0.031901 0.532865 0.022794
0.074991 0.532807 0.022794
0.112788 0.532508 0.022794
0.147873 0.531607 0.022794
0.181160 0.531243 0.022794
0.213450 0.531482 0.022794
0.256652 0.533354 0.022794
0.333914 0.535414 0.022794
0.404016 0.539684 0.022794
0.471602 0.544583 0.022794
0.539129 0.550596 0.022794
0.608444 0.557578 0.022794
0.677355 0.563720 0.022794
0.751324 0.571287 0.022794
0.834049 0.581133 0.022794
0.921596 0.590725 0.022794
0.031901 0.547144 0.022794
0.074991 0.547629 0.022794
0.112788 0.547886 0.022794
0.147873 0.547566 0.022794
0.181160 0.546746 0.022794
0.213084 0.545485 0.022794
0.243985 0.545350 0.022794
0.276505 0.546559 0.022794
0.328540 0.549887 0.022794
0.401481 0.553390 0.022794
0.471096 0.558636 0.022794
0.541049 0.565537 0.022794
0.613705 0.572497 0.022794
0.691876 0.578989 0.022794
0.779630 0.587402 0.022794
0.875783 0.593281 0.022794
0.031901 0.533140 0.022794
0.074991 0.535537 0.022794
0.112788 0.537630 0.022794
0.147873 0.538368 0.022794
0.181160 0.538219 0.022794
0.213084 0.537354 0.022794
0.243985 0.535764 0.022794
0.273994 0.535275 0.022794
0.303399 0.536399 0.022794
0.334754 0.538436 0.022794
0.381923 0.543026 0.022794
0.444516 0.548914 0.022794
0.514146 0.556728 0.022794
0.589717 0.564487 0.022794
0.676595 0.569833 0.022794
0.762666 0.565396 0.022794
0.041687 0.485041 0.028903
0.082204 0.488517 0.028703
0.118524 0.491860 0.028534
0.152974 0.492963 0.028443
0.186190 0.492296 0.028480
0.218351 0.491570 0.028579
0.249420 0.490809 0.028623
0.279239 0.490897 0.028574
0.308542 0.491136 0.027981
0.337198 0.492793 0.028015
0.365840 0.497834 0.027477
0.394785 0.506517 0.025406
0.428878 0.518922 0.022949
0.481114 0.534668 0.022794
0.570480 0.556412 0.022794
0.677505 0.572102 0.022794
0.044930 0.013432 0.054740
0.097935 0.014587 0.059767
0.168494 0.017606 0.068786
0.234195 0.018738 0.071414
0.297118 0.018738 0.070778
0.360415 0.013548 0.070201
0.422244 0.004374 0.067459
0.487305 0.000000 0.064348
0.555907 0.000000 0.061755
0.625363 0.000000 0.059434
0.691682 0.000000 0.057418
0.756104 0.000000 0.055374
0.820801 0.000000 0.053002
0.881351 0.000000 0.051738
0.939488 0.000000 0.050443
0.978760 0.000000 0.049335
0.058070 0.070551 0.063530
0.105623 0.072206 0.066177
0.174139 0.072169 0.069494
0.238306 0.071596 0.069903
0.301208 0.070392 0.069227
0.364105 0.066106 0.068145
0.425331 0.059467 0.065288
0.489631 0.049594 0.062858
0.556797 0.046424 0.060135
0.622647 0.046425 0.057886
0.687554 0.046425 0.055600
0.752289 0.046425 0.053667
0.816130 0.046425 0.051266
0.876842 0.046425 0.050029
0.934943 0.046425 0.049187
0.978708 0.046425 0.048484
0.052282 0.134844 0.076357
0.102702 0.136074 0.070741
0.179732 0.135911 0.067357
0.246835 0.136234 0.066889
0.310097 0.135169 0.065603
0.370648 0.131996 0.063729
0.430668 0.126644 0.061646
0.493759 0.118471 0.059878
0.557227 0.105210 0.057495
0.620998 0.092487 0.055856
0.684148 0.087437 0.053678
0.748428 0.084963 0.051777
0.812522 0.084963 0.049879
0.873018 0.084963 0.049269
0.931123 0.084963 0.048800
0.978585 0.084963 0.048387
0.034769 0.196033 0.067926
0.093647 0.194799 0.063788
0.177342 0.191708 0.062052
0.247922 0.194340 0.062226
0.312772 0.196581 0.061142
0.375130 0.196643 0.060093
0.436094 0.195352 0.058808
0.498587 0.192036 0.057122
0.560839 0.186064 0.055580
0.623438 0.178729 0.053862
0.686176 0.166741 0.052139
0.749973 0.150019 0.050557
0.813633 0.132533 0.049317
0.874022 0.125466 0.048892
0.931135 0.121540 0.048537
0.978363 0.120994 0.048387
0.032421 0.250462 0.058581
0.086820 0.247461 0.056881
0.171379 0.243677 0.055846
0.246682 0.245149 0.056066
0.311728 0.247834 0.055775
0.372943 0.250419 0.055505
0.433778 0.252512 0.055611
0.497609 0.253391 0.054745
0.562551 0.252683 0.053501
0.628069 0.249796 0.052313
0.692143 0.245320 0.050834
0.756807 0.236197 0.049685
0.819468 0.224872 0.049067
0.878550 0.211240 0.048698
0.934515 0.195507 0.048402
0.980028 0.180815 0.048386
0.031901 0.299169 0.051415
0.082960 0.295236 0.051118
0.166191 0.292302 0.050861
0.243312 0.292314 0.051197
0.308926 0.294875 0.051307
0.369541 0.297683 0.051273
0.428696 0.301096 0.051355
0.492034 0.303259 0.051568
0.558207 0.305346 0.051296
0.626195 0.306405 0.049994
0.694600 0.306322 0.049525
0.763121 0.304149 0.049068
0.826497 0.300618 0.048632
0.884486 0.295617 0.048392
0.939265 0.289122 0.048386
0.982472 0.282726 0.048386
0.031901 0.341823 0.048582
0.081865 0.338840 0.048479
0.160951 0.336109 0.048464
0.237712 0.335703 0.048496
0.303865 0.337874 0.048878
0.364877 0.341275 0.048935
0.423780 0.344396 0.048932
0.485920 0.347982 0.048920
0.551576 0.351149 0.048906
0.619881 0.354582 0.048906
0.688629 0.357682 0.048532
0.760088 0.360864 0.048483
0.827829 0.363061 0.048389
0.889272 0.364650 0.048386
0.942773 0.364143 0.048386
0.982973 0.362609 0.048386
0.032219 0.380426 0.048386
0.079272 0.378186 0.048386
0.151208 0.376385 0.048386
0.226496 0.376013 0.048386
0.292296 0.378083 0.048386
0.353821 0.381038 0.048386
0.413239 0.384713 0.048386
0.474394 0.389276 0.048386
0.538927 0.392219 0.048387
0.606386 0.397320 0.048390
0.676081 0.402736 0.048386
0.747376 0.408994 0.048386
0.816003 0.414778 0.048386
0.880114 0.421807 0.048386
0.938348 0.429299 0.048386
0.980587 0.435313 0.048386
0.031901 0.418928 0.048386
0.075229 0.417045 0.048386
0.131459 0.414642 0.048386
0.208402 0.414393 0.048386
0.274928 0.416044 0.048386
0.336873 0.418581 0.048386
0.396892 0.422380 0.048386
0.461495 0.427068 0.048386
0.525405 0.431923 0.048386
0.591678 0.437254 0.048386
0.662251 0.444632 0.048386
0.733226 0.452159 0.048386
0.800871 0.459881 0.048386
0.866669 0.468781 0.048386
0.928762 0.480219 0.048386
0.974919 0.490176 0.048386
0.031901 0.455158 0.048386
0.074991 0.453396 0.048386
0.114784 0.451190 0.048386
0.177190 0.450740 0.048386
0.250437 0.452256 0.048386
0.314429 0.455043 0.048386
0.377391 0.458147 0.048386
0.443246 0.463008 0.048386
0.509360 0.468992 0.048386
0.575261 0.475399 0.048386
0.644870 0.482239 0.048386
0.714313 0.490191 0.048386
0.781279 0.498523 0.048386
0.847873 0.507727 0.048386
0.915059 0.518470 0.048386
0.967788 0.530122 0.048386
0.031901 0.489025 0.048386
0.074991 0.487858 0.048386
0.112788 0.485939 0.048386
0.149654 0.485692 0.048386
0.205203 0.486529 0.048386
0.280409 0.488531 0.048386
0.348406 0.491582 0.048386
0.416064 0.496216 0.048386
0.484230 0.501546 0.048386
0.552810 0.507975 0.048386
0.620874 0.514431 0.048386
0.688610 0.521613 0.048386
0.754855 0.528996 0.048386
0.824150 0.537823 0.048386
0.895866 0.548448 0.048386
0.957784 0.559955 0.048386
0.031901 0.520985 0.048386
0.074991 0.520218 0.048386
0.112788 0.518599 0.048386
0.147873 0.517929 0.048386
0.181665 0.517686 0.048386
0.229773 0.518675 0.048386
0.308931 0.520606 0.048386
0.382050 0.523472 0.048386
0.450106 0.527643 0.048386
0.519861 0.533488 0.048386
0.590051 0.540593 0.048386
0.657397 0.546868 0.048386
0.724167 0.554072 0.048386
0.795749 0.562852 0.048386
0.873150 0.572936 0.048386
0.945430 0.584340 0.048386
0.031901 0.546861 0.048386
0.074991 0.546457 0.048386
0.112788 0.545162 0.048386
0.147873 0.543835 0.048386
0.181160 0.542596 0.048386
0.213161 0.542414 0.048386
0.254166 0.542775 0.048386
0.332456 0.544731 0.048386
0.406867 0.547994 0.048386
0.475972 0.552677 0.048386
0.545981 0.559362 0.048386
0.616609 0.566252 0.048386
0.685136 0.572608 0.048386
0.759048 0.580650 0.048386
0.841168 0.590097 0.048386
0.926260 0.600419 0.048386
0.031901 0.560295 0.048386
0.074991 0.560381 0.048386
0.112788 0.560439 0.048386
0.147873 0.559735 0.048386
0.181160 0.558414 0.048386
0.213084 0.556871 0.048386
0.243985 0.555974 0.048386
0.276094 0.556390 0.048386
0.328046 0.558348 0.048386
0.401761 0.562136 0.048386
0.474579 0.566948 0.048386
0.546351 0.572859 0.048386
0.621074 0.579803 0.048386
0.699819 0.587585 0.048386
0.787518 0.596227 0.048386
0.884848 0.603639 0.048386
0.031901 0.546849 0.048386
0.074991 0.548870 0.048386
0.112788 0.550423 0.048386
0.147873 0.551229 0.048386
0.181160 0.550941 0.048386
0.213084 0.548811 0.048386
0.243985 0.547782 0.048386
0.273994 0.546460 0.048386
0.303375 0.546483 0.048386
0.334380 0.547659 0.048386
0.379164 0.551400 0.048386
0.444261 0.557021 0.048386
0.517644 0.564190 0.048386
0.595905 0.572345 0.048386
0.686529 0.578389 0.048386
0.777022 0.574715 0.048386
0.038698 0.488693 0.052893
0.079842 0.493058 0.052705
0.117034 0.496680 0.052680
0.152155 0.498146 0.053360
0.185760 0.497163 0.053056
0.218123 0.495666 0.053440
0.249228 0.494565 0.053433
0.279133 0.494456 0.053350
0.308347 0.495017 0.053374
0.337079 0.496182 0.053409
0.365218 0.500815 0.052777
0.394317 0.509152 0.051084
0.429349 0.521097 0.048547
0.481881 0.535946 0.048386
0.568240 0.555763 0.048386
0.677475 0.572079 0.048386
0.049178 0.018098 0.084438
0.099479 0.018110 0.090441
0.173180 0.018574 0.106728
0.238476 0.018738 0.112521
0.299943 0.018738 0.114205
0.358793 0.015730 0.114205
0.420664 0.007443 0.112044
0.487689 0.000675 0.108724
0.557469 0.000000 0.106391
0.625511 0.000000 0.103828
0.690619 0.000000 0.102134
0.756450 0.000000 0.100289
0.821124 0.000000 0.098777
0.880750 0.000000 0.097118
0.939323 0.000000 0.094810
0.978757 0.000000 0.092652
0.063411 0.072817 0.092586
0.107822 0.074531 0.095877
0.176829 0.072105 0.109395
0.241346 0.071434 0.111902
0.301635 0.071028 0.112607
0.361862 0.068769 0.111743
0.423115 0.062093 0.109786
0.489762 0.050385 0.106775
0.557136 0.046648 0.104123
0.623064 0.046425 0.101534
0.687240 0.046425 0.099875
0.751467 0.046425 0.097936
0.815445 0.046425 0.095753
0.876002 0.046425 0.093652
0.934111 0.046425 0.091102
0.978613 0.046425 0.088671
0.074499 0.135315 0.112642
0.116702 0.136688 0.111070
0.179934 0.137269 0.108380
0.244851 0.137686 0.108663
0.306734 0.136617 0.108493
0.367642 0.134470 0.106798
0.429029 0.129429 0.105099
0.493086 0.120262 0.102373
0.556985 0.108359 0.100035
0.620224 0.095691 0.098418
0.683395 0.088791 0.096837
0.747640 0.085310 0.094324
0.811300 0.084963 0.092305
0.872165 0.084963 0.089869
0.929628 0.084963 0.086964
0.977557 0.084963 0.084756
0.042955 0.202213 0.125123
0.089189 0.202905 0.116156
0.177728 0.201026 0.103709
0.252721 0.200920 0.104615
0.317315 0.201619 0.104852
0.378083 0.200859 0.103576
0.437385 0.198924 0.102018
0.498260 0.195322 0.100270
0.559915 0.189823 0.098543
0.621908 0.182459 0.096582
0.684448 0.172305 0.095025
0.748948 0.156166 0.092459
0.812617 0.138700 0.089934
0.872381 0.128239 0.087068
0.929013 0.123952 0.084431
0.976657 0.121061 0.081972
0.031901 0.265112 0.109635
0.076606 0.263675 0.102951
0.165697 0.258958 0.096223
0.252654 0.255926 0.097454
0.318311 0.257482 0.098437
0.380142 0.259765 0.098994
0.440338 0.260813 0.100081
0.503297 0.260458 0.099620
0.565857 0.258584 0.097933
0.628943 0.254943 0.095324
0.691400 0.249197 0.093838
0.754957 0.241546 0.091295
0.817561 0.231597 0.088437
0.876116 0.221131 0.085571
0.932132 0.206741 0.082639
0.978193 0.190509 0.080793
0.031901 0.318139 0.093243
0.075261 0.315470 0.090225
0.153790 0.309341 0.087695
0.248066 0.305765 0.089133
0.317743 0.307177 0.091210
0.378257 0.309603 0.092628
0.438111 0.312272 0.094013
0.501560 0.314281 0.094840
0.568817 0.315564 0.094622
0.635297 0.316302 0.093552
0.699490 0.315253 0.092271
0.763242 0.311230 0.089574
0.824803 0.306045 0.086624
0.881943 0.301066 0.083765
0.936614 0.296002 0.081645
0.980408 0.289638 0.080552
0.031901 0.363213 0.082278
0.075011 0.360344 0.080597
0.145209 0.354666 0.080340
0.240349 0.352279 0.081601
0.312349 0.352534 0.084086
0.375049 0.354702 0.085508
0.434229 0.357947 0.087154
0.497275 0.361019 0.087458
0.564865 0.363771 0.087858
0.631896 0.367432 0.087651
0.700468 0.370790 0.087092
0.768540 0.372756 0.086374
0.831175 0.372770 0.084168
0.887617 0.371699 0.082268
0.939082 0.369415 0.080762
0.980377 0.368740 0.080291
0.031901 0.402778 0.075865
0.075051 0.400410 0.075849
0.132901 0.396100 0.075825
0.225600 0.393504 0.076055
0.297949 0.393495 0.076685
0.362470 0.395915 0.077427
0.424463 0.400070 0.079105
0.486738 0.402720 0.079170
