luts/MOONLIGHT.cube
LUT_3D_SIZE 6
0.000000 0.000000 0.000000
0.077778 0.003037 0.001282
0.282548 0.004477 0.000000
0.516048 0.001642 0.000000
0.756144 0.000354 0.000000
0.989402 0.000000 0.000000
0.004571 0.103013 0.010854
0.082640 0.116094 0.001319
0.311365 0.120706 0.000000
0.537786 0.130300 0.000000
0.771695 0.137685 0.000000
0.995135 0.139994 0.000000
0.030607 0.270058 0.000000
0.146401 0.286988 0.000000
0.331423 0.326950 0.000000
0.551203 0.343491 0.000000
0.785030 0.350532 0.000000
1.000030 0.354242 0.000000
0.064789 0.429119 0.000000
0.202109 0.451047 0.000000
0.395246 0.499655 0.000000
0.557695 0.567135 0.000000
0.783789 0.573196 0.000000
1.000030 0.573926 0.000000
0.111545 0.587332 0.001155
0.251723 0.609999 0.000306
0.457359 0.647575 0.000000
0.608836 0.752537 0.000000
0.790067 0.803680 0.000000
1.000030 0.791180 0.000000
0.196122 0.827406 0.000000
0.313926 0.847529 0.000000
0.510049 0.863348 0.000000
0.686064 0.888521 0.000000
0.824952 0.983512 0.000000
1.000030 1.000024 0.000000
0.000000 0.005234 0.075313
0.027387 0.015863 0.111124
0.293183 0.010481 0.112098
0.524499 0.003858 0.119228
0.756123 0.001190 0.130676
0.987656 0.000000 0.136180
0.000000 0.109630 0.115409
0.041355 0.124918 0.129631
0.309216 0.128292 0.121084
0.537616 0.130910 0.120387
0.767871 0.136027 0.127532
0.993483 0.138866 0.132978
0.017066 0.287216 0.124770
0.111220 0.299998 0.105206
0.327920 0.332868 0.114885
0.550257 0.345889 0.125340
0.783842 0.351242 0.129034
0.999806 0.354896 0.131999
0.046233 0.428127 0.122140
0.167574 0.456329 0.089728
0.393869 0.498663 0.090509
0.557403 0.568980 0.116921
0.783663 0.573435 0.135397
1.000030 0.573908 0.138040
0.080118 0.567279 0.131379
0.219618 0.610209 0.093720
0.441281 0.649696 0.087627
0.613286 0.749479 0.083281
0.790063 0.803697 0.126208
1.000030 0.791175 0.138969
0.197347 0.835401 0.053547
0.297647 0.852057 0.045494
0.494724 0.869519 0.044460
0.687211 0.889239 0.050796
0.826539 0.981803 0.091160
1.000030 1.000024 0.126199
0.000000 0.025470 0.208541
0.018001 0.036343 0.232462
0.250326 0.052565 0.266782
0.548216 0.027149 0.260735
0.764220 0.008352 0.300813
0.986367 0.001750 0.321648
0.000000 0.130595 0.247468
0.018001 0.149075 0.270468
0.284370 0.156048 0.287144
0.547526 0.150660 0.287592
0.768508 0.146516 0.313039
0.990207 0.144034 0.328528
0.000000 0.296173 0.294864
0.024098 0.318843 0.310180
0.281121 0.333832 0.317394
0.547641 0.346926 0.330932
0.778849 0.352086 0.337197
0.997888 0.354987 0.340663
0.012885 0.486748 0.340616
0.088100 0.486840 0.320434
0.316592 0.507200 0.300460
0.561131 0.564770 0.331472
0.783118 0.573834 0.346013
1.000030 0.573921 0.346900
0.052765 0.625517 0.346610
0.142490 0.618575 0.307808
0.369920 0.661215 0.272352
0.613818 0.730348 0.292976
0.790039 0.803726 0.346581
1.000030 0.791165 0.346981
0.171404 0.851003 0.303994
0.262449 0.859625 0.241028
0.442490 0.903141 0.186740
0.671252 0.905445 0.233053
0.826517 0.973055 0.311870
1.000030 1.000024 0.346574
0.000000 0.060931 0.349262
0.018001 0.070579 0.367318
0.167541 0.081136 0.399245
0.557733 0.038344 0.414662
0.760171 0.068027 0.388032
0.968724 0.022676 0.488024
0.000000 0.168542 0.382219
0.018001 0.184239 0.404700
0.217107 0.193250 0.420547
0.551185 0.171367 0.444940
0.758309 0.193903 0.423939
0.973886 0.173122 0.510329
0.000000 0.306206 0.425388
0.018001 0.331331 0.453770
0.179237 0.347810 0.480123
0.535506 0.353396 0.501626
0.759938 0.361748 0.504928
0.990958 0.359840 0.543606
0.000000 0.480772 0.485240
0.018001 0.507924 0.507278
0.151313 0.531497 0.530625
0.520371 0.547587 0.531976
0.775708 0.570261 0.549681
0.998837 0.573748 0.554663
0.000000 0.678723 0.554311
0.045822 0.687960 0.548228
0.202403 0.695262 0.526989
0.543764 0.716831 0.506491
0.793607 0.785604 0.551322
1.000030 0.792238 0.556962
0.081240 0.877526 0.577764
0.186908 0.881612 0.530340
0.316040 0.897986 0.470420
0.591225 0.922168 0.443671
0.818772 0.944839 0.508800
1.000030 1.000024 0.563166
0.000000 0.106783 0.500295
0.018001 0.112349 0.511739
0.171193 0.118017 0.522103
0.517397 0.134760 0.507477
0.760841 0.059630 0.618236
0.895146 0.161600 0.585256
0.000000 0.213342 0.530202
0.018001 0.223450 0.547001
0.116416 0.227729 0.553741
0.499729 0.241861 0.547872
0.757328 0.204699 0.649318
0.898762 0.275294 0.618482
0.000000 0.339520 0.565872
0.018001 0.358039 0.590346
0.057641 0.369194 0.617340
0.455289 0.371755 0.629042
0.755019 0.371795 0.703976
0.915914 0.409645 0.676992
0.000000 0.487322 0.620962
0.018001 0.513022 0.648639
0.057641 0.530497 0.673734
0.422146 0.545078 0.696243
0.745045 0.565868 0.730987
0.955230 0.578251 0.731641
0.000000 0.660467 0.687655
0.018001 0.681397 0.702360
0.057641 0.701688 0.718629
0.399546 0.722831 0.725253
0.738684 0.745473 0.724670
0.983505 0.780638 0.756150
0.000000 0.848535 0.754982
0.018001 0.871673 0.757426
0.102659 0.893390 0.747037
0.401629 0.914266 0.707610
0.755654 0.920779 0.688653
0.995004 0.984113 0.757421
0.000000 0.164210 0.668561
0.018001 0.164755 0.665989
0.057846 0.165296 0.658806
0.452418 0.181013 0.690682
0.700504 0.197598 0.726415
0.994046 0.000875 0.969957
0.000000 0.267143 0.693125
0.018001 0.273184 0.703028
0.057641 0.273729 0.701578
0.402204 0.270205 0.731140
0.697440 0.289311 0.762856
0.997112 0.148204 0.970619
0.000000 0.381983 0.717811
0.018001 0.395738 0.739154
0.057641 0.403496 0.762517
0.304131 0.393541 0.787966
0.666548 0.402964 0.817530
0.999441 0.356022 0.971117
0.000000 0.520336 0.768597
0.018001 0.540494 0.791615
0.057641 0.547383 0.805441
0.273564 0.554482 0.834545
0.649046 0.557744 0.851303
0.999362 0.579659 0.971560
0.000000 0.662085 0.816273
0.018001 0.680153 0.833003
0.057641 0.690248 0.843577
0.276457 0.703133 0.856346
0.668301 0.730521 0.868982
0.969376 0.778422 0.961988
0.000000 0.817367 0.865700
0.018001 0.834498 0.874984
0.057641 0.850114 0.882760
0.206721 0.867968 0.890460
0.660902 0.894199 0.892608
0.924592 0.920533 0.893099
