luts/ONCE_UPON_A_TIME_IN_HOLLYWOOD-OUTDOOR.cube
LUT_3D_SIZE 16
0.000531 0.000101 0.000000
0.033123 0.007142 0.004234
0.080125 0.017369 0.011221
0.134862 0.028873 0.017005
0.193931 0.038611 0.020665
0.259464 0.045195 0.022425
0.331419 0.049177 0.023480
0.406883 0.051459 0.024316
0.483181 0.053445 0.025779
0.559111 0.056668 0.028399
0.634112 0.061901 0.032871
0.707740 0.069566 0.039345
0.780573 0.078380 0.046653
0.855213 0.082376 0.048124
0.932321 0.072694 0.034748
0.983101 0.062620 0.023565
0.005450 0.012899 0.000256
0.041408 0.027369 0.003996
0.093008 0.041261 0.010285
0.152137 0.053286 0.015906
0.212342 0.063580 0.019096
0.278022 0.071309 0.020941
0.348589 0.076360 0.022182
0.421576 0.080183 0.023259
0.495525 0.083893 0.024963
0.569052 0.088327 0.027818
0.641909 0.094841 0.032224
0.713382 0.103350 0.038331
0.783807 0.113035 0.045058
0.855352 0.119212 0.047022
0.928314 0.115138 0.036647
0.979118 0.108505 0.027311
0.019571 0.036740 0.000613
0.057488 0.052591 0.004059
0.105902 0.069730 0.008991
0.163742 0.084966 0.013059
0.227255 0.095695 0.016561
0.294913 0.104020 0.018951
0.364925 0.110833 0.020345
0.435937 0.116134 0.021621
0.507497 0.121300 0.023568
0.578792 0.127107 0.026513
0.649046 0.134107 0.030785
0.718388 0.142627 0.036265
0.786346 0.151867 0.042170
0.854768 0.159102 0.044732
0.923442 0.160279 0.038695
0.974065 0.158130 0.032401
0.049363 0.068810 0.001483
0.084112 0.082787 0.004546
0.125097 0.097857 0.008445
0.174882 0.116531 0.012139
0.237724 0.135376 0.013709
0.307343 0.146710 0.015849
0.378210 0.154052 0.017873
0.448064 0.160525 0.019447
0.517504 0.166393 0.021478
0.586553 0.172558 0.024328
0.654685 0.179350 0.027990
0.722085 0.187057 0.032501
0.788199 0.195188 0.037087
0.854043 0.202189 0.039643
0.919069 0.206102 0.037223
0.969627 0.206737 0.033981
0.091914 0.105956 0.003042
0.119331 0.117195 0.005421
0.151132 0.130577 0.008038
0.192476 0.147213 0.010994
0.248001 0.171104 0.013208
0.315938 0.194203 0.013503
0.386550 0.206301 0.014816
0.456213 0.213072 0.016890
0.524355 0.218769 0.018864
0.591468 0.224448 0.021177
0.658070 0.230273 0.023967
0.724047 0.236479 0.027091
0.788982 0.242631 0.029681
0.853363 0.248100 0.030575
0.916208 0.252257 0.028605
0.966641 0.253736 0.026587
0.139969 0.146481 0.004760
0.160004 0.155608 0.006265
0.185188 0.168181 0.007890
0.220324 0.186246 0.009673
0.267391 0.207314 0.012235
0.325506 0.234808 0.013826
0.392271 0.258892 0.013299
0.459859 0.271052 0.013933
0.526742 0.277304 0.015608
0.593317 0.281606 0.017448
0.659229 0.285807 0.019090
0.724522 0.290036 0.020047
0.788867 0.294101 0.020206
0.852650 0.297534 0.018770
0.914622 0.300278 0.015681
0.965069 0.301406 0.013711
0.190867 0.190575 0.006245
0.207156 0.198925 0.007156
0.228311 0.211436 0.008064
0.258136 0.230192 0.009228
0.297406 0.252684 0.010932
0.344989 0.273944 0.013701
0.399725 0.300530 0.014707
0.462600 0.323733 0.013372
0.527792 0.336033 0.012714
0.592892 0.341973 0.012825
0.657918 0.345229 0.012955
0.723576 0.347445 0.012634
0.788338 0.349176 0.011372
0.852064 0.350893 0.009075
0.913879 0.352103 0.006398
0.964633 0.352536 0.004927
0.247057 0.238479 0.008981
0.261041 0.246551 0.009326
0.278860 0.258741 0.009580
0.303148 0.277120 0.010204
0.334956 0.299568 0.011174
0.373253 0.320871 0.013000
0.416834 0.338392 0.015623
0.466808 0.362872 0.015127
0.527622 0.385731 0.011968
0.592632 0.398881 0.009215
0.657689 0.405010 0.007447
0.722284 0.407484 0.006147
0.786901 0.408596 0.004990
0.851780 0.408574 0.003953
0.914600 0.408276 0.002711
0.964998 0.408018 0.001975
0.306851 0.288659 0.015037
0.317889 0.296190 0.014485
0.332078 0.307634 0.014081
0.351252 0.324724 0.013765
0.376208 0.345830 0.013799
0.406644 0.366469 0.014485
0.441440 0.382767 0.015514
0.479680 0.396301 0.015404
0.527746 0.420437 0.011757
0.589234 0.444520 0.006878
0.655828 0.459627 0.003746
0.722558 0.466799 0.002326
0.787632 0.469418 0.001781
0.852064 0.469857 0.001546
0.915492 0.468914 0.001545
0.965978 0.467827 0.001510
0.364519 0.338386 0.026546
0.372762 0.345325 0.025402
0.383508 0.355521 0.023723
0.398292 0.370653 0.022047
0.417701 0.389676 0.020495
0.441599 0.409241 0.019013
0.469442 0.425699 0.017231
0.500635 0.437198 0.014153
0.535740 0.449083 0.009462
0.584804 0.474806 0.004562
0.649055 0.501513 0.001799
0.719038 0.519010 0.000973
0.788077 0.528175 0.000792
0.854699 0.531467 0.000894
0.918265 0.531551 0.001098
0.968002 0.530618 0.001239
0.416556 0.385452 0.043813
0.422475 0.391387 0.042162
0.430554 0.400298 0.039794
0.442047 0.413412 0.036755
0.457174 0.430214 0.033163
0.476137 0.448381 0.028612
0.498382 0.464862 0.022748
0.524003 0.477692 0.014913
0.552708 0.486493 0.007242
0.587544 0.499062 0.002267
0.639989 0.528018 0.000622
0.709301 0.558097 0.000451
0.782495 0.578489 0.000525
0.854554 0.589737 0.000665
0.921716 0.594380 0.000849
0.970927 0.594572 0.000952
0.461698 0.427732 0.064728
0.466348 0.433014 0.062786
0.472852 0.440655 0.060110
0.482024 0.452021 0.056343
0.494054 0.466634 0.051144
0.509341 0.483478 0.043947
0.527472 0.500297 0.033411
0.548476 0.514959 0.019311
0.572816 0.526254 0.007294
0.601271 0.534639 0.001529
0.638395 0.549874 0.000128
0.696690 0.583067 0.000083
0.769895 0.616106 0.000298
0.846824 0.639291 0.000491
0.920125 0.652797 0.000644
0.971962 0.656824 0.000731
0.500289 0.464849 0.088025
0.504731 0.469578 0.085834
0.510421 0.476358 0.082804
0.518201 0.486064 0.078315
0.528348 0.499219 0.071996
0.540826 0.514955 0.062517
0.555832 0.532096 0.047927
0.573615 0.548987 0.027683
0.594569 0.563917 0.009824
0.619776 0.576140 0.001743
0.649916 0.586027 0.000109
0.692020 0.605884 0.000000
0.755269 0.642144 0.000037
0.832449 0.677798 0.000205
0.910985 0.703471 0.000431
0.967780 0.713035 0.000516
0.533992 0.499496 0.114259
0.538948 0.503720 0.111272
0.544781 0.509614 0.107504
0.552328 0.518254 0.102175
0.561378 0.530044 0.094774
0.572342 0.545058 0.083643
0.585233 0.562609 0.065594
0.600496 0.581605 0.039631
0.618890 0.600558 0.015066
0.641321 0.617950 0.002834
0.668825 0.632584 0.000186
0.702656 0.645568 0.000000
0.749745 0.669886 0.000000
0.817501 0.708726 0.000015
0.895981 0.745450 0.000043
0.958764 0.761154 0.000124
0.564497 0.535514 0.144652
0.570690 0.538929 0.140482
0.577600 0.543903 0.135539
0.585620 0.551348 0.128978
0.594741 0.562028 0.120167
0.604935 0.576381 0.107342
0.616615 0.594363 0.086911
0.630192 0.615432 0.055500
0.646405 0.638082 0.023008
0.666490 0.660888 0.005006
0.691595 0.681858 0.000448
0.722817 0.699921 0.000025
0.760527 0.716477 0.000000
0.812796 0.744065 0.000000
0.882927 0.782454 0.000000
0.948506 0.802401 0.000000
0.592904 0.573983 0.177760
0.600742 0.576582 0.172401
0.609216 0.580406 0.166178
0.618383 0.586621 0.158382
0.628119 0.596229 0.148089
0.638336 0.609940 0.133689
0.649146 0.628210 0.111082
0.661483 0.650990 0.075699
0.675921 0.677000 0.034303
0.693868 0.704873 0.008450
0.716491 0.732229 0.000879
0.745646 0.757310 0.000039
0.781333 0.778512 0.000000
0.824791 0.796965 0.000000
0.882854 0.824312 0.000000
0.945353 0.843591 0.000000
0.000124 0.000282 0.000378
0.023448 0.006826 0.005443
0.064166 0.016753 0.014066
0.122068 0.026845 0.022968
0.187669 0.033709 0.027475
0.256735 0.037860 0.030115
0.329262 0.040067 0.032116
0.404301 0.041403 0.034158
0.480569 0.043325 0.036588
0.556812 0.046802 0.040312
0.632532 0.052694 0.045846
0.707581 0.061463 0.053547
0.781331 0.071500 0.062110
0.857491 0.074715 0.062760
0.936602 0.060987 0.045111
0.986066 0.047949 0.030994
0.002050 0.013208 0.002689
0.030807 0.025242 0.007653
0.082778 0.037823 0.016638
0.148683 0.048516 0.023879
0.213340 0.056860 0.027512
0.281373 0.061578 0.029622
0.352356 0.064486 0.031294
0.424701 0.066849 0.033132
0.497915 0.070010 0.035740
0.571132 0.075157 0.039748
0.643819 0.082631 0.045546
0.715786 0.093009 0.053329
0.786995 0.104116 0.061246
0.860065 0.109162 0.061516
0.934725 0.099314 0.044930
0.983929 0.088599 0.031789
0.009234 0.034815 0.004576
0.041862 0.049781 0.008819
0.091850 0.066801 0.015183
0.160954 0.081435 0.022963
0.231245 0.089968 0.027477
0.301232 0.095927 0.029412
0.371841 0.100030 0.030934
0.442830 0.103463 0.032791
0.513677 0.107778 0.035412
0.584209 0.113822 0.039455
0.654101 0.121866 0.044995
0.723393 0.132044 0.052197
0.791675 0.142572 0.059207
0.861355 0.148690 0.059727
0.931266 0.144480 0.046629
0.979979 0.138398 0.035918
0.028888 0.063931 0.005378
0.061500 0.078348 0.008605
0.107447 0.094857 0.012992
0.168534 0.115042 0.019332
0.240217 0.133477 0.024735
0.314285 0.142200 0.028269
0.385938 0.147796 0.030192
0.455963 0.152349 0.032073
0.525292 0.156940 0.034716
0.593851 0.162544 0.038399
0.661742 0.169662 0.043385
0.728528 0.178207 0.049370
0.794446 0.187016 0.054955
0.860632 0.193274 0.056010
0.926344 0.193563 0.047816
0.974939 0.191517 0.040729
0.063750 0.099098 0.005379
0.093584 0.111769 0.007670
0.132506 0.127058 0.010701
0.183088 0.145649 0.014681
0.246422 0.170295 0.020196
0.319640 0.193255 0.024817
0.392618 0.203503 0.028077
0.463151 0.208673 0.030790
0.531150 0.213387 0.033277
0.598248 0.218304 0.036359
0.664541 0.223816 0.040260
0.730007 0.230144 0.044462
0.794527 0.236495 0.047829
0.858517 0.241561 0.048016
0.921190 0.243864 0.042709
0.970253 0.243983 0.038338
0.112515 0.139723 0.005425
0.136536 0.149894 0.006947
0.167478 0.163898 0.008959
0.209203 0.183200 0.011375
0.261912 0.205511 0.014957
0.324976 0.234268 0.020283
0.394999 0.258541 0.024583
0.464076 0.269690 0.027903
0.531821 0.274722 0.030866
0.598605 0.278175 0.033568
0.664036 0.282106 0.035852
0.728948 0.286081 0.037598
0.792869 0.289958 0.038027
0.855848 0.293088 0.035901
0.917437 0.295161 0.030817
0.966882 0.295721 0.027449
0.167473 0.184145 0.006672
0.186573 0.192960 0.007618
0.211744 0.205937 0.008647
0.246353 0.225500 0.010085
0.289892 0.249253 0.012167
0.341477 0.272559 0.015733
0.399468 0.300491 0.020953
0.464446 0.323773 0.024855
0.530679 0.335385 0.027206
0.596226 0.340477 0.028865
0.661628 0.343049 0.029804
0.727009 0.344779 0.029736
0.791070 0.346335 0.027775
0.854083 0.347682 0.024219
0.915485 0.348530 0.019751
0.965232 0.348750 0.017188
0.226090 0.231869 0.010052
0.242289 0.239983 0.010186
0.263389 0.252261 0.010587
0.291693 0.271040 0.011011
0.326993 0.294726 0.012122
0.368245 0.318284 0.014075
0.414243 0.337627 0.017326
0.466622 0.363152 0.021420
0.528883 0.385928 0.023295
0.594565 0.398670 0.023563
0.659812 0.404157 0.022734
0.724514 0.406067 0.021310
0.788918 0.406607 0.019521
0.853379 0.406025 0.017251
0.915287 0.405439 0.014398
0.965132 0.405046 0.012838
0.288093 0.281789 0.017723
0.301366 0.289315 0.017035
0.318453 0.300625 0.016166
0.341087 0.317938 0.015306
0.368728 0.340061 0.014965
0.401346 0.363041 0.015380
0.437927 0.381501 0.016499
0.477883 0.396289 0.017199
0.527598 0.420889 0.017889
0.590257 0.444882 0.017395
0.657333 0.459479 0.016097
0.724144 0.466071 0.014946
0.789011 0.468189 0.013967
0.853084 0.468105 0.013218
0.916041 0.466787 0.012824
0.966243 0.465500 0.012669
0.349148 0.331550 0.030896
0.359460 0.338327 0.029214
0.372499 0.348453 0.027195
0.389968 0.363893 0.024812
0.411253 0.383720 0.022524
0.436714 0.405237 0.020508
0.465776 0.423664 0.018497
0.498089 0.436885 0.015443
0.534492 0.449297 0.011307
0.584740 0.475252 0.009424
0.649748 0.501880 0.009484
0.720075 0.518947 0.010483
0.789025 0.527562 0.011329
0.855497 0.530428 0.012021
0.918462 0.530115 0.012564
0.968155 0.528957 0.012873
0.404755 0.378665 0.048589
0.412370 0.384714 0.046572
0.422239 0.393549 0.043879
0.435508 0.406976 0.040276
0.452033 0.424425 0.036046
0.471932 0.444068 0.031136
0.495177 0.462500 0.024989
0.521465 0.476816 0.016799
0.550938 0.486587 0.008489
0.586619 0.499348 0.003545
0.639876 0.528416 0.003625
0.709779 0.558361 0.006487
0.783237 0.578487 0.009183
0.855311 0.589277 0.011190
0.921960 0.593520 0.012517
0.970912 0.593534 0.012947
0.452994 0.421443 0.069078
0.459004 0.426957 0.067095
0.466555 0.434616 0.064261
0.476981 0.446132 0.060263
0.490021 0.461425 0.054867
0.505844 0.479254 0.047626
0.524556 0.497439 0.037081
0.546122 0.513524 0.022806
0.571104 0.525913 0.009401
0.600032 0.534959 0.002230
0.637562 0.550235 0.000685
0.696677 0.583412 0.002461
0.770415 0.616295 0.006072
0.847508 0.639334 0.009361
0.920471 0.652573 0.011636
0.972106 0.656424 0.012530
0.493806 0.459927 0.092199
0.498962 0.464690 0.090006
0.505514 0.471421 0.087058
0.514344 0.481350 0.082744
0.525135 0.494657 0.076601
0.538177 0.510983 0.067623
0.553700 0.529080 0.053586
0.571803 0.547071 0.033591
0.593055 0.563065 0.013838
0.618558 0.576086 0.003068
0.648976 0.586353 0.000293
0.691517 0.606184 0.000371
0.755330 0.642542 0.002294
0.832882 0.678147 0.005912
0.911582 0.703596 0.009326
0.968195 0.713047 0.010721
0.528621 0.496332 0.118797
0.534272 0.500413 0.115899
0.540810 0.506168 0.112224
0.549079 0.514629 0.107264
0.558922 0.526400 0.100308
0.570411 0.541544 0.090006
0.583674 0.559537 0.073403
0.599354 0.579354 0.048284
0.617870 0.599127 0.021532
0.640450 0.617440 0.005322
0.668137 0.632795 0.000597
0.702037 0.646024 0.000048
0.749464 0.670408 0.000455
0.817783 0.709272 0.002389
0.896888 0.746318 0.005393
0.959516 0.762316 0.007240
0.559491 0.533980 0.149763
0.566392 0.537365 0.145755
0.574010 0.542049 0.141170
0.582902 0.549182 0.135042
0.592669 0.559522 0.126855
0.603644 0.573616 0.115102
0.615797 0.591601 0.096585
0.629697 0.612988 0.067262
0.646196 0.636288 0.032683
0.666297 0.659932 0.009057
0.691274 0.681719 0.001252
0.722594 0.700476 0.000079
0.760584 0.717261 0.000035
0.813552 0.745500 0.000529
0.885109 0.784705 0.002356
0.950637 0.805213 0.003752
0.587963 0.573817 0.183462
0.596513 0.576380 0.178284
0.605702 0.579936 0.172482
0.615770 0.585738 0.165208
0.626285 0.594761 0.155749
0.637268 0.607831 0.142584
0.648900 0.625826 0.122179
0.661660 0.648582 0.089709
0.676412 0.675106 0.047162
0.694365 0.703598 0.014480
0.716985 0.731841 0.002112
0.745797 0.757874 0.000145
0.781729 0.779547 0.000000
0.826472 0.799471 0.000045
0.887522 0.829401 0.000630
0.950139 0.849857 0.001459
0.000000 0.001113 0.001398
0.016361 0.006344 0.007060
0.051398 0.014726 0.015760
0.107580 0.024505 0.026840
0.174020 0.032276 0.035558
0.243644 0.036839 0.041402
0.316674 0.039023 0.046095
0.391800 0.040718 0.050472
0.467656 0.043245 0.055457
0.543891 0.047494 0.061383
0.620262 0.054099 0.068945
0.697482 0.062225 0.077195
0.774350 0.070995 0.085494
0.854639 0.070666 0.083724
0.936966 0.051738 0.061768
0.986748 0.036850 0.045720
0.000569 0.014577 0.006988
0.021011 0.024201 0.012698
0.064078 0.035695 0.022093
0.133913 0.045426 0.033363
0.206083 0.052088 0.039311
0.277759 0.054751 0.042082
0.349599 0.055758 0.044520
0.421544 0.057485 0.047706
0.494119 0.060418 0.051650
0.567150 0.065259 0.056559
0.640634 0.072728 0.063088
0.713799 0.083288 0.071821
0.786629 0.094589 0.080170
0.861791 0.098293 0.079101
0.938790 0.083683 0.057836
0.986885 0.069085 0.041341
0.003228 0.035153 0.011774
0.027175 0.047708 0.016766
0.072463 0.062876 0.024027
0.150722 0.076346 0.036880
0.228968 0.084061 0.042692
0.303013 0.088008 0.044562
0.375308 0.089214 0.045835
0.446221 0.090726 0.047843
0.516599 0.093901 0.051000
0.586766 0.099761 0.055778
0.656391 0.108564 0.062399
0.725855 0.119944 0.070905
0.794980 0.131512 0.078823
0.866210 0.136211 0.077303
0.938346 0.125370 0.056867
0.985270 0.113887 0.041317
0.013897 0.060707 0.012971
0.040279 0.074230 0.016447
0.084925 0.091304 0.021951
0.155226 0.112442 0.031631
0.239138 0.130217 0.042480
0.318417 0.137385 0.046642
0.391721 0.140805 0.048053
0.462392 0.143130 0.049731
0.531559 0.146192 0.052399
0.599803 0.151172 0.056574
0.667188 0.158325 0.062451
0.733911 0.167478 0.069603
0.800025 0.176904 0.075914
0.867323 0.181590 0.074537
0.934256 0.176192 0.058408
0.981204 0.169637 0.046134
0.039176 0.093648 0.011452
0.066146 0.106632 0.013854
0.107989 0.123363 0.017781
0.167364 0.143798 0.023248
0.241661 0.169550 0.033244
0.322311 0.192379 0.043386
0.398675 0.200482 0.048238
0.469760 0.203989 0.050783
0.537950 0.207241 0.053097
0.604930 0.211020 0.056431
0.671165 0.216066 0.060861
0.736366 0.222301 0.065944
0.800440 0.228658 0.069857
0.864836 0.232663 0.068181
0.927957 0.231403 0.057113
0.975330 0.228856 0.048755
0.082547 0.133855 0.009737
0.108055 0.144674 0.011303
0.143952 0.159788 0.013748
0.193173 0.180644 0.017395
0.254019 0.204521 0.022405
0.324006 0.234350 0.032569
0.398026 0.258777 0.042943
0.469056 0.268293 0.048708
0.537566 0.271742 0.052280
0.604336 0.274349 0.055123
0.669563 0.277528 0.057712
0.734091 0.281060 0.059842
0.797676 0.284634 0.060450
0.860621 0.287104 0.057036
0.921561 0.287436 0.048528
0.969897 0.286834 0.042791
0.139429 0.178171 0.009835
0.160932 0.187502 0.010766
0.190390 0.201141 0.012098
0.230841 0.221470 0.014110
0.280570 0.246566 0.017047
0.337072 0.271595 0.021867
0.399387 0.300963 0.032194
0.466737 0.324463 0.042478
0.534184 0.335052 0.048094
0.600300 0.338820 0.050976
0.665978 0.340535 0.052559
0.731095 0.341647 0.052279
0.794442 0.342975 0.049544
0.857067 0.343826 0.044473
0.917409 0.343914 0.037629
0.966530 0.343610 0.033608
0.200412 0.225507 0.013744
0.218672 0.233876 0.013802
0.243659 0.246328 0.014034
0.277026 0.265431 0.014544
0.317273 0.290165 0.015672
0.362315 0.315856 0.018208
0.411471 0.337084 0.022426
0.466476 0.363749 0.031744
0.530664 0.386844 0.040298
0.597203 0.398690 0.044061
0.662601 0.403231 0.044528
0.727274 0.404333 0.042909
0.791706 0.404102 0.040103
0.855494 0.403061 0.036373
0.916550 0.402183 0.031427
0.965855 0.401486 0.028796
0.264124 0.274725 0.022739
0.279593 0.282216 0.021816
0.300388 0.293534 0.020600
0.327603 0.310966 0.019352
0.359474 0.333996 0.018494
0.394914 0.359032 0.018693
0.433926 0.380057 0.019918
0.475869 0.396307 0.021605
0.527602 0.421618 0.027284
0.591587 0.445713 0.032618
0.659248 0.459613 0.034844
0.726076 0.465505 0.034671
0.790839 0.466788 0.033071
0.854748 0.466076 0.031253
0.917080 0.464254 0.030040
0.966651 0.462755 0.029385
0.327733 0.323955 0.036993
0.340277 0.330628 0.035128
0.356923 0.340688 0.032723
0.378052 0.356151 0.029695
0.403047 0.376969 0.026511
0.430499 0.400115 0.023998
0.461545 0.421199 0.021615
0.495214 0.436300 0.018524
0.533039 0.449599 0.015108
0.584744 0.475867 0.017057
0.651049 0.502484 0.022198
0.721829 0.519148 0.026308
0.790799 0.527020 0.028624
0.856628 0.529239 0.029729
0.919213 0.528419 0.030328
0.968426 0.527075 0.030611
0.387306 0.370855 0.054521
0.396948 0.376896 0.052434
0.409526 0.385744 0.049493
0.425759 0.399152 0.045599
0.444839 0.417325 0.040837
0.466411 0.438503 0.035455
0.490893 0.459150 0.028974
0.518253 0.475557 0.020388
0.548799 0.486647 0.011184
0.585420 0.499718 0.005882
0.639925 0.529018 0.008805
0.710700 0.558944 0.016607
0.784634 0.578613 0.023589
0.856340 0.588985 0.028257
0.922542 0.592705 0.030933
0.971273 0.592456 0.031796
0.439557 0.414323 0.074542
0.447093 0.419663 0.072450
0.456703 0.427317 0.069603
0.469007 0.438976 0.065485
0.484050 0.454703 0.059976
0.501204 0.473680 0.052591
0.520869 0.493512 0.042279
0.543209 0.511370 0.027851
0.568751 0.525353 0.012896
0.598361 0.535288 0.003752
0.636573 0.550518 0.001743
0.696715 0.583917 0.006541
0.771219 0.616825 0.015714
0.848644 0.639633 0.023794
0.921281 0.652431 0.029326
0.972493 0.656137 0.031385
0.483619 0.454271 0.097230
0.489996 0.458855 0.095038
0.497840 0.465407 0.092204
0.507998 0.475326 0.088052
0.520302 0.488830 0.082227
0.534420 0.505798 0.073582
0.550721 0.524997 0.060359
0.569341 0.544279 0.040849
0.591101 0.561713 0.019349
0.616896 0.575868 0.005396
0.647710 0.586718 0.000764
0.690648 0.606591 0.001137
0.755453 0.643082 0.006371
0.833583 0.678681 0.015500
0.912442 0.704170 0.023972
0.968731 0.713314 0.027553
0.520616 0.492444 0.123989
0.527129 0.496413 0.121223
0.534786 0.501901 0.117819
0.544154 0.510164 0.113137
0.555062 0.521856 0.106626
0.567537 0.537086 0.097084
0.581531 0.555583 0.082166
0.597583 0.576189 0.058373
0.616416 0.597096 0.029961
0.639232 0.616548 0.009257
0.667045 0.632837 0.001397
0.701169 0.646540 0.000142
0.749235 0.670810 0.001242
0.818042 0.710248 0.006617
0.898058 0.747401 0.014898
0.960241 0.763174 0.019609
0.552704 0.532074 0.155369
0.560295 0.535266 0.151609
0.568810 0.539633 0.147302
0.578553 0.546468 0.141724
0.589550 0.556391 0.134236
0.601412 0.570165 0.123497
0.614323 0.588087 0.107051
0.628723 0.609721 0.080228
0.645429 0.633820 0.044679
0.665716 0.658471 0.015306
0.690810 0.681411 0.002752
0.722257 0.700904 0.000227
0.760422 0.718355 0.000050
0.814293 0.746812 0.001452
0.887405 0.787394 0.006715
0.953106 0.808492 0.010760
0.581846 0.573590 0.189571
0.590960 0.576056 0.184808
0.600977 0.579400 0.179395
0.611872 0.584770 0.172673
0.623531 0.593090 0.164067
0.635567 0.605548 0.152106
0.648042 0.622932 0.133950
0.661431 0.645525 0.104831
0.676474 0.672252 0.062754
0.694590 0.701670 0.023676
0.717134 0.731080 0.004519
0.745950 0.758040 0.000387
0.782019 0.780697 0.000024
0.828216 0.802177 0.000095
0.892590 0.835052 0.001707
0.955503 0.857347 0.004077
0.000000 0.003000 0.003714
0.009494 0.006814 0.010439
0.037016 0.013685 0.020392
0.088408 0.023093 0.031642
0.157427 0.030985 0.042824
0.229498 0.035053 0.051243
0.303206 0.036861 0.058055
0.378461 0.037945 0.064571
0.454570 0.039930 0.071482
0.530969 0.043952 0.079236
0.607539 0.050620 0.088422
0.684323 0.060955 0.099788
0.760641 0.072670 0.111569
0.840559 0.076883 0.115471
0.926586 0.059820 0.098797
0.981512 0.044018 0.083041
0.000114 0.016761 0.012382
0.011810 0.023724 0.019249
0.043612 0.033814 0.028692
0.104874 0.044901 0.040713
0.182555 0.052225 0.052976
0.258890 0.054763 0.059200
0.332883 0.055359 0.063881
0.405712 0.056551 0.068859
0.478535 0.059661 0.074764
0.551617 0.065280 0.081927
0.625087 0.073682 0.090518
0.699068 0.085044 0.100764
0.773719 0.096248 0.109934
0.853747 0.095946 0.107410
0.936411 0.074409 0.083176
0.986279 0.057313 0.064878
0.000877 0.037714 0.022410
0.015191 0.047105 0.028141
0.050160 0.059108 0.035432
0.121208 0.072203 0.048406
0.210535 0.080290 0.061631
0.292109 0.083373 0.066110
0.366993 0.083243 0.068387
0.438512 0.083693 0.071274
0.508881 0.086485 0.075298
0.579065 0.092042 0.080949
0.649335 0.100470 0.088010
0.720377 0.111404 0.096379
0.791860 0.121726 0.103218
0.866784 0.122608 0.099047
0.941690 0.105166 0.074867
0.988115 0.088495 0.056152
0.005114 0.061864 0.026290
0.022028 0.072617 0.030109
0.058462 0.087387 0.036432
0.128905 0.107387 0.047743
0.228034 0.123680 0.066461
0.315514 0.130744 0.072132
0.392602 0.132612 0.073327
0.464453 0.132928 0.074402
0.533851 0.134517 0.076701
0.602071 0.138598 0.080600
0.669488 0.145564 0.086565
0.736529 0.155034 0.093961
0.803256 0.164383 0.100014
0.872506 0.166326 0.095753
0.941701 0.153109 0.072659
0.986622 0.140293 0.055167
0.020179 0.090669 0.024305
0.039721 0.102130 0.026927
0.076417 0.118870 0.031955
0.140941 0.141088 0.040071
0.228238 0.167672 0.055632
0.321965 0.189552 0.072866
0.402741 0.195968 0.078267
0.474797 0.198305 0.079695
0.543349 0.199959 0.081131
0.610385 0.202437 0.083628
0.676430 0.206599 0.087627
0.741791 0.212577 0.092576
0.806152 0.218472 0.096006
0.871692 0.219904 0.091310
0.935958 0.212574 0.072906
0.981465 0.205336 0.059232
0.052816 0.129225 0.021376
0.074557 0.139925 0.023087
0.110877 0.155727 0.026339
0.167447 0.178307 0.031975
0.239041 0.204129 0.039827
0.320558 0.234682 0.056174
0.400941 0.258963 0.073367
0.474514 0.266568 0.080601
0.543726 0.268483 0.083445
0.610075 0.269878 0.084894
0.675235 0.272054 0.086694
0.739789 0.274804 0.088427
0.803107 0.277721 0.088450
0.866220 0.278600 0.082850
0.927426 0.275749 0.069033
0.974298 0.272761 0.059575
0.104503 0.173365 0.020453
0.126658 0.182768 0.021183
0.159521 0.197041 0.022950
0.207257 0.218461 0.026049
0.266119 0.245284 0.030985
0.330990 0.272022 0.038169
0.399261 0.302166 0.054800
0.470002 0.326022 0.072180
0.538626 0.335095 0.079997
0.605360 0.337096 0.082610
0.671160 0.337506 0.083421
0.735673 0.337938 0.082125
0.798730 0.338655 0.078141
0.860808 0.338515 0.070789
0.920892 0.337221 0.060162
0.968972 0.335930 0.053909
0.166696 0.220160 0.023895
0.186672 0.228556 0.023673
0.215881 0.241526 0.024051
0.256149 0.261285 0.024821
0.303733 0.286912 0.026942
0.355199 0.314351 0.030747
0.408584 0.337589 0.036912
0.467071 0.365480 0.052481
