luts/ONCE_UPON_A_TIME_IN_HOLLYWOOD-OUTDOOR.cube
LUT_3D_SIZE 6
0.000531 0.000101 0.000000
0.134862 0.028873 0.017005
0.331419 0.049177 0.023480
0.559111 0.056668 0.028399
0.780573 0.078380 0.046653
0.983101 0.062620 0.023565
0.049363 0.068810 0.001483
0.174882 0.116531 0.012139
0.378210 0.154052 0.017873
0.586553 0.172558 0.024328
0.788199 0.195188 0.037087
0.969627 0.206737 0.033981
0.190867 0.190575 0.006245
0.258136 0.230192 0.009228
0.399725 0.300530 0.014707
0.592892 0.341973 0.012825
0.788338 0.349176 0.011372
0.964633 0.352536 0.004927
0.364519 0.338386 0.026546
0.398292 0.370653 0.022047
0.469442 0.425699 0.017231
0.584804 0.474806 0.004562
0.788077 0.528175 0.000792
0.968002 0.530618 0.001239
0.500289 0.464849 0.088025
0.518201 0.486064 0.078315
0.555832 0.532096 0.047927
0.619776 0.576140 0.001743
0.755269 0.642144 0.000037
0.967780 0.713035 0.000516
0.592904 0.573983 0.177760
0.618383 0.586621 0.158382
0.649146 0.628210 0.111082
0.693868 0.704873 0.008450
0.781333 0.778512 0.000000
0.945353 0.843591 0.000000
0.000000 0.003000 0.003714
0.088408 0.023093 0.031642
0.303206 0.036861 0.058055
0.530969 0.043952 0.079236
0.760641 0.072670 0.111569
0.981512 0.044018 0.083041
0.005114 0.061864 0.026290
0.128905 0.107387 0.047743
0.392602 0.132612 0.073327
0.602071 0.138598 0.080600
0.803256 0.164383 0.100014
0.986622 0.140293 0.055167
0.104503 0.173365 0.020453
0.207257 0.218461 0.026049
0.399261 0.302166 0.054800
0.605360 0.337096 0.082610
0.798730 0.338655 0.078141
0.968972 0.335930 0.053909
0.297508 0.316414 0.046961
0.361375 0.348930 0.039782
0.456379 0.418176 0.031471
0.585204 0.477319 0.032097
0.792932 0.526689 0.053073
0.968944 0.524990 0.052994
0.466777 0.447801 0.104233
0.497854 0.467963 0.095626
0.546505 0.519277 0.070352
0.614914 0.575400 0.010489
0.755735 0.643946 0.012044
0.969499 0.714111 0.049178
0.573307 0.573169 0.196582
0.605974 0.583646 0.181502
0.646136 0.619313 0.146988
0.694408 0.698979 0.037098
0.782306 0.781981 0.000051
0.960441 0.864990 0.007510
0.000000 0.015243 0.024489
0.032719 0.027645 0.057993
0.228478 0.051833 0.092566
0.455808 0.045010 0.130749
0.698192 0.060101 0.173901
0.929309 0.091324 0.212138
0.000078 0.074162 0.072146
0.035438 0.093376 0.096551
0.310167 0.127959 0.142530
0.544154 0.121490 0.164474
0.758889 0.144044 0.191329
0.974181 0.125009 0.180877
0.012082 0.177315 0.106695
0.075764 0.214987 0.124800
0.372856 0.308561 0.192139
0.621702 0.324998 0.220474
0.807116 0.319361 0.202883
0.973865 0.304389 0.166487
0.155301 0.308355 0.128640
0.258994 0.346576 0.134157
0.432533 0.419952 0.154774
0.595390 0.489599 0.178719
0.804510 0.527262 0.189646
0.973209 0.515790 0.152093
0.374608 0.444516 0.166742
0.435040 0.462035 0.161311
0.527895 0.507229 0.156342
0.615690 0.575737 0.116252
0.765303 0.653055 0.077756
0.977309 0.720668 0.138544
0.522379 0.575403 0.237626
0.569165 0.585686 0.227068
0.630991 0.612986 0.206959
0.694649 0.686296 0.130006
0.787101 0.788285 0.012313
0.971589 0.887024 0.030069
0.000000 0.034464 0.059147
0.010335 0.043115 0.087007
0.160333 0.074035 0.128692
0.351012 0.084122 0.153330
0.576778 0.073175 0.216194
0.820561 0.084690 0.272542
0.000000 0.087020 0.108129
0.008233 0.097646 0.127563
0.185258 0.144958 0.188279
0.429404 0.139860 0.203592
0.639932 0.133710 0.245960
0.884284 0.168335 0.300808
0.000237 0.221534 0.204594
0.025024 0.243793 0.229178
0.258630 0.322592 0.302628
0.564837 0.343889 0.335320
0.754634 0.316832 0.337160
0.939655 0.317813 0.340345
0.059818 0.364100 0.278348
0.121953 0.386097 0.289819
0.352259 0.454970 0.337415
0.603097 0.515566 0.378163
0.822894 0.518004 0.384308
0.979102 0.498239 0.328007
0.272240 0.482197 0.309688
0.332975 0.498505 0.308895
0.474692 0.538003 0.323569
0.619118 0.592707 0.334118
0.790833 0.674621 0.309242
0.990671 0.729777 0.287484
0.445706 0.611748 0.347099
0.508444 0.624272 0.344202
0.596259 0.647367 0.343167
0.695675 0.697961 0.328023
0.815405 0.808633 0.214710
0.985250 0.917764 0.073218
0.000000 0.054042 0.103589
0.004312 0.063065 0.124147
0.099859 0.095495 0.176475
0.316848 0.122758 0.197124
0.470731 0.122648 0.227500
0.674159 0.119595 0.299446
0.000000 0.108918 0.150998
0.005129 0.120705 0.167693
0.092274 0.169606 0.230760
0.384496 0.206347 0.273169
0.523881 0.169307 0.265745
0.740671 0.209389 0.349528
0.000114 0.247672 0.267648
0.015006 0.261805 0.284943
0.144861 0.325022 0.349791
0.482512 0.395806 0.412710
0.663302 0.354670 0.398296
0.843859 0.362441 0.440220
0.045581 0.437328 0.406247
0.093395 0.451510 0.422608
0.297937 0.511294 0.481954
0.555222 0.556590 0.507346
0.756247 0.544922 0.510617
0.949119 0.514967 0.504261
0.228964 0.577418 0.485469
0.268493 0.585131 0.488811
0.402964 0.615265 0.509019
0.596816 0.643819 0.519965
0.793339 0.694242 0.528389
0.997482 0.719438 0.497163
0.411997 0.687228 0.523378
0.469013 0.698982 0.523385
0.558369 0.719015 0.526968
0.668650 0.749701 0.526772
0.809295 0.824898 0.479312
0.991796 0.936560 0.334865
0.000000 0.082358 0.157746
0.004072 0.096689 0.177047
0.046045 0.138030 0.228945
0.325836 0.209071 0.304078
0.476305 0.201653 0.285575
0.589496 0.190008 0.308392
0.000000 0.143826 0.207333
0.005654 0.158471 0.224734
0.044718 0.204002 0.277823
0.354857 0.294471 0.373206
0.526320 0.267575 0.340793
0.654005 0.280433 0.371956
0.000443 0.278572 0.328396
0.013540 0.291302 0.343705
0.076845 0.336867 0.392871
0.400101 0.432578 0.479981
0.622595 0.436575 0.469053
0.747578 0.429407 0.477513
0.058566 0.476806 0.502212
0.109782 0.487719 0.516769
0.256090 0.530215 0.562533
0.500548 0.586971 0.596860
0.693411 0.596429 0.578410
0.842182 0.575977 0.579785
0.219021 0.663734 0.630982
0.270469 0.672653 0.641602
0.387140 0.703447 0.674485
0.595369 0.734124 0.696614
0.750546 0.729849 0.662688
0.950765 0.728993 0.670924
0.422580 0.822890 0.741186
0.463822 0.833734 0.748697
0.525471 0.851228 0.758646
0.631321 0.859465 0.747023
0.781903 0.870080 0.708392
0.972718 0.924596 0.671996
