luts/ONCE_UPON_A_TIME_IN_HOLLYWOOD-INDOOR.cube
LUT_3D_SIZE 16
0.001609 0.000536 0.000000
0.034822 0.012543 0.012082
0.067806 0.023820 0.023515
0.101867 0.034685 0.031318
0.139616 0.043408 0.035973
0.183863 0.049819 0.038208
0.236675 0.054470 0.039490
0.298834 0.058070 0.040311
0.372029 0.061772 0.041648
0.459505 0.066556 0.044215
0.561712 0.073146 0.048234
0.668121 0.080653 0.054028
0.765044 0.087808 0.061006
0.843435 0.093526 0.065621
0.905074 0.095226 0.059211
0.953853 0.087618 0.039741
0.009271 0.019728 0.001879
0.041310 0.033672 0.011672
0.076115 0.045525 0.022127
0.112999 0.055403 0.029916
0.152211 0.064176 0.034137
0.197622 0.071581 0.036439
0.250952 0.077911 0.037899
0.312909 0.084083 0.039120
0.386279 0.091306 0.040792
0.473356 0.100414 0.043455
0.574056 0.111867 0.047636
0.677208 0.123890 0.053168
0.770406 0.134900 0.059620
0.845016 0.142688 0.064161
0.903230 0.144989 0.059588
0.949553 0.138493 0.043923
0.024153 0.042063 0.003379
0.053336 0.054274 0.011858
0.084513 0.066919 0.020263
0.120543 0.078472 0.026173
0.162257 0.087527 0.030806
0.210310 0.095779 0.033924
0.264704 0.104218 0.035675
0.327223 0.113038 0.037154
0.400394 0.123474 0.039062
0.487136 0.136462 0.042106
0.585807 0.151829 0.046170
0.685435 0.167054 0.051367
0.774607 0.180200 0.057113
0.845744 0.189041 0.061396
0.901025 0.192146 0.059367
0.944661 0.188735 0.049334
0.048503 0.066527 0.006135
0.071804 0.075999 0.012868
0.097119 0.086232 0.019449
0.128181 0.098868 0.025131
0.169630 0.113735 0.027244
0.219624 0.125587 0.029953
0.276207 0.136128 0.032620
0.339505 0.147866 0.034471
0.412640 0.161433 0.036656
0.498740 0.178052 0.039596
0.595251 0.196678 0.043375
0.691701 0.214388 0.047847
0.777718 0.228586 0.052572
0.846142 0.237294 0.056177
0.898805 0.240484 0.056005
0.940352 0.238742 0.050977
0.077918 0.091667 0.009957
0.094668 0.098825 0.014595
0.114295 0.107721 0.018958
0.140626 0.119571 0.023268
0.177476 0.137054 0.026747
0.226558 0.157932 0.027164
0.283436 0.174275 0.028631
0.347784 0.188922 0.031207
0.421179 0.205300 0.033645
0.506392 0.225101 0.036175
0.600857 0.246386 0.039245
0.695002 0.265752 0.042635
0.779119 0.280200 0.045670
0.846117 0.288033 0.047489
0.897562 0.290186 0.046691
0.937691 0.288217 0.043181
0.108870 0.118626 0.013478
0.121298 0.124687 0.016157
0.137217 0.133284 0.018825
0.160290 0.146423 0.021509
0.192514 0.163185 0.025008
0.235088 0.185924 0.027590
0.288989 0.211905 0.027040
0.351957 0.233496 0.027531
0.424403 0.253776 0.029494
0.509206 0.276215 0.031902
0.603053 0.299841 0.033922
0.695949 0.320512 0.035383
0.779162 0.335058 0.036006
0.845656 0.341552 0.035153
0.896599 0.341655 0.032164
0.936179 0.337842 0.027625
0.142808 0.149378 0.016183
0.153207 0.155167 0.017707
0.167265 0.164192 0.019151
0.187800 0.178386 0.020902
0.215962 0.196750 0.023308
0.252272 0.216779 0.026863
0.297232 0.242435 0.029029
0.355277 0.273093 0.027394
0.425993 0.301326 0.026281
0.509123 0.328950 0.026295
0.601255 0.355854 0.026596
0.694561 0.378298 0.026453
0.778548 0.392733 0.025255
0.845153 0.397983 0.022447
0.896117 0.395863 0.018567
0.935676 0.389622 0.013881
0.182149 0.184822 0.020648
0.191740 0.190925 0.021187
0.204556 0.200508 0.021581
0.222411 0.215088 0.022415
0.246646 0.234086 0.023810
0.277485 0.254711 0.026133
0.315170 0.275232 0.029574
0.361512 0.303129 0.030185
0.426446 0.340200 0.026133
0.508626 0.377441 0.022077
0.601078 0.411528 0.019061
0.692919 0.437775 0.016812
0.776679 0.453915 0.014802
0.844362 0.458322 0.012809
0.896484 0.453770 0.010559
0.936078 0.445091 0.007488
0.227061 0.224977 0.029176
0.235591 0.231490 0.028452
0.246618 0.240998 0.027930
0.261896 0.255325 0.027524
0.282223 0.273936 0.027566
0.308500 0.294748 0.028388
0.340643 0.315345 0.029676
0.378572 0.335369 0.030295
0.428697 0.367399 0.026609
0.504142 0.413536 0.019326
0.597421 0.459494 0.013078
0.692758 0.495265 0.009173
0.777493 0.516069 0.007404
0.844797 0.521425 0.006524
0.896788 0.516247 0.006368
0.937049 0.504839 0.006235
0.274722 0.268776 0.042834
0.281644 0.275063 0.041623
0.290800 0.284161 0.039781
0.303532 0.297619 0.037936
0.320859 0.315450 0.036161
0.343311 0.335918 0.034501
0.370909 0.356891 0.032525
0.403970 0.376744 0.029183
0.443367 0.397739 0.023515
0.500931 0.436648 0.015296
0.587467 0.492179 0.008583
0.685870 0.542254 0.005133
0.776393 0.574101 0.004100
0.846936 0.584439 0.004287
0.898808 0.579610 0.004649
0.938964 0.567163 0.005456
0.322121 0.314236 0.060325
0.327707 0.320053 0.058832
0.335309 0.328499 0.056641
0.346264 0.341062 0.053776
0.361168 0.357652 0.050303
0.380470 0.377459 0.045905
0.404373 0.398518 0.039982
0.433333 0.419420 0.031403
0.467801 0.439785 0.020621
0.511115 0.464237 0.010527
0.577457 0.510969 0.004453
0.671204 0.572390 0.002913
0.767574 0.620675 0.002928
0.844807 0.642039 0.003314
0.900856 0.642110 0.003892
0.941538 0.630340 0.004576
0.367877 0.359368 0.079011
0.372820 0.364863 0.077404
0.379468 0.372686 0.075223
0.389190 0.384331 0.072100
0.402292 0.399931 0.067720
0.419135 0.418917 0.061561
0.440078 0.440070 0.052391
0.465451 0.462164 0.038238
0.496480 0.484502 0.021616
0.534089 0.507103 0.008578
0.582458 0.536293 0.002211
0.656086 0.589277 0.000606
0.750827 0.650912 0.001704
0.835378 0.689141 0.002636
0.897729 0.699482 0.003276
0.942569 0.692465 0.003833
0.411074 0.402729 0.098290
0.416117 0.408159 0.096556
0.422612 0.415734 0.094196
0.431728 0.426774 0.090721
0.443715 0.441475 0.085819
0.459534 0.460555 0.078488
0.480140 0.483923 0.067026
0.503619 0.508303 0.048921
0.529377 0.531117 0.026866
0.562233 0.555220 0.009870
0.603710 0.581153 0.002068
0.657028 0.614814 0.000364
0.733927 0.670101 0.000285
0.819930 0.723310 0.001117
0.888871 0.748863 0.002342
0.938813 0.750877 0.003025
0.452463 0.446121 0.119735
0.458569 0.451892 0.117378
0.465899 0.459440 0.114433
0.475403 0.470263 0.110321
0.487132 0.484581 0.104607
0.502526 0.503866 0.096206
0.522856 0.528938 0.082969
0.546632 0.557267 0.061935
0.573433 0.586512 0.035417
0.602691 0.613932 0.013454
0.634642 0.637427 0.003155
0.677683 0.664527 0.000446
0.733963 0.700958 0.000000
0.806051 0.750758 0.000106
0.876341 0.789677 0.000393
0.930718 0.803637 0.001152
0.493176 0.493157 0.144830
0.501449 0.499334 0.141521
0.510845 0.507297 0.137584
0.521761 0.518056 0.132490
0.534279 0.532332 0.125635
0.549844 0.551897 0.115908
0.570194 0.578385 0.101012
0.594053 0.609946 0.077535
0.620892 0.644403 0.046541
0.650306 0.679020 0.019223
0.682240 0.710796 0.004932
0.717120 0.737516 0.000617
0.755496 0.759441 0.000000
0.807206 0.790963 0.000000
0.866958 0.826843 0.000000
0.922003 0.849738 0.000000
0.540831 0.551943 0.173276
0.549298 0.555839 0.168867
0.558961 0.561548 0.163819
0.570550 0.570814 0.157527
0.584476 0.584849 0.149409
0.601307 0.605244 0.138226
0.621124 0.632220 0.121551
0.644088 0.665793 0.095646
0.669724 0.703607 0.060174
0.696938 0.742812 0.026793
0.725093 0.779235 0.007429
0.754857 0.810415 0.001064
0.787892 0.834818 0.000000
0.825051 0.852918 0.000000
0.870980 0.873757 0.000000
0.919380 0.892462 0.000000
0.000441 0.001469 0.002835
0.025988 0.012079 0.014648
0.055781 0.022979 0.027516
0.092165 0.032644 0.039274
0.133717 0.038897 0.045285
0.180632 0.042412 0.048824
0.233969 0.044339 0.051753
0.295606 0.045416 0.055112
0.368039 0.046715 0.059360
0.454822 0.049056 0.065371
0.557637 0.052920 0.073748
0.665999 0.058678 0.083705
0.765060 0.065741 0.094128
0.844947 0.070710 0.098540
0.907844 0.066087 0.083479
0.957494 0.051156 0.049202
0.004034 0.020200 0.010161
0.031884 0.031538 0.019071
0.067841 0.042373 0.031557
0.109785 0.050874 0.040821
0.152329 0.057821 0.045042
0.200004 0.062349 0.047419
0.254153 0.065599 0.049229
0.316130 0.068660 0.051051
0.389256 0.072601 0.053534
0.476124 0.078521 0.057021
0.576980 0.086537 0.062063
0.680550 0.096059 0.068608
0.774203 0.105767 0.075939
0.848934 0.113930 0.079927
0.908063 0.117617 0.071431
0.955358 0.110451 0.049505
0.012656 0.040350 0.014443
0.040397 0.051875 0.021354
0.073757 0.064290 0.030006
0.117533 0.075498 0.040111
0.164853 0.082876 0.045424
0.215309 0.089155 0.047603
0.271185 0.094809 0.049150
0.334580 0.100849 0.050877
0.408296 0.108675 0.053329
0.495685 0.119247 0.056864
0.594230 0.132292 0.061815
0.693407 0.146015 0.067962
0.781532 0.158302 0.074543
0.851727 0.166874 0.078120
0.907144 0.169306 0.071226
0.951352 0.163034 0.053405
0.030581 0.062651 0.015895
0.054606 0.072560 0.021042
0.083891 0.083494 0.027249
0.122390 0.097290 0.035408
0.170884 0.112203 0.042389
0.225268 0.122230 0.046457
0.283603 0.130992 0.048626
0.348337 0.140541 0.050406
0.423075 0.152075 0.052841
0.510330 0.166532 0.056238
0.606813 0.183117 0.060686
0.701952 0.199045 0.065964
0.785984 0.212168 0.071345
0.852675 0.220306 0.074427
0.904647 0.222241 0.070138
0.946360 0.217913 0.058334
0.056866 0.086695 0.015551
0.076353 0.094803 0.019273
0.100298 0.104628 0.023839
0.132627 0.117790 0.029246
0.175362 0.136083 0.036320
0.229196 0.157280 0.042430
0.289269 0.172457 0.046322
0.355773 0.185621 0.049257
0.430529 0.200704 0.051672
0.517220 0.218876 0.054589
0.611818 0.238284 0.058171
0.704994 0.255907 0.062148
0.786851 0.268970 0.065742
0.851656 0.275988 0.067397
0.901849 0.277196 0.064234
0.941397 0.273776 0.056688
0.089361 0.113526 0.015245
0.104367 0.120267 0.017804
0.123742 0.129563 0.020999
0.150884 0.143292 0.024615
0.187346 0.161184 0.029311
0.234043 0.185139 0.036133
0.291303 0.211821 0.042042
0.356625 0.232887 0.046138
0.431267 0.252117 0.049362
0.517678 0.273402 0.052197
0.611389 0.295624 0.054603
0.703308 0.314846 0.056571
0.785033 0.328056 0.057557
0.849475 0.333767 0.056656
0.899264 0.333481 0.052535
0.938167 0.329175 0.046078
0.125648 0.144232 0.017250
0.137982 0.150365 0.018765
0.154315 0.159344 0.020419
0.177619 0.173619 0.022603
0.208967 0.193065 0.025474
0.248468 0.214867 0.029990
0.296371 0.241977 0.036734
0.357137 0.273468 0.042352
0.429928 0.301485 0.045614
0.514331 0.328253 0.047621
0.607360 0.354003 0.048985
0.700245 0.375136 0.049353
0.782682 0.388481 0.048039
0.847630 0.392950 0.044830
0.897568 0.390575 0.040048
0.936517 0.384243 0.034392
0.166212 0.179169 0.022664
0.177117 0.185137 0.022860
0.191504 0.194189 0.023428
0.211957 0.208794 0.024034
0.238941 0.228849 0.025425
0.272110 0.251328 0.027953
0.311898 0.273704 0.031906
0.360782 0.303056 0.037489
0.427742 0.340686 0.041025
0.511549 0.377859 0.042174
0.604620 0.411066 0.041762
0.696557 0.436366 0.040464
0.779531 0.451279 0.038516
0.846282 0.454731 0.035973
0.897287 0.449966 0.032674
0.936325 0.441292 0.028665
0.211621 0.218289 0.033164
0.221169 0.224244 0.032327
0.233847 0.233254 0.031206
0.251857 0.247997 0.030043
0.274587 0.267611 0.029461
0.302684 0.290242 0.029905
0.336294 0.312793 0.031258
0.375984 0.334495 0.032255
0.428116 0.367485 0.033989
0.505421 0.414245 0.034432
0.599670 0.460018 0.033627
0.695271 0.495083 0.032334
0.779484 0.514646 0.031022
0.846099 0.519183 0.029804
0.897447 0.513435 0.029036
0.937213 0.501756 0.028516
0.259692 0.260370 0.048178
0.268187 0.266586 0.046416
0.279438 0.275861 0.044288
0.294620 0.289822 0.041707
0.313750 0.308497 0.039044
0.337507 0.330553 0.036660
0.366233 0.353405 0.034404
0.400416 0.375105 0.031182
0.441295 0.397161 0.025957
0.500256 0.436745 0.022717
0.588418 0.492855 0.023191
0.687602 0.542715 0.024759
0.777967 0.573727 0.026316
0.847774 0.583090 0.027362
0.899277 0.577706 0.028164
0.939038 0.564947 0.028932
0.309246 0.305279 0.065401
0.316450 0.311425 0.063569
0.325731 0.320140 0.061143
0.338485 0.333181 0.057823
0.354739 0.350633 0.053759
0.375076 0.371749 0.048989
0.399785 0.394434 0.042916
0.429396 0.416930 0.034310
0.464999 0.438707 0.022975
0.509314 0.463898 0.013174
0.576820 0.511151 0.011387
0.671818 0.572927 0.016437
0.768582 0.620893 0.021760
0.845609 0.641582 0.025449
0.901079 0.641026 0.027843
0.941681 0.628847 0.029164
0.357303 0.350669 0.083198
0.363593 0.356644 0.081579
0.371401 0.364731 0.079299
0.382458 0.376873 0.076010
0.396675 0.393068 0.071547
0.414286 0.413117 0.065446
0.435804 0.435528 0.056458
0.461849 0.459146 0.042871
0.493384 0.482700 0.025832
0.531746 0.506345 0.011328
0.580847 0.536018 0.004439
0.655455 0.589412 0.007128
0.751213 0.651364 0.015118
0.836116 0.689244 0.021630
0.898263 0.699040 0.025985
0.942660 0.691812 0.028613
0.402381 0.395291 0.102194
0.408396 0.401065 0.100461
0.415993 0.408823 0.098154
0.426086 0.420039 0.094815
0.438904 0.435325 0.090090
0.454817 0.454427 0.083222
0.475828 0.478606 0.072562
0.500325 0.504589 0.055714
0.526993 0.529061 0.033719
0.560000 0.554032 0.014434
0.601884 0.580662 0.003951
0.655861 0.614782 0.001834
0.733763 0.670512 0.006657
0.820426 0.723905 0.014335
0.889331 0.749024 0.021421
0.939089 0.750734 0.025851
0.444582 0.440145 0.123933
0.451546 0.446015 0.121647
0.459817 0.453790 0.118833
0.470285 0.464663 0.114985
0.483057 0.479310 0.109685
0.498317 0.498094 0.101929
0.519088 0.523490 0.089968
0.543587 0.552896 0.070885
0.571098 0.583480 0.044840
0.601111 0.612426 0.020206
0.633822 0.637401 0.006003
0.676782 0.664701 0.001059
0.733330 0.701384 0.001733
0.806102 0.751393 0.006814
0.877043 0.790445 0.013834
0.931511 0.804189 0.020066
0.487273 0.490516 0.149627
0.494839 0.495267 0.146406
0.504913 0.503038 0.142806
0.517022 0.513873 0.138037
0.530693 0.528202 0.131760
0.546464 0.547079 0.122871
0.567180 0.573371 0.109545
0.591545 0.605259 0.088415
0.619174 0.640872 0.058669
0.649304 0.676881 0.028492
0.681760 0.710244 0.009263
0.716914 0.737955 0.001845
0.755535 0.760681 0.000287
0.807483 0.792255 0.001806
0.868290 0.828997 0.006863
0.924029 0.852027 0.012985
0.535468 0.551716 0.178741
0.544610 0.555492 0.174488
0.554797 0.560663 0.169783
0.567134 0.569345 0.163955
0.581543 0.582356 0.156505
0.598790 0.601742 0.146357
0.619030 0.627984 0.131398
0.642453 0.661232 0.108116
0.668790 0.700019 0.074482
0.696594 0.740381 0.038297
0.725288 0.778392 0.013220
0.755139 0.810534 0.002728
0.788192 0.835797 0.000417
0.825967 0.854959 0.000224
0.873870 0.877551 0.002134
0.923993 0.897779 0.006815
0.000000 0.004144 0.007045
0.018724 0.011560 0.018332
0.045344 0.020839 0.030557
0.081382 0.030151 0.043658
0.123378 0.037260 0.054215
0.169944 0.041288 0.061719
0.222629 0.043258 0.068403
0.282787 0.044558 0.075503
0.352700 0.046385 0.084313
0.435994 0.049368 0.095274
0.535976 0.054116 0.109596
0.646151 0.059977 0.125039
0.750820 0.066846 0.139482
0.837588 0.070398 0.145313
0.905885 0.061849 0.129485
0.957536 0.041555 0.096667
0.001267 0.021975 0.019418
0.022549 0.030637 0.027892
0.052850 0.040294 0.038742
0.095984 0.048541 0.051581
0.143572 0.053835 0.059708
0.193987 0.056004 0.063600
0.248835 0.056775 0.067335
0.309979 0.057844 0.072258
0.381131 0.059784 0.078658
0.466381 0.062975 0.086613
0.566996 0.067703 0.096461
0.672848 0.073993 0.107351
0.769799 0.081452 0.116907
0.848420 0.086092 0.118301
0.909992 0.080992 0.098425
0.958636 0.067344 0.062130
0.004991 0.041166 0.028121
0.027322 0.050424 0.034554
0.058514 0.060827 0.042280
0.107013 0.070951 0.055936
0.160933 0.076857 0.063219
0.215187 0.080783 0.065255
0.273145 0.082645 0.066461
0.337090 0.084616 0.068101
0.410975 0.087860 0.070677
0.497957 0.093455 0.074463
0.596350 0.101460 0.079711
0.695647 0.111275 0.086373
0.784254 0.121775 0.093413
0.855227 0.131255 0.096243
0.911812 0.135589 0.085375
0.957594 0.127898 0.060548
0.015913 0.060566 0.030282
0.036905 0.069524 0.034371
0.066823 0.080609 0.040808
0.110170 0.094520 0.050941
0.167999 0.108654 0.063502
0.227525 0.116912 0.068020
0.288507 0.123314 0.069383
0.355056 0.129667 0.070546
0.430838 0.137710 0.072507
0.519070 0.148744 0.075715
0.615587 0.161838 0.080313
0.709976 0.175115 0.085996
0.792645 0.186652 0.091756
0.858592 0.194253 0.093756
0.911015 0.195461 0.084613
0.953412 0.187282 0.064289
0.036678 0.082872 0.027787
0.055455 0.091056 0.030917
0.081872 0.101735 0.035874
0.118925 0.115408 0.042440
0.169450 0.134629 0.053126
0.230444 0.155891 0.064655
0.294765 0.169133 0.069965
0.363390 0.180277 0.072235
0.439725 0.193010 0.073955
0.527808 0.208562 0.076417
0.622735 0.225098 0.079856
0.714945 0.240206 0.084008
0.794862 0.251437 0.087807
0.857987 0.257383 0.088582
0.907604 0.257247 0.081646
0.947261 0.250938 0.067409
0.067447 0.109271 0.024854
0.083387 0.116343 0.026954
0.105725 0.126378 0.030304
0.137122 0.140498 0.035086
0.179288 0.159495 0.041154
0.232003 0.184588 0.052020
0.293893 0.211896 0.064033
0.362296 0.231694 0.070383
0.439297 0.249002 0.073659
0.527034 0.268418 0.076004
0.620737 0.288431 0.078078
0.711949 0.305372 0.080049
0.791713 0.316794 0.081168
0.854454 0.321412 0.079766
0.903218 0.320301 0.073554
0.941526 0.314602 0.063347
0.104737 0.139619 0.024518
0.118453 0.146061 0.025783
0.137504 0.155520 0.027625
0.164341 0.169785 0.030435
0.199812 0.189806 0.034252
0.243649 0.213277 0.039972
0.295652 0.241922 0.051027
0.359599 0.274287 0.063247
0.434699 0.301500 0.069677
0.520945 0.326747 0.072725
0.614864 0.350590 0.074279
0.707073 0.369701 0.074602
0.787625 0.381545 0.072846
0.851003 0.385193 0.069001
0.899885 0.382403 0.062825
0.938050 0.375636 0.055151
0.146319 0.173958 0.029801
0.158506 0.180018 0.029781
0.175489 0.189166 0.030129
0.198911 0.203378 0.030728
0.229209 0.223658 0.032220
0.265783 0.248014 0.035291
0.308459 0.272381 0.039958
0.360151 0.303244 0.050012
0.430124 0.341988 0.060944
0.515690 0.378554 0.066159
0.609497 0.410235 0.067488
0.701387 0.433785 0.066516
0.783690 0.447229 0.064063
0.849135 0.449422 0.060557
0.898733 0.444457 0.055761
0.937027 0.435574 0.050270
0.192015 0.211958 0.040757
0.203022 0.217755 0.039745
0.218153 0.226592 0.038343
0.238689 0.240482 0.036867
0.264690 0.260673 0.035741
0.295444 0.284985 0.035833
0.331268 0.309857 0.037171
0.373151 0.333546 0.039067
0.427539 0.367849 0.045538
0.507292 0.415510 0.053415
0.603169 0.460972 0.057228
0.698777 0.494448 0.057912
0.782276 0.512594 0.056565
0.847905 0.515763 0.054379
0.898556 0.509239 0.052600
0.937838 0.497265 0.051055
0.240947 0.252877 0.055701
0.250609 0.258482 0.053933
0.263736 0.267020 0.051607
0.281606 0.280632 0.048498
0.304073 0.300232 0.045109
0.330068 0.323857 0.042275
0.360482 0.348942 0.039700
0.396062 0.372930 0.036564
0.438717 0.396506 0.032211
0.499781 0.437195 0.033630
0.590117 0.494119 0.040925
0.690290 0.543574 0.046762
0.780391 0.573229 0.050209
0.849343 0.581176 0.051560
0.900099 0.574930 0.052140
0.939272 0.561786 0.052637
0.291033 0.295557 0.071826
0.299204 0.301069 0.070044
0.310563 0.309542 0.067515
0.326358 0.323156 0.064101
0.345585 0.341650 0.059736
0.367884 0.364097 0.054695
0.393944 0.388959 0.048581
0.424702 0.413525 0.040027
0.461331 0.437094 0.028632
0.506935 0.463269 0.018643
0.576332 0.511559 0.020514
0.673104 0.574065 0.031739
0.770561 0.621475 0.041890
0.847038 0.640924 0.048411
0.902007 0.639540 0.052275
0.941922 0.626845 0.054144
0.340396 0.339570 0.088552
0.348124 0.345689 0.086933
0.358322 0.354251 0.084698
0.371618 0.366754 0.081425
0.388095 0.383970 0.076985
0.407456 0.405084 0.070998
0.430191 0.429263 0.062540
0.457031 0.454704 0.049683
0.489511 0.480203 0.032534
0.528732 0.505283 0.016347
0.578912 0.535694 0.008229
0.655090 0.589831 0.014546
0.752285 0.652196 0.029026
0.837448 0.689619 0.041149
0.899180 0.698590 0.049066
0.943022 0.690867 0.053776
0.388090 0.385379 0.107070
0.395453 0.391261 0.105363
0.404624 0.399191 0.103158
0.416569 0.410892 0.099965
0.431373 0.426783 0.095522
0.448754 0.446815 0.089076
0.469898 0.471235 0.079390
0.495558 0.499166 0.063998
0.523679 0.526048 0.042395
0.557132 0.552300 0.020932
0.599544 0.580058 0.007274
0.654319 0.614650 0.004274
0.733367 0.670967 0.013417
0.821126 0.724673 0.028182
0.890254 0.749471 0.040906
0.939669 0.750640 0.049390
0.432367 0.432030 0.128943
0.440439 0.438045 0.126759
0.450093 0.445969 0.124151
0.462111 0.457078 0.120608
0.476452 0.472029 0.115666
0.493125 0.491228 0.108599
0.513709 0.516145 0.097960
0.539142 0.546691 0.080900
0.567775 0.579187 0.056017
0.598909 0.610278 0.029286
0.632381 0.636877 0.010636
0.675222 0.664676 0.002446
0.732385 0.701610 0.003411
0.806159 0.752227 0.013624
0.877765 0.791551 0.027448
0.932412 0.805168 0.039450
0.478928 0.487224 0.154986
0.487021 0.491553 0.152072
0.496620 0.497765 0.148717
0.509434 0.508010 0.144407
0.524876 0.522576 0.138690
0.541800 0.541142 0.130661
0.562790 0.566736 0.118925
0.587836 0.598942 0.100178
0.616347 0.635852 0.072229
0.647434 0.673708 0.040249
0.680791 0.708893 0.015583
0.716463 0.738284 0.003927
0.755583 0.761921 0.000585
0.807717 0.793588 0.003610
0.869723 0.831155 0.013733
0.926225 0.854588 0.026438
0.528462 0.551268 0.184725
0.538193 0.554961 0.180882
0.549164 0.559856 0.176552
0.562042 0.567613 0.171212
0.577255 0.579640 0.164449
0.595097 0.597665 0.155282
0.615873 0.622820 0.142068
0.639881 0.655589 0.121635
0.666951 0.694709 0.090397
0.695743 0.736663 0.052768
0.725227 0.776496 0.021679
0.755439 0.810558 0.005657
0.788399 0.836741 0.000700
0.826678 0.856950 0.000282
0.876677 0.881746 0.003990
0.928902 0.903920 0.013640
0.000000 0.008256 0.013907
0.011200 0.012993 0.025001
0.033062 0.019998 0.037756
0.066621 0.029195 0.050393
0.109205 0.036753 0.061962
0.156794 0.040554 0.072084
0.209164 0.042039 0.081255
0.268177 0.042722 0.090897
0.335979 0.043713 0.102300
0.416702 0.046063 0.116316
0.514255 0.050345 0.134074
0.624074 0.056860 0.154744
0.731160 0.065187 0.175115
0.821708 0.072309 0.188661
0.892791 0.070137 0.184832
0.947896 0.054818 0.161501
0.000300 0.025046 0.028897
0.013047 0.030664 0.037467
0.037060 0.038583 0.047914
0.075072 0.047275 0.059204
0.123955 0.053526 0.071496
0.177058 0.055757 0.080468
0.232636 0.055982 0.087550
0.292900 0.056279 0.095334
0.361787 0.057914 0.105208
0.443479 0.061306 0.117917
0.540943 0.066682 0.133866
0.646877 0.074063 0.151660
0.748054 0.082589 0.167872
0.833876 0.087845 0.175095
0.902480 0.080876 0.161230
0.955034 0.060509 0.129030
0.001548 0.043800 0.042811
0.015795 0.050107 0.049015
0.041209 0.058163 0.056457
0.082616 0.067323 0.066745
0.139662 0.074046 0.080520
0.199445 0.076741 0.088708
0.259512 0.076729 0.093178
0.323001 0.076603 0.098382
0.394802 0.078010 0.105453
0.479115 0.081237 0.114861
0.576848 0.086358 0.126410
0.678443 0.093034 0.138281
0.772507 0.100187 0.147667
0.850079 0.103526 0.147213
0.911812 0.095330 0.125806
0.959711 0.075696 0.088575
0.006322 0.062693 0.049393
0.021162 0.069280 0.053521
0.046458 0.078328 0.059729
0.088070 0.089821 0.068434
0.152564 0.101666 0.085498
0.220764 0.107767 0.093428
0.285823 0.110975 0.095043
0.354296 0.112329 0.095810
0.430678 0.114552 0.097334
0.519056 0.118863 0.100009
0.615682 0.125399 0.104222
0.710731 0.133802 0.109764
0.794434 0.142906 0.115289
0.861518 0.150707 0.115910
0.915526 0.152138 0.102636
0.959690 0.141433 0.076321
0.019531 0.081820 0.048232
0.033742 0.088482 0.050794
0.057284 0.098409 0.055417
0.096900 0.112547 0.063660
0.153870 0.131207 0.077279
0.226835 0.150766 0.094975
0.297094 0.161410 0.100671
0.367935 0.169751 0.101709
0.445997 0.178776 0.102384
0.535177 0.190006 0.103799
0.630350 0.202209 0.106416
0.721839 0.213840 0.110052
0.800911 0.222921 0.113379
0.863549 0.227641 0.112527
0.913676 0.225506 0.100688
0.954333 0.214964 0.079089
0.043348 0.106205 0.044644
0.057436 0.112822 0.046351
0.079830 0.122990 0.049927
0.115345 0.138276 0.056204
0.163350 0.157358 0.064642
0.225639 0.183229 0.079291
0.295659 0.210357 0.096392
0.368510 0.227641 0.103488
0.447914 0.242247 0.105752
0.536285 0.258788 0.106461
0.629821 0.275421 0.107304
0.720254 0.289312 0.108505
0.798571 0.298450 0.108939
0.860122 0.301651 0.106243
0.908103 0.298969 0.096556
0.946540 0.290923 0.080980
0.077960 0.135997 0.043251
0.091594 0.142348 0.044055
0.112438 0.152204 0.046080
0.144042 0.167449 0.049818
0.184787 0.187306 0.055621
0.235730 0.212348 0.063297
0.294329 0.242099 0.077803
0.363258 0.275084 0.095183
0.441032 0.300509 0.103111
0.529281 0.323047 0.105473
0.623886 0.343798 0.105941
0.714864 0.360253 0.105039
0.793481 0.370262 0.102214
0.855394 0.372718 0.097084
0.903144 0.369192 0.088441
0.940574 0.361749 0.077609
0.119306 0.169646 0.046576
0.132436 0.175737 0.046377
0.152154 0.185329 0.046915
0.180555 0.200155 0.048154
0.215490 0.220072 0.050773
0.257188 0.245370 0.055184
0.304682 0.271894 0.061307
0.360410 0.304252 0.074928
