luts/ONCE_UPON_A_TIME_IN_HOLLYWOOD-INDOOR.cube
LUT_3D_SIZE 6
0.001609 0.000536 0.000000
0.101867 0.034685 0.031318
0.236675 0.054470 0.039490
0.459505 0.066556 0.044215
0.765044 0.087808 0.061006
0.953853 0.087618 0.039741
0.048503 0.066527 0.006135
0.128181 0.098868 0.025131
0.276207 0.136128 0.032620
0.498740 0.178052 0.039596
0.777718 0.228586 0.052572
0.940352 0.238742 0.050977
0.142808 0.149378 0.016183
0.187800 0.178386 0.020902
0.297232 0.242435 0.029029
0.509123 0.328950 0.026295
0.778548 0.392733 0.025255
0.935676 0.389622 0.013881
0.274722 0.268776 0.042834
0.303532 0.297619 0.037936
0.370909 0.356891 0.032525
0.500931 0.436648 0.015296
0.776393 0.574101 0.004100
0.938964 0.567163 0.005456
0.411074 0.402729 0.098290
0.431728 0.426774 0.090721
0.480140 0.483923 0.067026
0.562233 0.555220 0.009870
0.733927 0.670101 0.000285
0.938813 0.750877 0.003025
0.540831 0.551943 0.173276
0.570550 0.570814 0.157527
0.621124 0.632220 0.121551
0.696938 0.742812 0.026793
0.787892 0.834818 0.000000
0.919380 0.892462 0.000000
0.000000 0.008256 0.013907
0.066621 0.029195 0.050393
0.209164 0.042039 0.081255
0.416702 0.046063 0.116316
0.731160 0.065187 0.175115
0.947896 0.054818 0.161501
0.006322 0.062693 0.049393
0.088070 0.089821 0.068434
0.285823 0.110975 0.095043
0.519056 0.118863 0.100009
0.794434 0.142906 0.115289
0.959690 0.141433 0.076321
0.077960 0.135997 0.043251
0.144042 0.167449 0.049818
0.294329 0.242099 0.077803
0.529281 0.323047 0.105473
0.793481 0.370262 0.102214
0.940574 0.361749 0.077609
0.214277 0.245871 0.068129
0.264852 0.273488 0.062398
0.353953 0.344118 0.055422
0.500132 0.438661 0.054932
0.784188 0.572376 0.078898
0.939884 0.557315 0.077116
0.367678 0.375776 0.114524
0.400784 0.398868 0.107976
0.462069 0.461614 0.090012
0.553527 0.549761 0.033728
0.733384 0.671912 0.021882
0.940757 0.750325 0.073722
0.517864 0.550243 0.192027
0.554035 0.565630 0.180030
0.610869 0.616416 0.154309
0.693751 0.730991 0.071047
0.788286 0.837461 0.002335
0.933474 0.910210 0.020813
0.000000 0.026596 0.048787
0.026380 0.036633 0.078161
0.146278 0.059034 0.108845
0.315623 0.054264 0.154407
0.608746 0.057147 0.243066
0.891201 0.082263 0.316827
0.000000 0.072884 0.092638
0.025674 0.083138 0.111018
0.191189 0.107342 0.151983
0.410561 0.101369 0.196429
0.706245 0.110185 0.266107
0.933502 0.111356 0.282347
0.008077 0.148263 0.137701
0.048270 0.170981 0.155021
0.243129 0.238723 0.207509
0.550267 0.259807 0.243284
0.798512 0.266737 0.227283
0.942952 0.265716 0.198708
0.095165 0.244966 0.165876
0.159381 0.276452 0.166754
0.319354 0.347889 0.190495
0.518292 0.451789 0.213345
0.800892 0.553358 0.227988
0.945201 0.526348 0.181546
0.273272 0.380991 0.188291
0.331289 0.401251 0.184950
0.435358 0.453003 0.186229
0.557090 0.551533 0.169632
0.750916 0.687260 0.123023
0.951313 0.748552 0.163764
0.452446 0.562040 0.243754
0.508955 0.577924 0.235541
0.588214 0.615444 0.222169
0.687016 0.712228 0.175637
0.796818 0.844215 0.061719
0.944826 0.928903 0.053634
0.000000 0.046579 0.087419
0.010196 0.053206 0.106833
0.100844 0.072514 0.143523
0.231259 0.086958 0.162686
0.415275 0.081538 0.237847
0.749482 0.082318 0.376039
0.000000 0.085376 0.126821
0.009662 0.092521 0.140883
0.101855 0.122394 0.192195
0.294042 0.129166 0.218497
0.492053 0.115607 0.280212
0.822516 0.142329 0.409723
0.000755 0.184420 0.217736
0.023207 0.198977 0.236582
0.144991 0.257774 0.303446
0.427046 0.290026 0.355532
0.692929 0.256743 0.404875
0.893634 0.258790 0.432110
0.048822 0.322396 0.317050
0.081053 0.339372 0.331617
0.228692 0.411522 0.393410
0.496084 0.478041 0.426489
0.803886 0.482016 0.449021
0.949119 0.439405 0.385585
0.184616 0.457287 0.385797
0.220449 0.472849 0.385429
0.341498 0.525237 0.389677
0.549829 0.594674 0.400203
0.780609 0.704914 0.391044
0.969115 0.725857 0.350791
0.330104 0.645670 0.425277
0.392868 0.665642 0.398738
0.525705 0.699207 0.401178
0.670332 0.755892 0.399786
0.812809 0.862517 0.329343
0.962520 0.952645 0.146242
0.000000 0.066533 0.131511
0.006831 0.074769 0.146875
0.054899 0.099306 0.189911
0.225748 0.126020 0.230701
0.345815 0.123837 0.240936
0.548106 0.120477 0.347872
0.000000 0.107952 0.171949
0.008733 0.117242 0.185595
0.050015 0.150371 0.233180
0.267733 0.194685 0.307593
0.405510 0.163619 0.292914
0.644018 0.185742 0.417187
0.000735 0.214804 0.280431
0.017551 0.225988 0.294940
0.075430 0.272055 0.349682
0.318557 0.343874 0.451757
0.570548 0.323768 0.451587
0.779760 0.321441 0.523609
0.047091 0.415791 0.464926
0.079264 0.432876 0.486571
0.192637 0.500610 0.565516
0.420769 0.556108 0.617664
0.688233 0.549429 0.594878
0.882727 0.508269 0.610058
0.161529 0.632665 0.627947
0.191265 0.644897 0.639198
0.282999 0.689106 0.678580
0.510215 0.731014 0.700899
0.750968 0.744642 0.674360
0.956458 0.747021 0.694238
0.322439 0.812274 0.737128
0.375922 0.822751 0.735165
0.469405 0.837926 0.731038
0.605154 0.854681 0.714723
0.769066 0.889682 0.675970
0.956444 0.958075 0.530487
0.000000 0.098621 0.190693
0.008263 0.110563 0.207165
0.032770 0.140282 0.246001
0.217373 0.206022 0.355738
0.427005 0.231859 0.377466
0.507911 0.199853 0.358498
0.000000 0.145330 0.236174
0.010053 0.157362 0.251774
0.035487 0.190974 0.293812
0.220691 0.266836 0.410174
0.471399 0.297111 0.443208
0.590481 0.276496 0.434982
0.002992 0.260162 0.358189
0.019625 0.274111 0.376115
0.059203 0.316148 0.427465
0.254716 0.402539 0.542497
0.544452 0.436011 0.572829
0.692669 0.409492 0.546786
0.069722 0.504597 0.617319
0.101995 0.517462 0.635486
0.173109 0.555683 0.684752
0.364013 0.607211 0.738322
0.626393 0.634072 0.725753
0.792000 0.605991 0.685195
0.171528 0.753697 0.824962
0.214004 0.761148 0.836935
0.299776 0.783150 0.867897
0.514783 0.811698 0.891192
0.728330 0.826187 0.868366
0.871982 0.808631 0.824739
0.314387 0.931591 0.934309
0.339712 0.940798 0.942769
0.381048 0.955349 0.955046
0.553094 0.962036 0.956042
0.790963 0.958249 0.944380
0.921309 0.952022 0.919195
