luts/SEVEN.cube
LUT_3D_SIZE 6
-0.088550 -0.077639 -0.063150
0.070125 -0.088461 -0.094106
0.236880 -0.065435 -0.075927
0.475679 0.004932 0.000000
0.767259 0.002432 0.003478
1.000000 0.002040 0.009613
-0.066380 0.098237 -0.094605
0.083239 0.101239 -0.086146
0.253363 0.116281 -0.005353
0.490486 0.126218 0.000000
0.779953 0.094025 0.002849
1.000000 0.047074 0.005500
0.035791 0.304891 0.000000
0.102755 0.306685 0.000000
0.289611 0.313588 0.000451
0.532253 0.328684 0.002135
0.824050 0.341966 0.004092
1.000000 0.348957 0.005593
0.046585 0.571325 0.003846
0.091953 0.572616 0.004091
0.316851 0.577969 0.004270
0.576564 0.587183 0.004625
0.879796 0.603132 0.004858
1.000000 0.615950 0.005069
0.036235 0.891149 0.004788
0.063378 0.892151 0.004977
0.301698 0.895742 0.004929
0.607090 0.901823 0.004738
0.918288 0.908836 0.004530
1.000000 0.918513 0.004477
0.023195 1.010755 0.004457
0.042591 1.011578 0.004603
0.203858 1.012986 0.004760
0.599221 1.013380 0.004625
0.928043 1.011878 0.004664
1.000000 1.004811 0.005095
-0.086638 -0.075040 0.081236
0.075527 -0.093588 0.087724
0.238827 -0.060755 0.106412
0.477417 0.000000 0.120512
0.768734 0.002451 0.083721
1.000000 0.002054 0.075415
-0.063511 0.099362 0.095261
0.079773 0.102101 0.097511
0.254607 0.109607 0.104029
0.491746 0.115471 0.110162
0.781177 0.082554 0.075367
1.000000 0.036571 0.040139
0.025069 0.305495 0.116319
0.092332 0.307318 0.111060
0.289149 0.313946 0.068044
0.532932 0.327336 0.073761
0.824821 0.340566 0.048945
1.000000 0.347805 0.035009
0.036713 0.571745 0.043384
0.084599 0.573003 0.038333
0.316019 0.578471 0.028539
0.576913 0.587626 0.028752
0.880462 0.603239 0.026521
1.000000 0.615898 0.021204
0.027687 0.891593 0.023011
0.057745 0.892436 0.020777
0.300777 0.895900 0.019228
0.607020 0.902008 0.017684
0.918438 0.909029 0.016260
1.000000 0.918504 0.016418
0.017310 1.011050 0.018682
0.036749 1.011868 0.014992
0.202631 1.013297 0.014888
0.598989 1.013664 0.014107
0.928063 1.012112 0.013668
1.000000 1.004978 0.013689
-0.077778 -0.091463 0.228492
0.085670 -0.086197 0.236508
0.247950 -0.007659 0.256340
0.484091 0.000132 0.284106
0.774610 0.002357 0.306116
1.000000 0.001850 0.321673
-0.048231 0.111084 0.249413
0.082254 0.107404 0.253745
0.260269 0.111216 0.266890
0.497345 0.114766 0.286674
0.786495 0.083086 0.305955
1.000000 0.033411 0.321831
0.026605 0.308089 0.285748
0.092411 0.309760 0.286757
0.289563 0.315922 0.291328
0.535937 0.325157 0.299239
0.828388 0.334043 0.307223
1.000000 0.338514 0.312002
0.036528 0.573723 0.314918
0.077687 0.574918 0.314044
0.308692 0.580241 0.309426
0.577395 0.588964 0.310310
0.882405 0.601627 0.309392
1.000000 0.612278 0.294810
0.027360 0.892805 0.311464
0.050348 0.893519 0.309976
0.287356 0.897167 0.276717
0.603576 0.903003 0.264855
0.918839 0.909733 0.267732
1.000000 0.917571 0.243999
0.017251 1.011532 0.176390
0.032623 1.012282 0.175219
0.189630 1.013793 0.151573
0.595827 1.014097 0.150688
0.927119 1.012275 0.150322
1.000000 1.004803 0.100709
-0.053142 -0.070871 0.415873
0.093720 -0.058262 0.424455
0.264722 0.000000 0.450406
0.495120 0.000525 0.482123
0.784912 0.002119 0.518799
1.000000 0.001506 0.549011
0.005294 0.118773 0.441066
0.086189 0.113056 0.446786
0.271134 0.113890 0.465971
0.506459 0.111828 0.491734
0.795851 0.084871 0.523400
1.000000 0.028367 0.552357
0.029340 0.317463 0.494141
0.091512 0.317717 0.496439
0.293166 0.319927 0.506119
0.541537 0.327040 0.521111
0.834996 0.334271 0.540694
1.000000 0.337074 0.559882
0.036169 0.577283 0.542596
0.073101 0.578386 0.543625
0.309135 0.583314 0.547154
0.579750 0.591591 0.554353
0.886167 0.601760 0.563735
1.000000 0.610286 0.571834
0.026616 0.895207 0.578801
0.048425 0.895932 0.579072
0.283031 0.899289 0.576455
0.600673 0.904652 0.574268
0.919636 0.910896 0.575201
1.000000 0.917024 0.574170
0.016800 1.011975 0.581061
0.031782 1.012704 0.580940
0.184657 1.014018 0.576983
0.587884 1.013837 0.567245
0.924395 1.011360 0.562088
1.000000 1.002840 0.553603
0.021720 0.000000 0.646943
0.101239 0.000000 0.655732
0.280666 0.000000 0.685047
0.514614 0.001383 0.724038
0.799195 0.002009 0.766470
1.000000 0.001171 0.811423
0.017996 0.124944 0.673442
0.090991 0.118639 0.679874
0.282976 0.115748 0.703136
0.523018 0.085565 0.736805
0.808814 0.072222 0.775002
1.000000 0.027000 0.817012
0.033143 0.326540 0.740313
0.091420 0.325991 0.743630
0.297857 0.325004 0.756818
0.550716 0.330150 0.778809
0.844893 0.335622 0.806525
1.000000 0.336311 0.838126
0.035673 0.586232 0.809681
0.065648 0.586856 0.810941
0.309524 0.589573 0.818902
0.583883 0.595623 0.832492
0.891651 0.603922 0.848921
1.000000 0.610660 0.865753
0.025704 0.898547 0.866567
0.046295 0.899316 0.867316
0.278701 0.902198 0.869573
0.600858 0.906869 0.873516
0.920926 0.912494 0.879276
1.000000 0.917182 0.883862
0.016257 1.012286 0.890449
0.030638 1.012968 0.891027
0.180318 1.014146 0.889951
0.585515 1.013408 0.886334
0.923295 1.009856 0.883611
1.000000 1.000000 0.878068
0.034824 0.000551 0.921905
0.107811 0.000826 0.930277
0.294997 0.001514 0.959760
0.533711 0.002331 0.968297
0.819766 0.001877 0.968297
1.000000 0.000521 0.968297
0.027690 0.128411 0.947382
0.095178 0.121163 0.953989
0.295496 0.100785 0.968297
0.539492 0.083382 0.968297
0.827756 0.046623 0.968297
1.000000 0.028086 0.968297
0.036127 0.334776 0.968297
0.093024 0.333753 0.968297
0.303052 0.330544 0.968297
0.560946 0.333582 0.968297
0.858182 0.336752 0.968297
1.000000 0.334454 0.968297
0.034711 0.595548 0.968297
0.067842 0.595991 0.968297
0.309461 0.596578 0.968297
0.588615 0.600560 0.968297
0.898220 0.606683 0.968297
1.000000 0.611804 0.968297
0.024571 0.904826 0.968297
0.043815 0.905503 0.968297
0.273868 0.907158 0.968297
0.600998 0.910080 0.968297
0.922607 0.914349 0.968297
1.000000 0.917951 0.968297
0.015597 1.012387 0.968297
0.029357 1.013013 0.968297
0.174865 1.013814 0.968297
0.582462 1.012140 0.968297
0.921619 1.007158 0.968297
1.000000 1.000000 0.968297
