luts/SEVEN.cube
LUT_3D_SIZE 16
-0.088550 -0.077639 -0.063150
-0.068116 -0.077247 -0.062763
0.029713 -0.074923 -0.060682
0.070125 -0.088461 -0.094106
0.116249 -0.090631 -0.103635
0.171698 -0.082422 -0.094320
0.236880 -0.065435 -0.075927
0.310097 -0.002464 -0.011119
0.389571 0.003465 0.000000
0.475679 0.004932 0.000000
0.567249 0.005144 0.000000
0.664533 0.003856 0.000572
0.767259 0.002432 0.003478
0.875472 0.002375 0.005869
0.968210 0.002329 0.007759
1.000000 0.002040 0.009613
-0.087209 -0.056025 -0.061831
-0.066142 -0.055445 -0.061436
0.030204 -0.052213 -0.059308
0.070399 -0.063338 -0.092964
0.116463 -0.059734 -0.101917
0.172095 -0.010008 -0.092201
0.238011 0.002561 -0.072319
0.311195 0.008662 -0.009353
0.390963 0.011490 0.000000
0.476805 0.009754 0.000000
0.568186 0.009814 0.000000
0.665400 0.011152 0.000656
0.768212 0.008274 0.002274
0.876335 0.004599 0.003129
0.968464 0.003961 0.005922
1.000000 0.003463 0.008321
-0.081101 0.042521 -0.087820
-0.056566 0.042700 -0.087601
0.037301 0.044013 -0.098646
0.074008 0.048479 -0.101694
0.121271 0.049803 -0.095101
0.178076 0.054810 -0.082778
0.243678 0.060901 -0.044419
0.316301 0.063589 -0.003785
0.395767 0.043784 0.000000
0.481476 0.043544 0.000000
0.572929 0.051362 0.000074
0.669882 0.040089 0.000948
0.771727 0.024193 0.002595
0.879555 0.019016 0.003449
0.970468 0.022747 0.004337
1.000000 0.019268 0.005079
-0.066380 0.098237 -0.094605
-0.019300 0.098350 -0.093993
0.045649 0.099419 -0.091571
0.083239 0.101239 -0.086146
0.128355 0.104622 -0.074826
0.187007 0.111077 -0.021557
0.253363 0.116281 -0.005353
0.326168 0.120746 0.000000
0.405181 0.124214 0.000000
0.490486 0.126218 0.000000
0.581397 0.125192 0.000367
0.677996 0.102507 0.002076
0.779953 0.094025 0.002849
0.887742 0.098821 0.003686
0.974759 0.077404 0.004636
1.000000 0.047074 0.005500
0.005043 0.160009 -0.023539
0.022419 0.160208 -0.021425
0.051946 0.161004 -0.016306
0.091782 0.162574 -0.010755
0.139781 0.164779 -0.005295
0.197042 0.168252 0.000000
0.264700 0.174630 0.000000
0.338307 0.179978 0.000000
0.417707 0.184670 0.000000
0.502885 0.188712 0.000173
0.593746 0.191741 0.001135
0.690240 0.193582 0.002269
0.792264 0.193814 0.003095
0.899115 0.190822 0.004002
0.980761 0.168568 0.004850
1.000000 0.155765 0.005649
0.026051 0.228972 0.000000
0.033327 0.229173 0.000000
0.056612 0.229805 0.000000
0.098422 0.231164 0.000000
0.149861 0.233163 0.000000
0.209973 0.235650 0.000000
0.276209 0.239342 0.000000
0.351136 0.245485 0.000000
0.431432 0.250797 0.000323
0.517174 0.255646 0.001152
0.608378 0.259871 0.001980
0.705090 0.263424 0.002719
0.807073 0.266198 0.003553
0.912736 0.267887 0.004334
0.987454 0.268303 0.005012
1.000000 0.266536 0.005794
0.035791 0.304891 0.000000
0.040914 0.305012 0.000000
0.063695 0.305542 0.000000
0.102755 0.306685 0.000000
0.157616 0.308545 0.000070
0.221246 0.310779 0.000154
0.289611 0.313588 0.000451
0.363539 0.317405 0.001051
0.445270 0.323285 0.001602
0.532253 0.328684 0.002135
0.624256 0.333555 0.002791
0.721485 0.338058 0.003458
0.824050 0.341966 0.004092
0.927538 0.345234 0.004657
0.993910 0.347676 0.005329
1.000000 0.348957 0.005593
0.042261 0.387225 0.001220
0.046928 0.387419 0.001252
0.063750 0.387940 0.001422
0.101887 0.388990 0.001649
0.161978 0.390570 0.001894
0.229857 0.392630 0.002127
0.301444 0.395172 0.002016
0.377367 0.398063 0.002345
0.458702 0.402093 0.002735
0.547164 0.407865 0.003191
0.640495 0.413329 0.003662
0.738792 0.418389 0.004115
0.842177 0.423076 0.004542
0.942486 0.427392 0.005007
0.998691 0.431017 0.005201
1.000000 0.433627 0.005426
0.045982 0.476213 0.002673
0.049381 0.476212 0.002698
0.062188 0.476679 0.002817
0.102865 0.477514 0.002883
0.161800 0.479123 0.002976
0.234917 0.480954 0.003095
0.310717 0.483366 0.003288
0.389800 0.486141 0.003519
0.472900 0.489220 0.003775
0.561618 0.493678 0.004053
0.656540 0.499422 0.004323
0.756752 0.505042 0.004625
0.861353 0.510304 0.004800
0.956820 0.515060 0.004983
1.000000 0.519628 0.005137
1.000000 0.522717 0.005264
0.046585 0.571325 0.003846
0.049422 0.571353 0.003871
0.064239 0.571777 0.003941
0.091953 0.572616 0.004091
0.154539 0.573922 0.004147
0.234961 0.575794 0.004194
0.316851 0.577969 0.004270
0.399908 0.580764 0.004426
0.486297 0.583714 0.004522
0.576564 0.587183 0.004625
0.672177 0.591788 0.004710
0.773890 0.597723 0.004782
0.879796 0.603132 0.004858
0.968977 0.608176 0.004937
1.000000 0.612656 0.005009
1.000000 0.615950 0.005069
0.044552 0.672708 0.004706
0.047130 0.672926 0.004728
0.057279 0.673215 0.004814
0.078988 0.673992 0.004961
0.144846 0.675233 0.004947
0.228356 0.676981 0.004910
0.318927 0.679130 0.004863
0.407091 0.681670 0.004816
0.497155 0.684753 0.004781
0.590539 0.687768 0.004784
0.687368 0.691294 0.004792
0.789361 0.695545 0.004799
0.896069 0.700964 0.004809
0.978200 0.705740 0.004820
1.000000 0.710284 0.004835
1.000000 0.713433 0.004852
0.040518 0.780284 0.004800
0.042635 0.780356 0.004822
0.051179 0.780733 0.004900
0.076879 0.781322 0.004973
0.118634 0.782600 0.005065
0.214844 0.784010 0.005008
0.315014 0.785966 0.004937
0.410080 0.788169 0.004883
0.504423 0.790467 0.004836
0.600815 0.793123 0.004790
0.699951 0.796005 0.004757
0.802724 0.798856 0.004716
0.908186 0.802812 0.004683
0.985117 0.807495 0.004654
1.000000 0.811661 0.004641
1.000000 0.814686 0.004640
0.036235 0.891149 0.004788
0.038126 0.891307 0.004800
0.046880 0.891585 0.004861
0.063378 0.892151 0.004977
0.101427 0.893051 0.005077
0.193454 0.894148 0.005018
0.301698 0.895742 0.004929
0.407897 0.897679 0.004860
0.507319 0.899389 0.004806
0.607090 0.901823 0.004738
0.709051 0.903866 0.004662
0.813663 0.906453 0.004577
0.918288 0.908836 0.004530
0.989747 0.911802 0.004503
1.000000 0.916189 0.004472
1.000000 0.918513 0.004477
0.031824 0.999895 0.004679
0.033570 0.999834 0.004699
0.040580 1.000021 0.004753
0.053380 1.000021 0.004863
0.091886 1.000021 0.004894
0.154444 1.000000 0.004907
0.284100 1.000000 0.004821
0.399047 1.000000 0.004737
0.505457 1.000000 0.004654
0.609315 1.000000 0.004572
0.714004 1.000000 0.004509
0.820746 1.000000 0.004448
0.925602 1.000000 0.004412
0.992856 1.000000 0.004378
1.000000 1.000000 0.004374
1.000000 1.000000 0.004396
0.027381 1.000000 0.004501
0.028957 1.000000 0.004512
0.035363 1.000000 0.004561
0.049845 1.000000 0.004642
0.075171 1.000000 0.004752
0.135511 1.000000 0.004794
0.249711 1.000000 0.004738
0.381434 1.000000 0.004662
0.498728 1.000000 0.004579
0.607240 1.000000 0.004517
0.714892 1.000000 0.004470
0.823762 1.000000 0.004436
0.929520 1.000000 0.004412
0.994561 1.000000 0.004425
1.000000 1.000000 0.004459
1.000000 1.000000 0.004542
0.023195 1.010755 0.004457
0.024716 1.010814 0.004468
0.031046 1.011085 0.004507
0.042591 1.011578 0.004603
0.058973 1.012267 0.004756
0.113518 1.012690 0.004766
0.203858 1.012986 0.004760
0.362462 1.013229 0.004710
0.485041 1.013366 0.004670
0.599221 1.013380 0.004625
0.710024 1.013313 0.004599
0.821025 1.012762 0.004615
0.928043 1.011878 0.004664
0.994051 1.010465 0.004745
1.000000 1.008224 0.004873
1.000000 1.004811 0.005095
-0.088438 -0.077511 -0.043553
-0.067913 -0.077101 -0.042992
0.029757 -0.074776 -0.040110
0.070144 -0.088327 -0.070868
0.116263 -0.090439 -0.075356
0.171709 -0.082213 -0.046539
0.236926 -0.065093 -0.003805
0.310122 -0.002281 0.002996
0.389633 0.000000 0.006087
0.475791 0.000000 0.002856
0.567447 0.000518 0.003560
0.664623 0.001434 0.007545
0.767328 0.002432 0.008437
0.875637 0.002379 0.009125
0.968253 0.002336 0.010404
1.000000 0.002044 0.011877
-0.087065 -0.055838 -0.041635
-0.065930 -0.055236 -0.041051
0.030259 -0.052034 -0.038102
0.070445 -0.063160 -0.068878
0.116483 -0.059476 -0.072116
0.172190 -0.009203 -0.018365
0.238180 0.002605 -0.002493
0.311330 0.006861 0.000000
0.391164 0.007139 0.000590
0.476887 0.007099 0.000121
0.568203 0.006669 0.001035
0.665605 0.006103 0.003500
0.768297 0.004960 0.005493
0.876355 0.004257 0.007235
0.968630 0.003967 0.009016
1.000000 0.003472 0.010796
-0.080948 0.042588 -0.063715
-0.056366 0.042767 -0.063236
0.037350 0.044071 -0.072577
0.074050 0.048526 -0.071623
0.121306 0.049859 -0.052055
0.178178 0.054877 -0.007142
0.243777 0.060907 0.000000
0.316480 0.062551 0.001253
0.395788 0.042593 0.000964
0.481619 0.042937 0.000310
0.572972 0.050777 0.001359
0.669958 0.038427 0.004540
0.771855 0.022782 0.004593
0.879693 0.017653 0.005075
0.970476 0.021711 0.005850
1.000000 0.018133 0.006489
-0.066174 0.098298 -0.048478
-0.018320 0.098411 -0.045309
0.045693 0.099456 -0.014741
0.083265 0.101297 -0.008746
0.128412 0.104670 -0.003434
0.187047 0.111118 0.000000
0.253474 0.115998 0.000545
0.326229 0.120451 0.000352
0.405400 0.124066 0.000074
0.490580 0.125957 0.000791
0.581403 0.124910 0.002013
0.678090 0.101874 0.005307
0.780047 0.093712 0.004636
0.887838 0.098535 0.005260
0.974753 0.077027 0.006121
1.000000 0.046505 0.007029
0.005421 0.160100 0.000000
0.022467 0.160278 0.000000
0.051935 0.161064 0.000000
0.091666 0.162636 0.000000
0.139670 0.164865 0.000540
0.197094 0.168265 0.000000
0.264791 0.174572 0.000000
0.338421 0.179888 0.000076
0.417729 0.184566 0.000657
0.502968 0.188535 0.001579
0.593847 0.191456 0.004396
0.690332 0.193427 0.004119
0.792214 0.193685 0.004718
0.899168 0.190725 0.005517
0.980784 0.168333 0.006282
1.000000 0.155597 0.007367
0.024393 0.229037 0.000072
0.032072 0.229242 0.000074
0.055915 0.229850 0.000131
0.098025 0.231198 0.000278
0.149696 0.233174 0.000521
0.209991 0.235688 0.000157
0.276259 0.239376 0.000463
0.351088 0.245432 0.001044
0.431357 0.250685 0.002188
0.517269 0.255533 0.003270
0.608475 0.259801 0.003693
0.705186 0.263303 0.004285
0.807215 0.266106 0.005065
0.912705 0.267796 0.005767
0.987502 0.268140 0.006573
1.000000 0.266469 0.007220
0.034688 0.304938 0.000663
0.039967 0.305087 0.000700
0.063142 0.305646 0.000786
0.102422 0.306724 0.000958
0.157431 0.308560 0.001187
0.221162 0.310805 0.001506
0.289603 0.313575 0.002582
0.363609 0.317414 0.003186
0.445401 0.323287 0.003309
0.532340 0.328616 0.003706
0.624243 0.333520 0.004309
0.721579 0.338036 0.004916
0.824126 0.341912 0.005490
0.927621 0.345166 0.006141
0.993885 0.347625 0.006730
1.000000 0.348842 0.006804
0.040888 0.387365 0.003677
0.045713 0.387445 0.003704
0.062870 0.387985 0.003844
0.101392 0.389004 0.004010
0.161753 0.390621 0.004128
0.229688 0.392674 0.004155
0.301437 0.395189 0.003629
0.377321 0.398081 0.003901
0.458662 0.402091 0.004233
0.547283 0.407922 0.004641
0.640524 0.413307 0.005068
0.738933 0.418362 0.005466
0.842321 0.423106 0.006073
0.942603 0.427364 0.006290
0.998694 0.430887 0.006361
1.000000 0.433616 0.006529
0.045222 0.476245 0.004212
0.048673 0.476300 0.004234
0.061666 0.476690 0.004353
0.102558 0.477567 0.004412
0.161637 0.478985 0.004478
0.234805 0.481033 0.004559
0.310709 0.483510 0.004727
0.389742 0.486149 0.004925
0.472905 0.489315 0.005141
0.561631 0.493674 0.005372
0.656693 0.499404 0.005803
0.756582 0.505045 0.005893
0.861418 0.510210 0.005972
0.956805 0.515055 0.006101
1.000000 0.519576 0.006201
1.000000 0.522582 0.006278
0.045942 0.571322 0.005207
0.048827 0.571397 0.005230
0.063791 0.571852 0.005298
0.091617 0.572667 0.005442
0.154356 0.573990 0.005489
0.234921 0.575788 0.005519
0.316813 0.578043 0.005748
0.399885 0.580825 0.005850
0.486291 0.583807 0.005792
0.576604 0.587170 0.005832
0.672228 0.591798 0.005860
0.774040 0.597736 0.005883
0.879891 0.603175 0.005919
0.968977 0.608189 0.005948
1.000000 0.612731 0.005968
1.000000 0.615959 0.005991
0.043929 0.672735 0.005964
0.046537 0.672894 0.005983
0.056797 0.673259 0.006068
0.078680 0.673999 0.006217
0.144681 0.675331 0.006186
0.228235 0.676942 0.006113
0.318905 0.679097 0.006027
0.407085 0.681672 0.005948
0.497160 0.684806 0.005868
0.590540 0.687815 0.005840
0.687349 0.691270 0.005810
0.789408 0.695591 0.005783
0.896076 0.700988 0.005757
0.978255 0.705687 0.005729
1.000000 0.710337 0.005731
1.000000 0.713307 0.005689
0.039930 0.780285 0.005847
0.042085 0.780437 0.005863
0.050727 0.780817 0.005946
0.076604 0.781370 0.006017
0.118420 0.782583 0.006100
0.214721 0.783993 0.006024
0.314878 0.786027 0.005945
0.410069 0.788139 0.005872
0.504454 0.790498 0.005796
0.600791 0.793190 0.005724
0.699958 0.796078 0.005659
0.802796 0.798785 0.005600
0.908153 0.802838 0.005533
0.985092 0.807484 0.005472
1.000000 0.811747 0.005435
1.000000 0.814771 0.005401
0.035636 0.891192 0.005697
0.037575 0.891334 0.005711
0.046437 0.891526 0.005775
0.063041 0.892259 0.005888
0.101221 0.893129 0.005988
0.193349 0.894222 0.005925
0.301639 0.895525 0.005852
0.407849 0.897601 0.005771
0.507300 0.899475 0.005684
0.607085 0.901896 0.005583
0.709064 0.903886 0.005485
0.813683 0.906482 0.005365
0.918275 0.908896 0.005290
0.989747 0.911880 0.005239
1.000000 0.916186 0.005186
1.000000 0.918477 0.005166
0.031195 0.999899 0.005496
0.032990 0.999916 0.005511
0.040114 0.999952 0.005559
0.053023 1.000021 0.005681
0.091675 1.000021 0.005706
0.154324 1.000000 0.005706
0.284010 1.000000 0.005604
0.399026 1.000000 0.005512
0.505416 1.000000 0.005414
0.609307 1.000000 0.005314
0.714013 1.000000 0.005230
0.820815 1.000000 0.005150
0.925636 1.000000 0.005100
0.992786 1.000000 0.005060
1.000000 1.000000 0.005022
1.000000 1.000000 0.005032
0.026738 1.000000 0.005211
0.028357 1.000000 0.005220
0.034874 1.000000 0.005268
0.049512 1.000000 0.005363
0.074947 1.000000 0.005465
0.135416 1.000000 0.005505
0.249579 1.000000 0.005443
0.381398 1.000000 0.005350
0.498690 1.000000 0.005259
0.607218 1.000000 0.005190
0.714896 1.000000 0.005125
0.823763 1.000000 0.005074
0.929611 1.000000 0.005051
0.994557 1.000000 0.005046
1.000000 1.000000 0.005065
1.000000 1.000000 0.005137
0.022481 1.010776 0.005092
0.024057 1.010834 0.005108
0.030531 1.011110 0.005154
0.042246 1.011598 0.005239
0.058715 1.012287 0.005401
0.113384 1.012709 0.005407
0.203769 1.013007 0.005410
0.362453 1.013251 0.005352
0.485018 1.013387 0.005293
0.599156 1.013400 0.005242
0.710010 1.013332 0.005209
0.821027 1.012781 0.005213
0.928056 1.011895 0.005250
0.994061 1.010484 0.005313
1.000000 1.008238 0.005454
1.000000 1.004824 0.005652
-0.087838 -0.086796 0.039048
-0.067040 -0.086273 0.039215
0.035093 -0.081496 0.041537
0.070577 -0.091890 0.045950
0.116803 -0.089935 0.052306
0.172393 -0.081495 0.049969
0.237646 -0.063726 0.056600
0.310720 -0.001579 0.065550
0.390272 0.000000 0.036941
0.476252 0.000000 0.033211
0.567939 0.000542 0.044484
0.665016 0.001462 0.038013
0.767774 0.002457 0.022888
0.875895 0.002406 0.019947
0.968258 0.002360 0.026156
1.000000 0.002050 0.031403
-0.086464 -0.064236 0.039567
-0.065051 -0.063555 0.039725
0.035559 -0.058670 0.042090
0.070882 -0.066175 0.046453
0.117033 -0.058162 0.052824
0.172919 -0.006340 0.050173
0.238777 0.000000 0.057435
0.311942 0.001146 0.065324
0.391577 0.002865 0.035307
0.477341 0.001996 0.032842
0.568727 0.003049 0.044441
0.666121 0.005180 0.035448
0.768835 0.004966 0.021382
0.876757 0.004276 0.018901
0.968826 0.003989 0.025964
1.000000 0.003472 0.031027
-0.080297 0.044152 0.044732
-0.055263 0.044329 0.044891
0.033419 0.044757 0.045836
0.074357 0.046341 0.040349
0.121742 0.043707 0.039160
0.178683 0.046791 0.044889
0.244301 0.051485 0.052259
0.316880 0.052694 0.055711
0.396276 0.033748 0.025900
0.481926 0.033464 0.026358
0.573521 0.040092 0.036881
0.670430 0.029367 0.026388
0.772349 0.016085 0.014102
0.879780 0.012623 0.013953
0.970722 0.016037 0.022609
1.000000 0.013705 0.025300
-0.065309 0.098668 0.046976
-0.010831 0.098785 0.047233
0.037695 0.099800 0.044253
0.080168 0.101557 0.043472
0.128690 0.104235 0.047091
0.187469 0.108270 0.051916
0.253820 0.111973 0.054940
0.326638 0.118126 0.023957
0.405798 0.121536 0.022521
0.491021 0.122448 0.031771
0.581900 0.120757 0.036036
0.678570 0.099300 0.021418
0.780441 0.092348 0.012843
0.888225 0.097457 0.012364
0.974954 0.073894 0.020004
1.000000 0.042733 0.017088
0.001943 0.160394 0.059340
0.012047 0.160573 0.058027
0.042102 0.161323 0.055331
0.085583 0.162859 0.053897
0.137768 0.165022 0.053310
0.197380 0.168249 0.021610
0.265035 0.173920 0.019291
0.338662 0.178709 0.023630
0.418082 0.182817 0.030806
0.503313 0.186285 0.036520
0.594158 0.190221 0.021820
0.690641 0.192752 0.012795
0.792566 0.193075 0.012053
0.899409 0.189659 0.016683
0.981019 0.167092 0.018146
1.000000 0.154807 0.015135
0.015103 0.229268 0.025776
0.022175 0.229453 0.023892
0.048934 0.230062 0.021432
0.094669 0.231394 0.022683
0.148034 0.233390 0.024573
0.209481 0.235860 0.025057
0.276492 0.239360 0.029653
0.351430 0.244684 0.035269
0.431714 0.250114 0.021429
0.517462 0.255163 0.014065
0.608684 0.259441 0.011784
0.705356 0.263063 0.011486
0.807330 0.265590 0.014851
0.912999 0.267133 0.017452
0.987587 0.267637 0.014813
1.000000 0.266004 0.013564
0.024810 0.305163 0.037042
0.029760 0.305307 0.036124
0.053792 0.305782 0.033003
0.097268 0.306959 0.034384
0.154617 0.308706 0.036268
0.219802 0.311013 0.037916
0.289482 0.313693 0.017510
0.363777 0.317561 0.014152
0.445547 0.323238 0.011570
0.532397 0.328548 0.011075
0.624439 0.333367 0.011298
0.721812 0.337704 0.016058
0.824423 0.341508 0.016916
0.927790 0.344894 0.014084
0.994046 0.347476 0.013006
1.000000 0.348736 0.012208
0.034272 0.387551 0.016279
0.040007 0.387581 0.016241
0.059026 0.388169 0.016111
0.099331 0.389043 0.015730
0.160682 0.390663 0.014992
0.229224 0.392710 0.013826
0.301303 0.395274 0.011256
0.377457 0.398304 0.011154
0.458914 0.402165 0.011162
0.547366 0.407861 0.015011
0.640702 0.413201 0.015088
0.739250 0.418271 0.013735
0.842540 0.422940 0.013107
0.942884 0.427149 0.012088
0.998733 0.430873 0.011567
1.000000 0.433506 0.011451
0.041894 0.476362 0.011343
0.045631 0.476414 0.011362
0.059353 0.476872 0.011466
0.101293 0.477805 0.011422
0.160862 0.479139 0.011492
0.234273 0.481102 0.013404
0.310449 0.483424 0.013396
0.389650 0.486258 0.013784
0.473077 0.489359 0.013977
0.561899 0.493743 0.013624
0.656858 0.499383 0.012577
0.756719 0.504931 0.011600
0.861484 0.510120 0.011247
0.956995 0.515094 0.011121
1.000000 0.519308 0.010965
1.000000 0.522503 0.010796
0.041326 0.571413 0.015009
0.044520 0.571563 0.015033
0.060642 0.571958 0.015112
0.089394 0.572771 0.015256
0.153179 0.574063 0.015155
0.234266 0.575891 0.014419
0.316508 0.578132 0.013076
0.399767 0.580931 0.012336
0.486250 0.583938 0.011517
0.576693 0.587359 0.011276
0.672350 0.591845 0.011048
0.774165 0.597778 0.010841
0.879993 0.603244 0.010671
0.969082 0.608217 0.010489
1.000000 0.612701 0.010706
1.000000 0.615919 0.010701
0.041113 0.672916 0.011658
0.043899 0.672933 0.011674
0.054704 0.673359 0.011746
0.077296 0.674017 0.011854
0.143902 0.675245 0.011719
0.227792 0.677192 0.011521
0.318670 0.679270 0.011268
0.406907 0.681881 0.011014
0.497162 0.684828 0.010763
0.590631 0.688117 0.010589
0.687604 0.691413 0.010405
0.789456 0.695610 0.010216
0.895966 0.700948 0.010452
0.978301 0.705757 0.010269
1.000000 0.710298 0.009772
1.000000 0.713418 0.009468
0.037290 0.780572 0.010533
0.039625 0.780436 0.010559
0.048737 0.780742 0.010647
0.075341 0.781542 0.010705
0.117568 0.782599 0.010765
0.214210 0.784046 0.010622
0.314688 0.786036 0.010472
0.409945 0.788139 0.010300
0.504407 0.790651 0.010442
0.600778 0.793151 0.010438
0.700117 0.796181 0.010166
0.802793 0.799100 0.009650
0.908236 0.802859 0.009399
0.985094 0.807664 0.009166
1.000000 0.811682 0.008992
1.000000 0.814683 0.008837
0.032528 0.891334 0.010388
0.034666 0.891415 0.010400
0.044160 0.891625 0.010439
0.061368 0.892226 0.010516
0.100223 0.893287 0.010536
0.192707 0.894171 0.010298
0.301364 0.895662 0.010084
0.407712 0.897687 0.009874
0.507107 0.899444 0.009652
0.607112 0.901744 0.009405
0.709013 0.903853 0.009166
0.813747 0.906388 0.008924
0.918361 0.908996 0.008744
0.989670 0.912044 0.008582
1.000000 0.916193 0.008420
1.000000 0.918526 0.008298
0.028330 0.999931 0.009169
0.030290 0.999947 0.009182
0.037976 1.000021 0.009228
0.051477 1.000021 0.009347
0.090762 1.000021 0.009336
0.153894 1.000000 0.009298
0.283751 1.000000 0.009144
0.398919 1.000000 0.008998
0.505305 1.000000 0.008840
0.609162 1.000000 0.008671
0.713961 1.000000 0.008516
0.820970 1.000000 0.008351
0.925786 1.000000 0.008222
0.992833 1.000000 0.008092
1.000000 1.000000 0.007990
1.000000 1.000000 0.007900
0.023619 1.000000 0.008427
0.025499 1.000000 0.008437
0.032673 1.000000 0.008499
0.048053 1.000000 0.008580
0.073955 1.000000 0.008688
0.134819 1.000000 0.008709
0.249170 1.000000 0.008618
0.381243 1.000000 0.008475
0.498594 1.000000 0.008339
0.607130 1.000000 0.008220
0.714894 1.000000 0.008133
0.823858 1.000000 0.008042
0.929534 1.000000 0.007936
0.994647 1.000000 0.007849
1.000000 1.000000 0.007802
1.000000 1.000000 0.007804
0.018760 1.010872 0.008119
0.020681 1.010925 0.008126
0.028086 1.011207 0.008189
0.040580 1.011697 0.008280
0.057554 1.012382 0.008439
0.112798 1.012809 0.008424
0.203381 1.013106 0.008373
0.362392 1.013335 0.008270
0.484844 1.013481 0.008146
0.599102 1.013489 0.008018
0.710008 1.013293 0.007941
0.821048 1.012865 0.007898
0.928050 1.011966 0.007889
0.994133 1.010543 0.007913
1.000000 1.008301 0.008011
1.000000 1.004875 0.008190
-0.086638 -0.075040 0.081236
-0.065253 -0.074631 0.081333
0.039049 -0.086503 0.084029
0.075527 -0.093588 0.087724
0.117824 -0.088877 0.092427
0.173641 -0.080030 0.100093
0.238827 -0.060755 0.106412
0.311966 -0.000414 0.111889
0.391466 0.000000 0.116442
0.477417 0.000000 0.120512
0.568925 0.000585 0.122725
0.665975 0.001493 0.096895
0.768734 0.002451 0.083721
0.876747 0.002378 0.092629
0.968799 0.002346 0.100497
1.000000 0.002054 0.075415
-0.085228 -0.052435 0.081549
-0.063199 -0.051848 0.081639
0.039510 -0.062768 0.084361
0.075814 -0.066680 0.088055
0.118068 -0.055262 0.092741
0.174307 -0.002947 0.100513
0.240042 0.000000 0.106783
0.313124 0.001606 0.111711
0.392825 0.002954 0.116418
0.478393 0.002040 0.120298
0.569684 0.003082 0.122513
0.666843 0.005340 0.094555
0.769514 0.004919 0.083439
0.877558 0.004233 0.092780
0.969304 0.003965 0.100351
1.000000 0.003474 0.074897
-0.078950 0.049515 0.088195
-0.052936 0.049685 0.088308
0.033913 0.047039 0.089782
0.075712 0.046738 0.092111
0.122602 0.044263 0.095368
0.179739 0.047381 0.100125
0.245405 0.051819 0.104355
0.317992 0.051954 0.108422
0.397352 0.032746 0.114389
0.482897 0.032965 0.117463
0.574307 0.040279 0.117957
0.671336 0.029095 0.090223
0.773173 0.015828 0.082775
0.880757 0.012534 0.093581
0.971206 0.016159 0.096145
1.000000 0.013639 0.064271
-0.063511 0.099362 0.095261
0.001943 0.099492 0.095382
0.038063 0.100437 0.096159
0.079773 0.102101 0.097511
0.129289 0.104344 0.099353
0.188191 0.106911 0.101597
0.254607 0.109607 0.104029
0.327501 0.112350 0.106896
0.406599 0.114531 0.109024
0.491746 0.115471 0.110162
0.582689 0.114027 0.100791
0.679433 0.091458 0.076551
0.781177 0.082554 0.075367
0.889054 0.086679 0.085176
0.975392 0.064942 0.071218
1.000000 0.036571 0.040139
0.001943 0.160951 0.105902
0.012694 0.161091 0.105431
0.042252 0.161842 0.104544
0.084768 0.163378 0.103859
0.136966 0.165480 0.103936
0.197883 0.168252 0.104879
0.265685 0.172014 0.107510
0.339306 0.175711 0.109031
0.418732 0.179428 0.108452
0.504005 0.182851 0.104111
0.594870 0.186972 0.075993
0.691521 0.188836 0.071400
0.793404 0.188205 0.080077
0.899930 0.185043 0.075833
0.981217 0.164191 0.048352
1.000000 0.153338 0.031280
0.015547 0.229765 0.113143
0.022501 0.229914 0.112755
0.046055 0.230552 0.111526
0.089353 0.231843 0.109499
0.144280 0.233758 0.108287
0.208318 0.236201 0.108895
0.276933 0.239353 0.109306
0.351915 0.243725 0.108936
0.432189 0.248826 0.074372
0.518125 0.253431 0.065895
0.609307 0.257154 0.070356
0.706013 0.260139 0.078130
0.808068 0.262630 0.078359
0.913626 0.265448 0.051133
0.987886 0.266719 0.032141
1.000000 0.265214 0.029493
0.025069 0.305495 0.116319
0.029979 0.305683 0.115970
0.052608 0.306207 0.114150
0.092332 0.307318 0.111060
0.150461 0.309069 0.107916
0.217981 0.311373 0.105515
0.289149 0.313946 0.068044
0.364225 0.317554 0.065964
0.446004 0.322597 0.067769
0.532932 0.327336 0.073761
0.624969 0.331676 0.078488
0.722311 0.335815 0.078770
0.824821 0.340566 0.048945
0.928236 0.344308 0.030835
0.994126 0.346887 0.027266
1.000000 0.347805 0.035009
0.032072 0.387945 0.076591
0.036400 0.388042 0.076042
