luts/TENET-OUTDOOR.cube
LUT_3D_SIZE 6
0.000000 0.000000 0.000000
0.110679 0.002288 0.000538
0.285717 0.011803 0.004200
0.503992 0.016252 0.017150
0.749490 0.003451 0.037945
0.970543 0.017263 0.060018
0.003775 0.110426 0.003029
0.118497 0.117820 0.004346
0.295180 0.130627 0.009833
0.515099 0.140447 0.022780
0.758395 0.144566 0.041857
0.974313 0.167844 0.062277
0.000425 0.300836 0.015411
0.126637 0.305584 0.018927
0.315934 0.320440 0.022550
0.538079 0.337167 0.035262
0.774867 0.354968 0.051561
0.978160 0.381469 0.069594
0.000000 0.538879 0.028381
0.121275 0.542379 0.032647
0.343635 0.554123 0.038072
0.569882 0.571309 0.045646
0.794286 0.589006 0.063528
0.979160 0.611275 0.081055
0.088377 0.772226 0.054549
0.225978 0.774061 0.059075
0.414103 0.781696 0.064321
0.621364 0.793711 0.067868
0.822506 0.803996 0.084686
0.981807 0.815616 0.103844
0.315294 0.946248 0.113561
0.407131 0.948106 0.113125
0.543140 0.952155 0.114172
0.705916 0.956681 0.120309
0.865915 0.960663 0.132558
0.993244 0.965459 0.148264
0.003310 0.000292 0.098580
0.128076 0.003784 0.095425
0.300434 0.015422 0.102897
0.515909 0.020324 0.119105
0.758196 0.008597 0.140345
0.975181 0.026820 0.161133
0.005625 0.123126 0.095933
0.129979 0.125896 0.100635
0.306132 0.137093 0.109095
0.524780 0.145808 0.124273
0.766071 0.149850 0.143613
0.978306 0.173933 0.163050
0.006480 0.308416 0.112205
0.138546 0.312203 0.116612
0.325146 0.325771 0.122667
0.546109 0.341780 0.136138
0.780877 0.359069 0.152676
0.981375 0.385565 0.169566
0.000000 0.543530 0.130185
0.141027 0.546942 0.134017
0.353018 0.558569 0.139501
0.576803 0.575097 0.148321
0.799485 0.592406 0.164768
0.981619 0.614615 0.180631
0.108988 0.775614 0.157558
0.239121 0.777535 0.161387
0.422295 0.785119 0.165956
0.627200 0.796819 0.170692
0.826320 0.806843 0.185590
0.983748 0.818499 0.201991
0.322636 0.948941 0.209131
0.413969 0.950595 0.209091
0.548693 0.954389 0.210740
0.710031 0.959021 0.216743
0.868492 0.962934 0.227858
0.994478 0.967328 0.241968
0.010684 0.001873 0.263454
0.146200 0.006425 0.257947
0.328679 0.015750 0.257479
0.545794 0.019137 0.266741
0.782955 0.009403 0.284278
0.990329 0.031837 0.302337
0.016582 0.134339 0.256328
0.144882 0.134290 0.261018
0.334351 0.144440 0.259615
0.551788 0.152200 0.271065
0.789715 0.154595 0.287501
0.992148 0.180106 0.304754
0.004583 0.329933 0.259123
0.153919 0.331907 0.261606
0.348992 0.338422 0.271605
0.568368 0.352660 0.283137
0.798909 0.368649 0.298950
0.991023 0.395215 0.314791
0.003657 0.561694 0.277535
0.168804 0.564586 0.280334
0.378868 0.568985 0.293496
0.595392 0.585226 0.301667
0.813293 0.602102 0.315384
0.988617 0.623998 0.329562
0.152641 0.786759 0.311770
0.271199 0.788288 0.314646
0.444728 0.794784 0.320129
0.643001 0.805473 0.326143
0.836832 0.815037 0.338562
0.988676 0.826644 0.351920
0.343082 0.956297 0.355977
0.432760 0.957743 0.356593
0.563928 0.961312 0.359012
0.720975 0.965134 0.364902
0.875544 0.968918 0.374250
0.997743 0.973253 0.385887
0.000000 0.004795 0.472745
0.148178 0.007681 0.468557
0.357509 0.018393 0.459753
0.586256 0.008381 0.462541
0.820559 0.001193 0.472448
1.000028 0.028414 0.485917
0.002736 0.142370 0.465973
0.150814 0.139254 0.470293
0.366101 0.147958 0.462428
0.593729 0.150950 0.464812
0.826116 0.156079 0.475252
1.000021 0.183597 0.488248
0.027093 0.347796 0.459452
0.175028 0.349967 0.461583
0.380897 0.352124 0.468844
0.604994 0.366898 0.471187
0.826677 0.383661 0.485123
1.000028 0.411109 0.499426
0.016623 0.590580 0.466803
0.189805 0.592566 0.468441
0.415084 0.590529 0.478704
0.624859 0.602655 0.489906
0.835912 0.618312 0.501308
0.998797 0.639608 0.513829
0.169221 0.817105 0.489375
0.290828 0.817506 0.491862
0.481782 0.809741 0.509476
0.667862 0.819456 0.516483
0.852654 0.829455 0.525761
0.995558 0.840823 0.536342
0.376550 0.967517 0.539069
0.465410 0.967456 0.541879
0.589898 0.970068 0.545505
0.738004 0.974345 0.549662
0.885768 0.978302 0.556147
1.000028 0.982165 0.565465
0.000000 0.004942 0.710511
0.135728 0.003131 0.708244
0.388208 0.009339 0.695340
0.625693 0.004168 0.689504
0.859908 0.000000 0.693917
1.000000 0.018803 0.701780
0.000000 0.146602 0.704363
0.154853 0.141697 0.707207
0.397406 0.146732 0.697567
0.633241 0.154056 0.690948
0.864009 0.154203 0.695675
1.000000 0.185311 0.703367
0.050255 0.362113 0.692440
0.196946 0.360766 0.697580
0.413117 0.357767 0.704003
0.649044 0.372630 0.694944
0.866992 0.390197 0.698996
1.000000 0.419141 0.707302
0.102778 0.611212 0.688989
0.244010 0.612674 0.690325
0.442669 0.616545 0.694384
0.663715 0.621791 0.699808
0.863283 0.637642 0.707752
1.000057 0.659006 0.717882
0.208009 0.842804 0.699954
0.328725 0.841923 0.701432
0.509401 0.839448 0.706950
0.699952 0.837872 0.719545
0.871385 0.848077 0.726804
1.000028 0.859009 0.734941
0.399370 0.987554 0.727654
0.490593 0.986450 0.730637
0.619792 0.983524 0.738871
0.759556 0.984983 0.745841
0.897332 0.989048 0.750492
1.000074 0.990967 0.759874
0.005303 0.000000 0.935033
0.206596 0.000000 0.930734
0.440672 0.000000 0.918132
0.673120 0.000000 0.907938
0.894858 0.000000 0.908347
1.000000 0.035072 0.912802
0.061483 0.142833 0.930061
0.223720 0.137503 0.930498
0.450467 0.145122 0.918416
0.679627 0.156253 0.908248
0.897453 0.162517 0.909257
1.000000 0.198685 0.913621
0.131894 0.367944 0.919458
0.259083 0.363716 0.924950
0.466478 0.363485 0.923779
0.692645 0.379263 0.911808
0.900601 0.396850 0.910749
1.000000 0.425205 0.914845
0.198214 0.626788 0.904309
0.310561 0.626997 0.907450
0.485944 0.626239 0.916054
0.700970 0.627993 0.917758
0.897423 0.645135 0.912826
1.000000 0.666605 0.916028
0.287133 0.858149 0.905310
0.390058 0.858480 0.906033
0.545144 0.859481 0.908641
0.723054 0.861399 0.912825
0.892544 0.865711 0.917084
1.000091 0.875969 0.923149
0.424809 0.999477 0.918484
0.511601 0.999254 0.919181
0.634257 0.998804 0.921702
0.776691 0.997807 0.926496
0.910028 0.997770 0.934346
1.000000 0.998109 0.946895
