luts/TENET-OUTDOOR.cube
LUT_3D_SIZE 16
0.000000 0.000000 0.000000
0.020505 0.000241 0.000090
0.060096 0.000881 0.000207
0.110679 0.002288 0.000538
0.165872 0.004629 0.001247
0.223760 0.007974 0.002367
0.285717 0.011803 0.004200
0.353237 0.015178 0.007157
0.426331 0.016847 0.011574
0.503992 0.016252 0.017150
0.584822 0.013242 0.023582
0.667374 0.008122 0.030541
0.749490 0.003451 0.037945
0.829637 0.001250 0.045518
0.905625 0.003565 0.052924
0.970543 0.017263 0.060018
0.000459 0.019007 0.000277
0.021999 0.020593 0.000425
0.061600 0.023146 0.000647
0.112333 0.026500 0.001044
0.167528 0.030462 0.001882
0.225537 0.035007 0.003144
0.287760 0.039375 0.005117
0.355452 0.043032 0.008076
0.428535 0.045072 0.012639
0.506180 0.045147 0.018199
0.586920 0.043113 0.024553
0.669129 0.039270 0.031416
0.751236 0.034902 0.038740
0.830924 0.033261 0.046248
0.906727 0.038777 0.053541
0.971330 0.053847 0.060489
0.001784 0.058612 0.001178
0.024616 0.060286 0.001447
0.064217 0.063114 0.001626
0.114721 0.066584 0.002279
0.169833 0.070724 0.003188
0.228067 0.075144 0.004641
0.290683 0.079601 0.006824
0.358813 0.083455 0.010105
0.432228 0.086016 0.014499
0.509899 0.087139 0.019889
0.590476 0.086749 0.026105
0.672402 0.085273 0.032916
0.754045 0.084069 0.040048
0.833500 0.085410 0.047358
0.908496 0.092140 0.054485
0.972553 0.105977 0.061209
0.003775 0.110426 0.003029
0.028816 0.111610 0.003402
0.068143 0.114214 0.003829
0.118497 0.117820 0.004346
0.173483 0.121739 0.005620
0.232019 0.126114 0.007346
0.295180 0.130627 0.009833
0.363704 0.134736 0.013325
0.437315 0.138078 0.017665
0.515099 0.140447 0.022780
0.595674 0.141822 0.028572
0.677370 0.142895 0.034983
0.758395 0.144566 0.041857
0.836958 0.148319 0.048946
0.911483 0.155584 0.055818
0.974313 0.167844 0.062277
0.005490 0.167930 0.006202
0.032156 0.168876 0.006713
0.072437 0.170828 0.007465
0.122794 0.174321 0.007932
0.178139 0.178426 0.008980
0.237319 0.182728 0.011295
0.301239 0.187394 0.014084
0.370330 0.192078 0.017496
0.444066 0.196341 0.021700
0.521660 0.200180 0.026624
0.601818 0.203475 0.032135
0.683109 0.206698 0.038123
0.763518 0.210406 0.044497
0.841456 0.215576 0.050965
0.914882 0.223446 0.057490
0.976188 0.234896 0.063657
0.004535 0.231003 0.010610
0.031938 0.231914 0.011226
0.074208 0.233511 0.012307
0.126200 0.236549 0.013273
0.182536 0.240956 0.013926
0.243271 0.245718 0.015522
0.308362 0.250556 0.018633
0.378089 0.255785 0.022186
0.451948 0.260992 0.026161
0.529406 0.265992 0.030823
0.609055 0.270796 0.036126
0.689502 0.275619 0.041879
0.768929 0.280837 0.047941
0.845538 0.287221 0.054122
0.917482 0.295608 0.060317
0.977281 0.306701 0.066430
0.000425 0.300836 0.015411
0.023287 0.301673 0.016074
0.069914 0.303144 0.017215
0.126637 0.305584 0.018927
0.185863 0.309835 0.019733
0.248833 0.315049 0.020488
0.315934 0.320440 0.022550
0.386665 0.325737 0.026543
0.460816 0.331398 0.030744
0.538079 0.337167 0.035262
0.617177 0.342905 0.040288
0.696604 0.348747 0.045802
0.774867 0.354968 0.051561
0.850152 0.362045 0.057489
0.920341 0.370727 0.063550
0.978160 0.381469 0.069594
0.000000 0.376657 0.019974
0.011200 0.377447 0.020547
0.057227 0.378712 0.021807
0.123358 0.380922 0.023700
0.188782 0.384355 0.025746
0.254525 0.389603 0.026056
0.323568 0.395453 0.027049
0.395914 0.401189 0.029724
0.470639 0.406780 0.034653
0.547631 0.412657 0.039518
0.625966 0.418963 0.044475
0.704330 0.425178 0.049755
0.781111 0.431918 0.055258
0.854732 0.439223 0.060936
0.922872 0.447931 0.066902
0.978798 0.458083 0.072986
0.000000 0.456699 0.024017
0.009624 0.457285 0.024787
0.040878 0.458641 0.025986
0.119157 0.460631 0.028041
0.191905 0.463357 0.030898
0.261476 0.468016 0.032082
0.332299 0.473964 0.032170
0.405770 0.479900 0.033701
0.481353 0.485684 0.037210
0.558110 0.491340 0.043100
0.635486 0.497435 0.048510
0.712624 0.503790 0.053769
0.787549 0.510475 0.059174
0.859235 0.517680 0.064652
0.925343 0.525860 0.070469
0.978952 0.535143 0.076699
0.000000 0.538879 0.028381
0.009623 0.539455 0.029136
0.035166 0.540511 0.030427
0.121275 0.542379 0.032647
0.198874 0.544797 0.035706
0.271766 0.548459 0.038421
0.343635 0.554123 0.038072
0.417636 0.559997 0.038684
0.493320 0.565776 0.040984
0.569882 0.571309 0.045646
0.646130 0.576779 0.052116
0.721337 0.582664 0.057997
0.794286 0.589006 0.063528
0.863946 0.595710 0.068897
0.927428 0.603055 0.074717
0.979160 0.611275 0.081055
0.000000 0.620569 0.033957
0.010572 0.621105 0.034785
0.054328 0.622046 0.036180
0.138769 0.623565 0.038452
0.214995 0.625657 0.041670
0.288068 0.628669 0.045207
0.359772 0.633692 0.045045
0.433130 0.639296 0.045016
0.507990 0.644681 0.046555
0.583450 0.649902 0.049960
0.658356 0.654787 0.055660
0.731574 0.659856 0.062596
0.802106 0.665369 0.068672
0.869030 0.671225 0.074294
0.929770 0.677626 0.080085
0.979353 0.684476 0.086515
0.010331 0.699167 0.042226
0.043989 0.699480 0.043020
0.106339 0.700298 0.044488
0.175042 0.701630 0.046806
0.243963 0.703437 0.050112
0.313526 0.705936 0.053741
0.382904 0.710378 0.053561
0.454115 0.715207 0.053290
0.526919 0.720087 0.054423
0.600317 0.724704 0.057182
0.672927 0.729096 0.061786
0.743603 0.733208 0.068397
0.811243 0.737522 0.075415
0.875032 0.742478 0.081477
0.933022 0.747636 0.087420
0.979978 0.753091 0.093907
0.088377 0.772226 0.054549
0.125582 0.772419 0.055342
0.171588 0.772977 0.056771
0.225978 0.774061 0.059075
0.285936 0.775458 0.062340
0.349114 0.777640 0.065004
0.414103 0.781696 0.064321
0.481754 0.785742 0.064213
0.551302 0.789785 0.065314
0.621364 0.793711 0.067868
0.690712 0.797293 0.071989
0.758215 0.800555 0.077653
0.822506 0.803996 0.084686
0.882818 0.807628 0.091374
0.937410 0.811473 0.097442
0.981807 0.815616 0.103844
0.171400 0.837560 0.071786
0.202342 0.837821 0.072574
0.240019 0.838309 0.073923
0.285601 0.839089 0.076105
0.337361 0.840411 0.078633
0.393209 0.842946 0.078650
0.453095 0.846108 0.078072
0.516204 0.849362 0.078483
0.581240 0.852396 0.079931
0.647043 0.855450 0.082512
0.712156 0.858184 0.086408
0.775563 0.860935 0.091541
0.835877 0.863486 0.097719
0.892249 0.866043 0.104372
0.943028 0.869011 0.110452
0.984756 0.871967 0.116610
0.247359 0.895460 0.093532
0.275350 0.895828 0.094169
0.308599 0.896016 0.095302
0.347776 0.897191 0.095769
0.392667 0.899033 0.095286
0.442888 0.901360 0.094935
0.497478 0.903465 0.095174
0.555359 0.906026 0.096176
0.615309 0.908290 0.097960
0.676044 0.910407 0.100650
0.736378 0.912613 0.104309
0.794871 0.914483 0.108843
0.850694 0.916472 0.114194
0.903181 0.918393 0.120038
0.949965 0.920532 0.125872
0.988774 0.922578 0.131640
0.315294 0.946248 0.113561
0.341478 0.946593 0.113428
0.371672 0.947220 0.113251
0.407131 0.948106 0.113125
0.447934 0.949074 0.113137
0.493451 0.950533 0.113449
0.543140 0.952155 0.114172
0.595836 0.953538 0.115525
0.650534 0.955205 0.117544
0.705916 0.956681 0.120309
0.761068 0.957891 0.123771
0.814557 0.959378 0.127885
0.865915 0.960663 0.132558
0.914157 0.962130 0.137562
0.957388 0.963772 0.142888
0.993244 0.965459 0.148264
0.000383 0.000074 0.016921
0.024591 0.000382 0.016038
0.064700 0.001333 0.016914
0.114785 0.003076 0.018496
0.169164 0.005715 0.020734
0.226745 0.009343 0.023636
0.288396 0.013417 0.027251
0.355715 0.016701 0.031735
0.428553 0.018328 0.037038
0.505977 0.017760 0.043110
0.586697 0.014814 0.049891
0.668995 0.009738 0.057179
0.751192 0.004716 0.064825
0.830885 0.002411 0.072634
0.906719 0.005143 0.080224
0.971449 0.019378 0.087417
0.000784 0.022076 0.016152
0.024537 0.022954 0.017138
0.064945 0.025435 0.018132
0.115597 0.028549 0.019710
0.170406 0.032436 0.021941
0.228149 0.036801 0.024785
0.290171 0.041103 0.028383
0.357767 0.044551 0.032757
0.430702 0.046661 0.038026
0.508099 0.046714 0.044005
0.588688 0.044678 0.050748
0.670842 0.040897 0.057993
0.752672 0.036765 0.065593
0.832307 0.035292 0.073286
0.907777 0.041001 0.080803
0.972212 0.055827 0.087816
0.002644 0.061788 0.018676
0.027381 0.062783 0.019782
0.066870 0.065464 0.020642
0.117395 0.068714 0.022248
0.172355 0.072667 0.024307
0.230514 0.076941 0.027106
0.292977 0.081284 0.030529
0.360921 0.085026 0.034775
0.434232 0.087559 0.039779
0.511740 0.088593 0.045575
0.592192 0.088174 0.052168
0.673979 0.086737 0.059324
0.755529 0.085604 0.066797
0.834652 0.086998 0.074340
0.909530 0.093757 0.081660
0.973272 0.107540 0.088611
0.005071 0.112840 0.022820
0.031118 0.113904 0.023807
0.070756 0.116246 0.024723
0.120786 0.119766 0.025818
0.175663 0.123543 0.028033
0.234074 0.127769 0.030670
0.297179 0.132115 0.033978
0.365782 0.136138 0.038027
0.439208 0.139367 0.042828
0.516843 0.141673 0.048360
0.597298 0.143062 0.054513
0.678941 0.144084 0.061293
0.759823 0.145764 0.068485
0.838247 0.149500 0.075811
0.912509 0.156822 0.082958
0.975019 0.169036 0.089579
0.007345 0.169699 0.028073
0.034794 0.170736 0.028817
0.074823 0.172567 0.029940
0.124858 0.176046 0.030750
0.180153 0.179978 0.032291
0.239181 0.184187 0.035063
0.303049 0.188723 0.038346
0.372109 0.193285 0.042169
0.445752 0.197556 0.046758
0.523305 0.201247 0.052092
0.603306 0.204561 0.057999
0.684442 0.207732 0.064322
0.764791 0.211437 0.071012
0.842573 0.216582 0.077800
0.915801 0.224428 0.084553
0.976858 0.235871 0.090934
0.006524 0.232494 0.033622
0.034692 0.233391 0.034318
0.076687 0.234997 0.035561
0.128274 0.238020 0.036771
0.184438 0.242331 0.037619
0.245073 0.246981 0.039503
0.310072 0.251751 0.043046
0.379715 0.256889 0.046919
0.453636 0.262054 0.051311
0.530970 0.266986 0.056340
0.610467 0.271749 0.061976
0.690829 0.276495 0.068075
0.770042 0.281724 0.074470
0.846687 0.288088 0.080929
0.918425 0.296469 0.087397
0.978107 0.307544 0.093658
0.001029 0.302156 0.039013
0.026276 0.302942 0.039745
0.072652 0.304383 0.040984
0.128919 0.306882 0.042810
0.187812 0.311038 0.043741
0.250643 0.316152 0.044779
0.317654 0.321455 0.047145
0.388326 0.326726 0.051469
0.462367 0.332333 0.056000
0.539537 0.338092 0.060872
0.618538 0.343701 0.066230
0.697846 0.349537 0.072019
0.776033 0.355725 0.078118
0.851150 0.362795 0.084317
0.921154 0.371515 0.090650
0.978784 0.382183 0.096869
0.000000 0.377688 0.044012
0.012540 0.378502 0.044670
0.061110 0.379760 0.045942
0.126077 0.382083 0.048010
0.190860 0.385475 0.050156
0.256295 0.390614 0.050636
0.325202 0.396308 0.051899
0.397485 0.402068 0.054912
0.472066 0.407567 0.060179
0.548935 0.413503 0.065317
0.627214 0.419707 0.070582
0.705472 0.426047 0.076163
0.782144 0.432627 0.081970
0.855589 0.440072 0.087861
0.923731 0.448562 0.094017
0.979351 0.458728 0.100258
0.000000 0.457570 0.048620
0.009657 0.458391 0.049345
0.045609 0.459561 0.050651
0.122565 0.461509 0.052825
0.194229 0.464311 0.055839
0.263329 0.469087 0.057035
0.333909 0.474758 0.057386
0.407233 0.480726 0.059135
0.482783 0.486469 0.062980
0.559412 0.492068 0.069102
0.636683 0.498148 0.074797
0.713613 0.504448 0.080324
0.788455 0.511140 0.086041
0.860085 0.518388 0.091688
0.925914 0.526517 0.097687
0.979587 0.535811 0.103949
0.000000 0.539697 0.053453
0.009626 0.540361 0.054232
0.040630 0.541455 0.055587
0.124954 0.543157 0.057869
0.201356 0.545638 0.061097
0.273671 0.549336 0.063847
0.345276 0.554968 0.063658
0.419066 0.560788 0.064495
0.494723 0.566479 0.067018
0.571105 0.571997 0.071964
0.647225 0.577414 0.078679
0.722390 0.583320 0.084787
0.795333 0.589546 0.090539
0.864637 0.596321 0.096096
0.928063 0.603667 0.101956
0.979552 0.611817 0.108263
0.000000 0.621285 0.059525
0.011340 0.621873 0.060313
0.060194 0.622785 0.061795
0.142315 0.624361 0.064185
0.217451 0.626449 0.067519
0.290027 0.629390 0.071115
0.361411 0.634442 0.070991
0.434571 0.639826 0.071183
0.509287 0.645241 0.072916
0.584637 0.650542 0.076564
0.659392 0.655491 0.082507
0.732398 0.660460 0.089666
0.803022 0.666016 0.095913
0.869613 0.671861 0.101556
0.930465 0.678222 0.107341
0.979762 0.685067 0.113687
0.013495 0.699810 0.068317
0.049321 0.700259 0.069095
0.110768 0.701063 0.070575
0.178028 0.702300 0.073026
0.246231 0.704183 0.076413
0.315353 0.706614 0.080093
0.384430 0.711066 0.079966
0.455460 0.715936 0.079837
0.528123 0.720594 0.081150
0.601374 0.725251 0.084128
0.674006 0.729816 0.088998
0.744596 0.733797 0.095741
0.812109 0.738041 0.102743
0.875696 0.742856 0.108785
0.933555 0.748118 0.114615
0.980450 0.753678 0.120899
0.092177 0.772872 0.081212
0.128948 0.773010 0.081948
0.174397 0.773671 0.083474
0.228244 0.774761 0.085866
0.287881 0.776050 0.089205
0.350751 0.778365 0.091843
0.415540 0.782322 0.091239
0.483027 0.786328 0.091247
0.552346 0.790351 0.092559
0.622389 0.794200 0.095246
0.691681 0.797831 0.099429
0.758992 0.801031 0.105141
0.823170 0.804460 0.112050
0.883417 0.808161 0.118488
0.937950 0.812011 0.124431
0.982172 0.816253 0.130628
0.173750 0.838249 0.098949
0.204488 0.838349 0.099708
0.242082 0.838744 0.101069
0.287477 0.839678 0.103285
0.339014 0.840754 0.105655
0.394672 0.843585 0.105676
0.454389 0.846787 0.105268
0.517321 0.849929 0.105768
0.582254 0.853024 0.107295
0.647943 0.855921 0.109938
0.713035 0.858771 0.113749
0.776216 0.861329 0.118751
0.836477 0.864025 0.124781
0.892682 0.866487 0.131181
0.943436 0.869399 0.137086
0.985042 0.872423 0.143105
0.249059 0.895974 0.120355
0.276992 0.896281 0.120980
0.310140 0.896610 0.122033
0.349265 0.897772 0.122387
0.394020 0.899702 0.121945
0.444138 0.901846 0.121746
0.498614 0.903981 0.122060
0.556393 0.906432 0.123098
0.616208 0.908775 0.124880
0.676929 0.910926 0.127535
0.737014 0.913037 0.131117
0.795472 0.914971 0.135604
0.851259 0.916959 0.140812
0.903641 0.918763 0.146544
0.950497 0.920847 0.152201
0.989096 0.922962 0.157899
0.316560 0.946562 0.139805
0.342717 0.947010 0.139660
0.372931 0.947423 0.139530
0.408263 0.948504 0.139452
0.449048 0.949537 0.139484
0.494575 0.950931 0.139869
0.544094 0.952433 0.140639
0.596697 0.954022 0.141982
0.651342 0.955543 0.143995
0.706611 0.957072 0.146709
0.761630 0.958535 0.150165
0.815172 0.959862 0.154225
0.866244 0.961291 0.158788
0.914496 0.962433 0.163741
0.957806 0.964193 0.168953
0.993573 0.965789 0.174171
0.001401 0.000119 0.052083
0.028203 0.000499 0.050480
0.070841 0.001467 0.050080
0.121108 0.003472 0.051282
0.174879 0.006526 0.053644
0.231895 0.010419 0.056873
0.293261 0.014660 0.060857
0.360236 0.017979 0.065580
0.432685 0.019748 0.071194
0.509756 0.019360 0.077597
0.590021 0.016605 0.084656
0.671882 0.011880 0.092180
0.753668 0.006867 0.099955
0.833215 0.004570 0.107566
0.908580 0.007997 0.114873
0.972948 0.022697 0.121625
0.001356 0.024452 0.049805
0.026982 0.025055 0.050678
0.070248 0.027229 0.050770
0.120601 0.030617 0.052488
0.174741 0.034583 0.055105
0.232162 0.038957 0.058357
0.294111 0.043157 0.062177
0.361734 0.046365 0.066747
0.434663 0.048262 0.072135
0.511741 0.048444 0.078465
0.591891 0.046619 0.085472
0.673659 0.043205 0.092955
0.755152 0.039520 0.100575
0.834410 0.038451 0.108154
0.909680 0.044133 0.115358
0.973436 0.058804 0.121975
0.002636 0.066619 0.050418
0.029540 0.067119 0.051322
0.071253 0.068442 0.053150
0.121540 0.071566 0.054959
0.176352 0.075238 0.057369
0.234333 0.079319 0.060440
0.296744 0.083478 0.064148
0.364611 0.087091 0.068711
0.437628 0.089545 0.074018
0.515111 0.090499 0.080055
0.595252 0.090153 0.086910
0.676661 0.088899 0.094239
0.757850 0.087980 0.101709
0.836794 0.089590 0.109061
0.911411 0.096382 0.116123
0.974667 0.110108 0.122645
0.005518 0.117638 0.054089
0.033256 0.118302 0.055157
0.075058 0.119037 0.057490
0.124477 0.122409 0.058877
0.179106 0.126110 0.061080
0.237642 0.130173 0.063846
0.300817 0.134300 0.067354
0.369306 0.138097 0.071690
0.442651 0.141183 0.076786
0.520066 0.143444 0.082660
0.600152 0.144842 0.089151
0.681448 0.145932 0.096095
0.762013 0.147695 0.103287
0.840294 0.151478 0.110456
0.914193 0.158803 0.117259
0.976293 0.171046 0.123541
0.008781 0.173496 0.059615
0.037209 0.174385 0.060395
0.078848 0.175204 0.062501
0.128664 0.178315 0.063939
0.183366 0.182242 0.065523
0.242379 0.186363 0.068353
0.306270 0.190855 0.071769
0.375327 0.195196 0.075858
0.448857 0.199273 0.080736
0.526139 0.202950 0.086332
0.606007 0.206219 0.092528
0.686845 0.209371 0.099011
0.766924 0.213072 0.105633
0.844528 0.218240 0.112262
0.917581 0.226092 0.118711
0.978118 0.237542 0.124696
0.009617 0.235217 0.065940
0.038748 0.236051 0.066728
0.080560 0.237489 0.068078
0.132030 0.240183 0.069689
0.187671 0.244403 0.070824
0.248154 0.248973 0.072975
0.313054 0.253689 0.076611
0.382649 0.258701 0.080716
0.456433 0.263740 0.085342
0.533580 0.268580 0.090606
0.612956 0.273281 0.096433
0.693080 0.277995 0.102568
0.772193 0.283166 0.108888
0.848633 0.289545 0.115185
0.919994 0.297906 0.121350
0.979114 0.309074 0.127220
0.003260 0.304253 0.071963
0.031938 0.305069 0.072621
0.077519 0.306513 0.073883
0.132917 0.308962 0.075794
0.191257 0.313045 0.076898
0.253747 0.318068 0.078259
0.320572 0.323270 0.080918
0.391066 0.328399 0.085414
0.465049 0.333983 0.090133
0.542039 0.339583 0.095152
0.620860 0.345167 0.100597
0.700014 0.350882 0.106423
0.777971 0.357037 0.112401
0.852792 0.364139 0.118364
0.922629 0.372744 0.124364
0.979695 0.383569 0.130252
0.000071 0.379586 0.077351
0.016185 0.380319 0.078043
0.067545 0.381734 0.079294
0.130722 0.383902 0.081394
0.194475 0.387325 0.083540
0.259508 0.392504 0.084302
0.328169 0.398021 0.085899
0.400181 0.403652 0.089092
0.474619 0.409133 0.094505
0.551396 0.414971 0.099667
0.629385 0.421089 0.104917
0.707641 0.427349 0.110423
0.783860 0.433872 0.116087
0.857207 0.441277 0.121755
0.924949 0.449804 0.127597
0.980265 0.459957 0.133462
0.000000 0.459321 0.082475
0.010000 0.460006 0.083180
0.054265 0.461145 0.084515
0.128118 0.463203 0.086632
0.198227 0.465990 0.089627
0.266675 0.470616 0.090880
0.336913 0.476411 0.091599
0.410074 0.482164 0.093652
0.485263 0.487838 0.097601
0.561627 0.493400 0.103643
0.638750 0.499429 0.109199
0.715499 0.505659 0.114601
0.790246 0.512350 0.120023
0.861485 0.519521 0.125422
0.927222 0.527606 0.131112
0.980462 0.536969 0.137012
0.000000 0.541209 0.087856
0.009716 0.541811 0.088603
0.050594 0.542890 0.089971
0.131370 0.544669 0.092189
0.205755 0.547078 0.095325
0.277111 0.550832 0.097907
0.348211 0.556385 0.098020
0.421741 0.562104 0.099135
0.497079 0.567751 0.101891
0.573283 0.573190 0.106734
0.649206 0.578581 0.113183
0.724104 0.584474 0.118987
0.796917 0.590674 0.124446
0.865956 0.597378 0.129688
0.929146 0.604772 0.135242
0.980370 0.612881 0.141186
0.000100 0.622671 0.094379
0.013628 0.623140 0.095160
0.070334 0.624149 0.096560
0.148608 0.625629 0.098829
0.221852 0.627751 0.102023
0.293456 0.630797 0.105362
0.364338 0.635787 0.105411
0.437116 0.641140 0.105916
0.511620 0.646559 0.107810
0.586772 0.651561 0.111469
0.661230 0.656496 0.117123
0.734041 0.661597 0.123820
0.804496 0.667000 0.129660
0.870928 0.672857 0.135014
0.931447 0.679257 0.140511
0.980535 0.686087 0.146500
0.019434 0.701019 0.103306
0.059648 0.701557 0.104111
0.118326 0.702156 0.105502
0.183314 0.703533 0.107737
0.250327 0.705402 0.110936
0.318613 0.707781 0.114269
0.387224 0.712181 0.114258
0.458010 0.717129 0.114460
0.530361 0.721845 0.115943
0.603306 0.726267 0.118890
0.675690 0.730561 0.123496
0.746086 0.734775 0.129817
0.813441 0.739198 0.136347
0.876818 0.743922 0.142051
0.934497 0.749191 0.147581
0.981045 0.754498 0.153530
0.098806 0.773748 0.115903
0.134953 0.774236 0.116621
0.179445 0.774874 0.118009
0.232481 0.775839 0.120170
0.291388 0.777088 0.123253
0.353752 0.779569 0.125529
0.418148 0.783376 0.125121
0.485358 0.787481 0.125379
0.554409 0.791411 0.126821
0.624218 0.795239 0.129472
0.693297 0.798766 0.133503
0.760428 0.802098 0.138894
0.824313 0.805476 0.145358
0.884396 0.808998 0.151478
0.938745 0.812942 0.157063
0.982691 0.817113 0.162966
0.177912 0.839234 0.132562
0.208545 0.839420 0.133279
0.245766 0.839934 0.134527
0.290774 0.840695 0.136567
0.341984 0.841896 0.138693
0.397248 0.844655 0.138725
0.456744 0.847692 0.138533
0.519456 0.850857 0.139171
0.584102 0.853942 0.140769
0.649586 0.857010 0.143379
0.714516 0.859796 0.147042
0.777641 0.862383 0.151839
0.837488 0.864754 0.157535
0.893787 0.867286 0.163638
0.944279 0.870202 0.169261
0.985789 0.873201 0.174989
0.252090 0.897018 0.152773
0.280001 0.897239 0.153355
0.312987 0.897612 0.154312
0.351915 0.898791 0.154544
0.396467 0.900678 0.154249
0.446366 0.902739 0.154139
0.500668 0.904881 0.154604
0.558280 0.907384 0.155675
0.617920 0.909792 0.157514
0.678394 0.911734 0.160130
0.738307 0.913729 0.163576
0.796740 0.915847 0.167909
0.852244 0.917590 0.172846
0.904456 0.919475 0.178311
0.950930 0.921493 0.183777
0.989600 0.923796 0.189212
0.318906 0.947472 0.171246
0.344983 0.947878 0.171127
0.375118 0.948420 0.171047
0.410510 0.949332 0.171002
0.451138 0.950322 0.171158
0.496485 0.951725 0.171564
0.545844 0.953269 0.172432
0.598288 0.954797 0.173800
0.652705 0.956186 0.175799
0.707977 0.957698 0.178440
0.762794 0.959188 0.181835
0.816095 0.960515 0.185726
0.867009 0.961799 0.190146
0.915280 0.963282 0.194904
0.958189 0.964690 0.199918
0.993807 0.966457 0.204975
0.003310 0.000292 0.098580
0.032577 0.000739 0.097027
0.076138 0.001938 0.095235
0.128076 0.003784 0.095425
0.182199 0.006908 0.096742
0.239171 0.011093 0.099274
0.300434 0.015422 0.102897
0.367105 0.018869 0.107450
0.439258 0.020637 0.112908
0.515909 0.020324 0.119105
0.595723 0.017692 0.125851
0.677104 0.013302 0.133013
0.758196 0.008597 0.140345
0.837142 0.006817 0.147657
0.912028 0.011739 0.154636
0.975181 0.026820 0.161133
0.002843 0.026062 0.096234
0.030499 0.026173 0.097177
0.075653 0.028334 0.095950
0.127929 0.031633 0.095909
0.181965 0.036045 0.097537
0.238981 0.040590 0.100415
0.300756 0.044751 0.104118
0.368471 0.047741 0.108494
0.441127 0.049468 0.113758
0.517789 0.049644 0.119901
0.597528 0.047980 0.126600
0.678727 0.044814 0.133694
0.759714 0.041711 0.140988
0.838460 0.041510 0.148180
0.912968 0.047878 0.155127
0.975776 0.062826 0.161484
0.004252 0.070157 0.094482
0.032063 0.070938 0.095054
0.075273 0.071944 0.096254
0.127732 0.074591 0.097062
0.181918 0.078277 0.099387
0.239692 0.082267 0.102493
0.302004 0.086325 0.106333
0.369918 0.089722 0.110803
0.443120 0.091851 0.115904
0.520783 0.092197 0.121441
0.600739 0.091745 0.127879
0.681597 0.090696 0.134879
0.762238 0.090225 0.142032
0.840553 0.092430 0.149140
0.914438 0.099738 0.155932
0.976876 0.113562 0.162138
0.005625 0.123126 0.095933
0.034588 0.123757 0.096527
0.078918 0.123975 0.098227
0.129979 0.125896 0.100635
0.184272 0.129510 0.102729
0.242852 0.133253 0.105531
0.306132 0.137093 0.109095
0.374524 0.140663 0.113437
0.447668 0.143623 0.118566
0.524780 0.145808 0.124273
0.604698 0.147069 0.130395
0.685881 0.147972 0.136818
0.766071 0.149850 0.143613
0.843647 0.154011 0.150500
0.916953 0.161648 0.157046
0.978306 0.173933 0.163050
0.008405 0.179450 0.099660
0.037858 0.180161 0.100317
0.082556 0.180135 0.102633
0.134373 0.181397 0.105706
0.188321 0.185368 0.107348
0.247226 0.189410 0.109975
0.311332 0.193676 0.113208
0.380442 0.197847 0.117195
0.453940 0.201617 0.121952
0.531121 0.205140 0.127373
0.610585 0.208255 0.133298
0.690945 0.211462 0.139591
0.770426 0.215263 0.146030
0.847618 0.220584 0.152430
0.919878 0.228544 0.158558
0.979853 0.240086 0.164272
0.009794 0.240712 0.105322
0.039970 0.241476 0.105984
0.083311 0.242542 0.107482
0.137967 0.243161 0.111214
0.192866 0.247127 0.112861
0.252902 0.251808 0.114770
0.317749 0.256445 0.118160
0.387362 0.261325 0.121938
0.461103 0.266171 0.126373
0.538154 0.270844 0.131454
0.617150 0.275413 0.137093
0.696830 0.280081 0.143067
0.775506 0.285319 0.149194
0.851490 0.291733 0.155222
0.922406 0.300157 0.161102
0.981013 0.311282 0.166696
0.006480 0.308416 0.112205
0.037389 0.309133 0.112854
0.082589 0.310462 0.114045
0.138546 0.312203 0.116612
0.196783 0.315657 0.118662
0.258668 0.320681 0.120136
0.325146 0.325771 0.122667
0.395436 0.330890 0.126876
0.469260 0.336298 0.131319
0.546109 0.341780 0.136138
0.624600 0.347342 0.141405
0.703371 0.353018 0.146954
0.780877 0.359069 0.152676
0.855574 0.366128 0.158369
0.924740 0.374851 0.164092
0.981375 0.385565 0.169566
0.000412 0.382574 0.118861
0.026047 0.383221 0.119515
0.077061 0.384564 0.120696
0.137866 0.386632 0.122638
0.200293 0.389947 0.124689
0.264633 0.395097 0.125753
0.332841 0.400520 0.127581
0.404529 0.405921 0.130859
