luts/TENET-YELLOW.cube
LUT_3D_SIZE 16
0.000000 0.000000 0.000000
0.054611 0.000581 0.000007
0.123495 0.001772 0.000009
0.196750 0.003970 0.000040
0.266941 0.007147 0.000106
0.335100 0.011254 0.000239
0.403213 0.015616 0.000483
0.472708 0.019256 0.000939
0.543649 0.021007 0.001709
0.615755 0.020384 0.002792
0.688018 0.017187 0.004151
0.759557 0.011429 0.005731
0.829398 0.005599 0.007513
0.896778 0.002372 0.009427
0.956424 0.005755 0.011379
0.993531 0.021444 0.013312
0.001476 0.041613 0.000020
0.056455 0.043343 0.000028
0.125014 0.046062 0.000050
0.198215 0.049554 0.000089
0.268294 0.053561 0.000180
0.336483 0.058037 0.000336
0.404735 0.062229 0.000620
0.474214 0.065676 0.001090
0.545279 0.067566 0.001908
0.617307 0.067636 0.003005
0.689428 0.065750 0.004367
0.760733 0.062129 0.005939
0.830567 0.057941 0.007712
0.897617 0.056336 0.009616
0.956790 0.061660 0.011542
0.993705 0.075540 0.013442
0.004141 0.100684 0.000099
0.059642 0.102196 0.000130
0.127674 0.104736 0.000148
0.200293 0.107824 0.000228
0.270167 0.111464 0.000342
0.338450 0.115271 0.000549
0.406898 0.119079 0.000885
0.476682 0.122358 0.001442
0.547818 0.124520 0.002264
0.619815 0.125444 0.003355
0.691699 0.125114 0.004713
0.762924 0.123889 0.006293
0.832276 0.122894 0.008035
0.898987 0.124016 0.009903
0.957916 0.129564 0.011799
0.994090 0.140776 0.013642
0.007675 0.165610 0.000322
0.064600 0.166537 0.000374
0.131590 0.168611 0.000433
0.203562 0.171464 0.000504
0.273129 0.174526 0.000695
0.341477 0.177965 0.000969
0.410229 0.181505 0.001396
0.480173 0.184698 0.002037
0.551371 0.187292 0.002897
0.623265 0.189148 0.003977
0.695131 0.190227 0.005275
0.765980 0.191035 0.006788
0.835090 0.192319 0.008493
0.901319 0.195238 0.010324
0.959217 0.200816 0.012156
0.994547 0.210192 0.013939
0.010422 0.230868 0.000785
0.068434 0.231627 0.000865
0.135837 0.233112 0.000989
0.207267 0.235757 0.001067
0.276939 0.238783 0.001246
0.345551 0.242072 0.001659
0.414686 0.245552 0.002182
0.484867 0.248998 0.002861
0.556028 0.252277 0.003741
0.627704 0.255053 0.004830
0.699148 0.257529 0.006106
0.769730 0.259923 0.007558
0.838330 0.262672 0.009165
0.903976 0.266512 0.010856
0.960901 0.272293 0.012612
0.995097 0.280691 0.014326
0.008904 0.298056 0.001534
0.068204 0.298667 0.001647
0.137584 0.299872 0.001845
0.210201 0.302071 0.002026
0.280366 0.305302 0.002151
0.350127 0.308741 0.002464
0.419932 0.312256 0.003095
0.490336 0.315974 0.003848
0.561428 0.319757 0.004726
0.632930 0.323345 0.005797
0.703947 0.326825 0.007065
0.773835 0.330242 0.008496
0.841615 0.334034 0.010058
0.906538 0.338597 0.011702
0.962259 0.344529 0.013396
0.995493 0.352451 0.015104
0.001332 0.368087 0.002443
0.058027 0.368711 0.002575
0.133376 0.369686 0.002804
0.210605 0.371513 0.003155
0.283156 0.374448 0.003324
0.354382 0.378074 0.003485
0.425495 0.381866 0.003924
0.496412 0.385621 0.004812
0.567592 0.389638 0.005780
0.638705 0.393643 0.006857
0.709177 0.397685 0.008095
0.778435 0.401735 0.009500
0.845396 0.406013 0.011013
0.909403 0.410959 0.012613
0.963528 0.417013 0.014297
0.995668 0.424448 0.016012
0.000000 0.440656 0.003374
0.042344 0.441126 0.003496
0.120568 0.442127 0.003765
0.207768 0.443649 0.004177
0.285440 0.445926 0.004633
0.358692 0.449596 0.004703
0.431031 0.453566 0.004925
0.502920 0.457506 0.005541
0.574219 0.461292 0.006710
0.645018 0.465390 0.007905
0.714951 0.469588 0.009156
0.783274 0.473957 0.010536
0.849287 0.478527 0.012010
0.912294 0.483512 0.013565
0.964760 0.489371 0.015244
0.995797 0.496217 0.016989
0.000000 0.514586 0.004248
0.040081 0.514997 0.004419
0.103208 0.515929 0.004686
0.204120 0.517207 0.005152
0.287993 0.519074 0.005815
0.364025 0.522236 0.006094
0.437370 0.526151 0.006116
0.509958 0.530180 0.006482
0.581540 0.534024 0.007332
0.651968 0.537859 0.008809
0.721124 0.541892 0.010208
0.788507 0.546158 0.011606
0.853327 0.550580 0.013080
0.915012 0.555472 0.014606
0.965746 0.560910 0.016264
0.995951 0.567051 0.018078
0.000000 0.588565 0.005229
0.040072 0.588966 0.005403
0.096821 0.589672 0.005707
0.205978 0.590888 0.006231
0.293536 0.592514 0.006965
0.371796 0.594962 0.007630
0.445605 0.598656 0.007545
0.518296 0.602518 0.007698
0.589731 0.606329 0.008272
0.659829 0.609988 0.009460
0.727982 0.613527 0.011162
0.794173 0.617442 0.012754
0.857526 0.621578 0.014289
0.917772 0.625995 0.015810
0.966789 0.630816 0.017494
0.995964 0.636167 0.019364
0.000000 0.661075 0.006542
0.041458 0.661520 0.006741
0.117574 0.662006 0.007079
0.220979 0.662978 0.007639
0.306337 0.664425 0.008444
0.384041 0.666356 0.009349
0.457319 0.669742 0.009310
0.529053 0.673132 0.009299
0.599733 0.676798 0.009698
0.668797 0.680159 0.010592
0.736055 0.683323 0.012120
0.800635 0.686560 0.014027
0.862420 0.690194 0.015746
0.920818 0.693910 0.017369
0.967945 0.698054 0.019072
0.995872 0.702497 0.021008
0.017435 0.730674 0.008587
0.081477 0.730905 0.008787
0.167755 0.731450 0.009163
0.251399 0.732193 0.009759
0.329035 0.733329 0.010628
0.403071 0.734972 0.011597
0.473926 0.737873 0.011543
0.543721 0.740830 0.011476
0.612470 0.744047 0.011782
0.679935 0.746969 0.012529
0.745316 0.749865 0.013797
0.808281 0.752493 0.015671
0.868231 0.755186 0.017695
0.924742 0.758423 0.019488
0.969453 0.761650 0.021277
0.996149 0.765134 0.023270
0.100208 0.795699 0.011815
0.159539 0.796067 0.012029
0.224922 0.796400 0.012420
0.292707 0.797009 0.013050
0.361276 0.797968 0.013961
0.429295 0.799474 0.014702
0.496114 0.801961 0.014509
0.562727 0.804456 0.014478
0.628876 0.806965 0.014790
0.693800 0.809481 0.015516
0.756754 0.811741 0.016698
0.817478 0.813816 0.018355
0.875189 0.815973 0.020450
0.929162 0.818312 0.022485
0.971408 0.820740 0.024397
0.996565 0.823319 0.026462
0.175605 0.855554 0.016639
0.227148 0.855851 0.016869
0.281519 0.856012 0.017261
0.339552 0.856544 0.017899
0.400042 0.857293 0.018644
0.461328 0.858968 0.018645
0.523507 0.861035 0.018481
0.586347 0.862887 0.018601
0.648900 0.864868 0.019026
0.710560 0.866838 0.019802
0.770550 0.868723 0.020968
0.828437 0.870208 0.022540
0.883457 0.871939 0.024481
0.934740 0.873443 0.026638
0.973911 0.875316 0.028664
0.997335 0.877125 0.030781
0.241414 0.910187 0.023153
0.287352 0.910359 0.023355
0.335695 0.910438 0.023713
0.386909 0.911279 0.023864
0.440687 0.912515 0.023710
0.496741 0.913904 0.023599
0.554401 0.915349 0.023676
0.612890 0.916693 0.023988
0.671515 0.918283 0.024553
0.729382 0.919587 0.025433
0.785923 0.920877 0.026613
0.840628 0.922245 0.028122
0.892631 0.923348 0.029945
0.940683 0.924571 0.031991
0.976913 0.925803 0.034073
0.998203 0.927362 0.036176
0.296951 0.959991 0.029731
0.339506 0.960455 0.029675
0.383880 0.960797 0.029627
0.430856 0.961278 0.029581
0.480550 0.961947 0.029587
0.532299 0.962872 0.029689
0.585690 0.964107 0.029933
0.640075 0.965167 0.030409
0.694645 0.965979 0.031117
0.748716 0.967114 0.032086
0.801645 0.967944 0.033303
0.852968 0.968858 0.034811
0.901924 0.969856 0.036507
0.946772 0.970885 0.038364
0.980065 0.971790 0.040355
0.999074 0.973106 0.042403
0.001142 0.000267 0.006840
0.059600 0.000915 0.006578
0.128152 0.002537 0.006836
0.200322 0.005084 0.007307
0.269602 0.008523 0.007971
0.337410 0.012840 0.008836
0.405165 0.017377 0.009930
0.474469 0.020856 0.011299
0.545249 0.022546 0.012935
0.617171 0.021955 0.014840
0.689219 0.018873 0.017008
0.760677 0.013288 0.019371
0.830428 0.007262 0.021896
0.897604 0.004161 0.024516
0.956895 0.007803 0.027113
0.993814 0.023616 0.029589
0.002141 0.044930 0.006614
0.059547 0.045861 0.006905
0.128416 0.048456 0.007200
0.201063 0.051633 0.007666
0.270603 0.055515 0.008331
0.338550 0.059766 0.009182
0.406476 0.063866 0.010271
0.475906 0.067090 0.011609
0.546773 0.069036 0.013242
0.618574 0.069077 0.015124
0.690523 0.067202 0.017280
0.761838 0.063675 0.019636
0.831464 0.059733 0.022154
0.898344 0.058310 0.024734
0.957500 0.063763 0.027300
0.994008 0.077297 0.029736
0.005748 0.103558 0.007359
0.062922 0.104442 0.007691
0.130345 0.106845 0.007943
0.202595 0.109698 0.008423
0.272199 0.113140 0.009041
0.340343 0.116833 0.009888
0.408540 0.120513 0.010927
0.478199 0.123687 0.012233
0.549196 0.125789 0.013791
0.620997 0.126658 0.015625
0.692854 0.126302 0.017739
0.763946 0.125096 0.020077
0.833183 0.124152 0.022565
0.899885 0.125323 0.025097
0.958311 0.130878 0.027606
0.994308 0.142023 0.030013
0.009750 0.167530 0.008595
0.067256 0.168374 0.008890
0.134214 0.170209 0.009166
0.205519 0.172995 0.009495
0.274878 0.175962 0.010167
0.343082 0.179276 0.010970
0.411708 0.182682 0.011988
0.481657 0.185809 0.013242
0.552625 0.188299 0.014752
0.624422 0.190117 0.016515
0.696189 0.191182 0.018505
0.767020 0.191981 0.020725
0.835909 0.193259 0.023123
0.902043 0.196123 0.025600
0.959685 0.201750 0.028044
0.994799 0.211098 0.030355
0.013195 0.232268 0.010181
0.071416 0.232978 0.010407
0.138171 0.234427 0.010749
0.209067 0.236987 0.010994
0.278530 0.239968 0.011469
0.346974 0.243099 0.012321
0.416018 0.246521 0.013346
0.486123 0.249935 0.014546
0.557191 0.253125 0.016002
0.628740 0.255904 0.017716
0.700135 0.258325 0.019642
0.770597 0.260700 0.021729
0.839044 0.263409 0.023975
0.904584 0.267212 0.026280
0.961307 0.273019 0.028611
0.995332 0.281395 0.030822
0.011989 0.299136 0.011876
0.071291 0.299770 0.012092
0.139997 0.300944 0.012476
0.212008 0.303147 0.012853
0.281960 0.306242 0.013118
0.351518 0.309633 0.013707
0.421141 0.313060 0.014822
0.491560 0.316806 0.016057
0.562588 0.320519 0.017464
0.633913 0.324123 0.019098
0.704810 0.327479 0.020953
0.774653 0.330933 0.022981
0.842442 0.334623 0.025139
0.907300 0.339200 0.027353
0.962645 0.345125 0.029588
0.995621 0.353049 0.031796
0.002683 0.369027 0.013552
0.061610 0.369631 0.013780
0.136035 0.370621 0.014168
0.212570 0.372342 0.014745
0.284708 0.375333 0.015043
0.355771 0.378907 0.015370
0.426756 0.382609 0.016125
0.497585 0.386392 0.017514
0.568566 0.390280 0.018987
0.639630 0.394247 0.020589
0.710071 0.398267 0.022364
0.779130 0.402323 0.024312
0.845963 0.406580 0.026392
0.910065 0.411588 0.028519
0.963861 0.417540 0.030722
0.995777 0.424913 0.032935
0.000000 0.441439 0.015127
0.044209 0.441940 0.015337
0.124533 0.442853 0.015739
0.210102 0.444402 0.016402
0.287111 0.446654 0.017091
0.360079 0.450313 0.017245
0.432291 0.454235 0.017653
0.504067 0.458142 0.018634
0.575176 0.461860 0.020357
0.645956 0.466004 0.022060
0.715613 0.470163 0.023821
0.783857 0.474451 0.025711
0.850043 0.479022 0.027709
0.912676 0.483950 0.029750
0.965103 0.489799 0.031914
0.995856 0.496598 0.034170
0.000000 0.515117 0.016598
0.040127 0.515660 0.016827
0.108362 0.516527 0.017249
0.207068 0.517789 0.017952
0.289768 0.519730 0.018935
0.365457 0.522876 0.019327
0.438610 0.526796 0.019440
0.511022 0.530765 0.020019
0.582509 0.534581 0.021282
0.652890 0.538306 0.023325
0.721796 0.542399 0.025251
0.789069 0.546612 0.027152
0.853934 0.551079 0.029115
0.915494 0.555866 0.031090
0.966047 0.561273 0.033236
0.995995 0.567523 0.035535
0.000000 0.589124 0.018156
0.040082 0.589532 0.018407
0.102925 0.590284 0.018853
0.209129 0.591437 0.019599
0.295507 0.593066 0.020661
0.373220 0.595469 0.021576
0.446853 0.599191 0.021506
0.519335 0.603031 0.021785
0.590665 0.606770 0.022628
0.660576 0.610447 0.024293
0.728664 0.613983 0.026582
0.794844 0.617915 0.028683
0.858202 0.622000 0.030685
0.918258 0.626398 0.032663
0.967104 0.631195 0.034802
0.996017 0.636556 0.037133
0.000000 0.661591 0.020146
0.042532 0.661952 0.020405
0.123617 0.662547 0.020887
0.223969 0.663553 0.021684
0.308223 0.664879 0.022790
0.385495 0.666839 0.023998
0.458493 0.670181 0.023965
0.530097 0.673640 0.024030
0.600591 0.677176 0.024607
0.669596 0.680502 0.025863
0.736670 0.683718 0.027891
0.801162 0.687019 0.030382
0.862885 0.690504 0.032590
0.921287 0.694229 0.034658
0.968202 0.698373 0.036794
0.996086 0.702892 0.039173
0.021661 0.731104 0.023065
0.087144 0.731300 0.023330
0.171786 0.731854 0.023824
0.253834 0.732583 0.024654
0.330780 0.733732 0.025801
0.404424 0.735400 0.027058
0.475056 0.738126 0.027025
0.544682 0.741351 0.026972
0.613312 0.744471 0.027425
0.680671 0.747374 0.028452
0.746049 0.750112 0.030137
0.808854 0.752733 0.032535
0.868501 0.755560 0.035086
0.925040 0.758646 0.037326
0.969682 0.761998 0.039523
0.996226 0.765409 0.041929
0.103730 0.796189 0.027444
0.162637 0.796421 0.027706
0.227294 0.796819 0.028225
0.294600 0.797510 0.029057
0.362790 0.798267 0.030218
0.430535 0.799810 0.031142
0.497156 0.802223 0.030940
0.563626 0.804803 0.030938
0.629600 0.807404 0.031405
0.694386 0.809806 0.032356
0.757443 0.812121 0.033867
0.817916 0.814143 0.035973
0.875514 0.816252 0.038555
0.929496 0.818514 0.041007
0.971543 0.821117 0.043299
0.996765 0.823686 0.045724
0.177737 0.855879 0.033693
0.228999 0.856131 0.033972
0.283115 0.856430 0.034469
0.340984 0.856838 0.035281
0.401198 0.857838 0.036165
0.462397 0.859280 0.036175
0.524494 0.861318 0.036029
0.587134 0.863377 0.036208
0.649526 0.865397 0.036764
0.711030 0.867195 0.037764
0.771071 0.869021 0.039199
0.828769 0.870492 0.041105
0.883753 0.872083 0.043432
0.934948 0.873756 0.045934
0.974106 0.875490 0.048278
0.997409 0.877548 0.050691
0.242866 0.910667 0.041717
0.288655 0.910635 0.041960
0.336910 0.910993 0.042365
0.388023 0.911582 0.042500
0.441721 0.912777 0.042335
0.497650 0.914117 0.042254
0.555159 0.915733 0.042375
0.613597 0.917157 0.042776
0.672069 0.918527 0.043467
0.729874 0.919795 0.044505
0.786402 0.921266 0.045908
0.841043 0.922497 0.047678
0.892896 0.923598 0.049766
0.941049 0.924860 0.052093
0.977174 0.926276 0.054425
0.998316 0.927747 0.056772
0.298009 0.960353 0.049362
0.340454 0.960691 0.049316
0.384813 0.960998 0.049257
0.431747 0.961691 0.049223
0.481322 0.962428 0.049241
0.533055 0.963389 0.049390
0.586342 0.964287 0.049700
0.640689 0.965318 0.050241
0.695131 0.966209 0.051053
0.749224 0.967307 0.052163
0.802013 0.968385 0.053561
0.853190 0.969211 0.055235
0.902190 0.970163 0.057125
0.946909 0.971098 0.059198
0.980180 0.972218 0.061402
0.999187 0.973280 0.063615
0.003426 0.000425 0.025480
0.063883 0.001092 0.024877
0.134272 0.002750 0.024724
0.205801 0.005630 0.025181
0.274259 0.009522 0.026074
0.341370 0.014061 0.027291
0.408764 0.018709 0.028794
0.477645 0.022181 0.030600
0.548200 0.023994 0.032729
0.619680 0.023595 0.035192
0.691528 0.020762 0.037920
0.762623 0.015695 0.040815
0.832130 0.009923 0.043849
0.898985 0.007070 0.046875
0.957883 0.011280 0.049815
0.994120 0.026942 0.052591
0.003323 0.047434 0.024624
0.062443 0.048072 0.024951
0.133695 0.050300 0.024990
0.205374 0.053720 0.025634
0.274161 0.057626 0.026618
0.341617 0.061832 0.027850
0.409419 0.065792 0.029295
0.478844 0.068761 0.031031
0.549480 0.070493 0.033105
0.621000 0.070668 0.035534
0.692715 0.068988 0.038230
0.763618 0.065836 0.041116
0.832994 0.062368 0.044092
0.899724 0.061347 0.047107
0.958365 0.066708 0.050012
0.994337 0.079940 0.052719
0.005734 0.107842 0.024851
0.065441 0.108300 0.025196
0.134681 0.109458 0.025883
0.206181 0.112183 0.026564
0.275451 0.115378 0.027480
0.343271 0.118864 0.028636
0.411347 0.122373 0.030047
0.480859 0.125391 0.031792
0.551650 0.127426 0.033833
0.623271 0.128215 0.036149
0.694866 0.127937 0.038776
0.765669 0.126907 0.041611
0.834716 0.126140 0.044543
0.901208 0.127482 0.047469
0.959217 0.133018 0.050340
0.994704 0.144094 0.052992
0.010464 0.171298 0.026234
0.069684 0.171836 0.026643
0.138372 0.172410 0.027521
0.208741 0.175053 0.028050
0.277647 0.177973 0.028885
0.345807 0.181127 0.029929
0.414376 0.184350 0.031267
0.484167 0.187300 0.032923
0.555035 0.189719 0.034899
0.626555 0.191460 0.037149
0.698013 0.192537 0.039644
0.768603 0.193398 0.042333
0.837381 0.194763 0.045159
0.903347 0.197671 0.048034
0.960406 0.203295 0.050791
0.995132 0.212671 0.053372
0.015276 0.235101 0.028326
0.074111 0.235745 0.028624
0.142068 0.236404 0.029422
0.212349 0.238701 0.029969
0.281123 0.241639 0.030566
0.349464 0.244794 0.031653
0.418390 0.248078 0.032961
0.488422 0.251342 0.034537
0.559328 0.254397 0.036404
0.630738 0.257101 0.038571
0.701888 0.259568 0.040946
0.772191 0.261931 0.043474
0.840392 0.264619 0.046093
0.905873 0.268449 0.048759
0.962180 0.274227 0.051377
0.995627 0.282635 0.053848
0.016439 0.301091 0.030740
0.075807 0.301709 0.031032
0.143705 0.302772 0.031548
0.215227 0.304719 0.032171
0.284616 0.307760 0.032597
0.353848 0.311094 0.033427
0.423389 0.314474 0.034833
0.493559 0.318126 0.036399
0.564464 0.321737 0.038186
0.635715 0.325227 0.040209
0.706459 0.328591 0.042466
0.776052 0.331976 0.044878
0.843664 0.335686 0.047398
0.908378 0.340198 0.049945
0.963377 0.346185 0.052471
0.995871 0.354125 0.054901
0.006824 0.370509 0.033031
0.068204 0.371053 0.033297
0.140788 0.372112 0.033776
0.215973 0.373800 0.034502
0.287445 0.376724 0.034934
0.358109 0.380257 0.035461
0.428883 0.383858 0.036478
0.499551 0.387508 0.038211
0.570434 0.391362 0.040020
0.641324 0.395332 0.041970
0.711586 0.399277 0.044106
0.780572 0.403287 0.046413
0.847270 0.407579 0.048813
0.911095 0.412457 0.051244
0.964533 0.418375 0.053709
0.996139 0.425883 0.056154
0.000310 0.442625 0.035103
0.049100 0.443160 0.035378
0.131018 0.444149 0.035856
0.214098 0.445665 0.036660
0.290018 0.447913 0.037488
0.362535 0.451518 0.037777
0.434445 0.455394 0.038394
0.505967 0.459143 0.039624
0.576978 0.462910 0.041716
0.647532 0.466946 0.043734
0.717173 0.471054 0.045807
0.785346 0.475300 0.048025
0.851026 0.479836 0.050309
0.913689 0.484846 0.052631
0.965673 0.490689 0.055054
0.996189 0.497577 0.057507
0.000000 0.516396 0.037075
0.040631 0.516825 0.037343
0.117525 0.517536 0.037862
0.211893 0.518927 0.038679
0.293035 0.520744 0.039820
0.367940 0.524017 0.040314
0.440748 0.527784 0.040587
0.512921 0.531703 0.041382
0.584216 0.535464 0.042926
0.654317 0.539214 0.045308
0.723194 0.543226 0.047526
0.790277 0.547415 0.049707
0.854933 0.551879 0.051924
0.916452 0.556648 0.054144
0.966686 0.562068 0.056529
0.996130 0.568200 0.058999
0.000000 0.590127 0.039142
0.040215 0.590555 0.039436
0.113669 0.591234 0.039967
0.214665 0.592411 0.040817
0.298953 0.594056 0.042035
0.375809 0.596463 0.043047
0.448986 0.600148 0.043092
0.521120 0.603908 0.043526
0.592238 0.607629 0.044611
0.662070 0.611223 0.046540
0.729950 0.614750 0.049133
0.795854 0.618613 0.051494
0.859176 0.622709 0.053731
0.919156 0.627157 0.055912
0.967769 0.631878 0.058258
0.996232 0.637242 0.060771
0.000434 0.662493 0.041672
0.045696 0.662853 0.041971
0.133785 0.663359 0.042519
0.229263 0.664387 0.043404
0.311731 0.665790 0.044664
0.388096 0.667773 0.045987
0.460628 0.670949 0.046014
0.531920 0.674481 0.046211
0.602148 0.677881 0.046973
0.670967 0.681191 0.048437
0.737726 0.684478 0.050737
0.802259 0.687640 0.053478
0.863831 0.691209 0.055905
0.922145 0.694922 0.058160
0.968602 0.699054 0.060501
0.996153 0.703477 0.063056
0.029166 0.731904 0.045171
0.097729 0.732216 0.045492
0.178563 0.732611 0.046047
0.258198 0.733476 0.046946
0.333982 0.734585 0.048226
0.406831 0.736233 0.049571
0.477035 0.739043 0.049569
0.546391 0.742089 0.049642
0.614766 0.745167 0.050255
0.681904 0.748129 0.051449
0.747051 0.750865 0.053339
0.809674 0.753447 0.055973
0.869459 0.756108 0.058730
0.925638 0.759233 0.061149
0.970045 0.762489 0.063517
0.996363 0.766005 0.066108
0.109757 0.796914 0.050241
0.168108 0.797023 0.050539
0.231580 0.797516 0.051093
0.297953 0.798165 0.051977
0.365483 0.798890 0.053245
0.432611 0.800507 0.054187
0.498899 0.802956 0.054031
0.565292 0.805486 0.054133
0.630991 0.808088 0.054725
0.695603 0.810267 0.055840
0.758518 0.812741 0.057522
0.818838 0.814780 0.059791
0.876330 0.816868 0.062575
0.930236 0.819132 0.065201
0.971950 0.821639 0.067633
0.996736 0.824194 0.070235
0.181456 0.856675 0.057128
0.232371 0.856844 0.057416
0.286140 0.857110 0.057952
0.343541 0.857564 0.058812
0.403415 0.858306 0.059722
0.464254 0.859972 0.059727
0.526037 0.862077 0.059645
0.588572 0.863953 0.059924
0.650792 0.865878 0.060599
0.712161 0.867730 0.061719
0.772070 0.869483 0.063300
0.829599 0.871121 0.065355
0.884528 0.872674 0.067836
0.935410 0.874402 0.070521
0.974432 0.876113 0.073039
0.997571 0.878030 0.075582
0.245400 0.911147 0.065773
0.291102 0.911372 0.066018
0.339125 0.911509 0.066446
0.389988 0.912227 0.066552
0.443448 0.913346 0.066403
0.499178 0.914834 0.066357
0.556587 0.916241 0.066568
0.614858 0.917589 0.067019
0.673130 0.918972 0.067829
0.731068 0.920358 0.068988
0.787305 0.921677 0.070514
0.841667 0.923081 0.072409
0.893590 0.924067 0.074636
0.941421 0.925412 0.077109
0.977481 0.926661 0.079573
0.998408 0.928297 0.082084
0.299866 0.960998 0.073913
0.342231 0.961046 0.073883
0.386449 0.961566 0.073817
0.433380 0.962070 0.073823
0.482797 0.962768 0.073867
0.534338 0.963732 0.074060
0.587562 0.964764 0.074443
0.641717 0.965771 0.075063
0.696147 0.966742 0.075962
0.750010 0.967949 0.077175
0.802758 0.968788 0.078678
0.853860 0.969755 0.080486
0.902707 0.970491 0.082504
0.947307 0.971568 0.084685
0.980449 0.972648 0.087045
0.999217 0.973683 0.089392
0.006921 0.000776 0.053748
0.068930 0.001562 0.053107
0.139447 0.003465 0.052355
0.211825 0.006023 0.052437
0.280159 0.009969 0.052992
0.346977 0.014820 0.054039
0.414051 0.019513 0.055561
0.482639 0.023093 0.057494
0.552661 0.024886 0.059835
0.623780 0.024576 0.062505
0.695187 0.021889 0.065433
0.765861 0.017250 0.068584
0.834929 0.011988 0.071846
0.901374 0.009865 0.075148
0.959484 0.015541 0.078348
0.994810 0.030973 0.081318
0.006118 0.049109 0.052776
0.066545 0.049212 0.053170
0.138991 0.051433 0.052647
0.211689 0.054720 0.052643
0.279918 0.059043 0.053315
0.346825 0.063381 0.054516
0.414323 0.067269 0.056079
0.483571 0.070021 0.057944
0.554029 0.071591 0.060190
0.625082 0.071759 0.062833
0.696316 0.070239 0.065777
0.766933 0.067320 0.068899
0.835792 0.064436 0.072147
0.902047 0.064249 0.075405
0.959886 0.070149 0.078566
0.995037 0.083441 0.081456
0.008463 0.110955 0.052039
0.068342 0.111661 0.052280
0.138617 0.112496 0.052780
0.211519 0.114817 0.053119
0.279950 0.117946 0.054094
0.347387 0.121354 0.055396
0.415192 0.124777 0.057020
0.484498 0.127577 0.058935
0.555261 0.129326 0.061116
0.627132 0.129621 0.063519
0.698431 0.129240 0.066342
0.768762 0.128372 0.069427
0.837430 0.127993 0.072612
0.903363 0.129784 0.075827
0.960706 0.135735 0.078925
0.995287 0.146871 0.081782
0.010622 0.175630 0.052647
0.071181 0.176141 0.052886
0.142137 0.176279 0.053606
0.213445 0.177810 0.054612
0.281886 0.180612 0.055489
0.349830 0.183537 0.056671
0.418253 0.186536 0.058191
0.487870 0.189275 0.060053
0.558511 0.191598 0.062261
0.629751 0.193304 0.064746
0.701049 0.194259 0.067437
0.771475 0.194959 0.070294
0.839836 0.196435 0.073336
0.905443 0.199585 0.076435
0.961801 0.205431 0.079441
0.995687 0.214805 0.082226
0.014729 0.239572 0.054196
0.074828 0.240100 0.054484
0.145625 0.240056 0.055452
0.217219 0.241018 0.056744
0.285041 0.244017 0.057445
0.353125 0.247086 0.058574
0.422116 0.250223 0.059945
0.492012 0.253364 0.061669
0.562801 0.256194 0.063732
0.633973 0.258764 0.066117
0.704903 0.261085 0.068726
0.774822 0.263459 0.071513
0.842669 0.266245 0.074424
0.907731 0.270175 0.077321
0.963323 0.276041 0.080122
0.996111 0.284495 0.082763
0.016685 0.305075 0.056591
0.077167 0.305665 0.056870
0.146327 0.306434 0.057506
0.220271 0.306901 0.059092
0.288738 0.309709 0.059801
0.357497 0.313114 0.060619
0.426846 0.316493 0.062090
0.496956 0.319982 0.063747
0.567717 0.323498 0.065666
0.638680 0.326844 0.067905
0.709148 0.330107 0.070398
0.778621 0.333482 0.073073
0.845767 0.337199 0.075850
0.910152 0.341763 0.078602
0.964435 0.347786 0.081300
0.996368 0.355729 0.083904
0.011927 0.373447 0.059528
0.074309 0.373929 0.059790
0.145653 0.374875 0.060308
0.220749 0.376098 0.061419
0.291893 0.378569 0.062296
0.361828 0.382085 0.062939
0.432255 0.385637 0.064047
0.502672 0.389246 0.065887
0.573330 0.393018 0.067829
0.643982 0.396897 0.069979
0.713950 0.400766 0.072326
0.782621 0.404740 0.074845
0.849117 0.408963 0.077425
0.912620 0.413899 0.080039
0.965573 0.419925 0.082692
0.996545 0.427280 0.085253
0.001275 0.444676 0.062389
0.061341 0.445155 0.062675
0.140339 0.446108 0.063199
0.220192 0.447547 0.064037
0.294687 0.449823 0.064937
0.366413 0.453309 0.065400
0.437851 0.457012 0.066192
0.509017 0.460744 0.067619
