luts/TENET-YELLOW.cube
LUT_3D_SIZE 6
0.000000 0.000000 0.000000
0.196750 0.003970 0.000040
0.403213 0.015616 0.000483
0.615755 0.020384 0.002792
0.829398 0.005599 0.007513
0.993531 0.021444 0.013312
0.007675 0.165610 0.000322
0.203562 0.171464 0.000504
0.410229 0.181505 0.001396
0.623265 0.189148 0.003977
0.835090 0.192319 0.008493
0.994547 0.210192 0.013939
0.001332 0.368087 0.002443
0.210605 0.371513 0.003155
0.425495 0.381866 0.003924
0.638705 0.393643 0.006857
0.845396 0.406013 0.011013
0.995668 0.424448 0.016012
0.000000 0.588565 0.005229
0.205978 0.590888 0.006231
0.445605 0.598656 0.007545
0.659829 0.609988 0.009460
0.857526 0.621578 0.014289
0.995964 0.636167 0.019364
0.100208 0.795699 0.011815
0.292707 0.797009 0.013050
0.496114 0.801961 0.014509
0.693800 0.809481 0.015516
0.875189 0.815973 0.020450
0.996565 0.823319 0.026462
0.296951 0.959991 0.029731
0.430856 0.961278 0.029581
0.585690 0.964107 0.029933
0.748716 0.967114 0.032086
0.901924 0.969856 0.036507
0.999074 0.973106 0.042403
0.006921 0.000776 0.053748
0.211825 0.006023 0.052437
0.414051 0.019513 0.055561
0.623780 0.024576 0.062505
0.834929 0.011988 0.071846
0.994810 0.030973 0.081318
0.010622 0.175630 0.052647
0.213445 0.177810 0.054612
0.418253 0.186536 0.058191
0.629751 0.193304 0.064746
0.839836 0.196435 0.073336
0.995687 0.214805 0.082226
0.011927 0.373447 0.059528
0.220749 0.376098 0.061419
0.432255 0.385637 0.064047
0.643982 0.396897 0.069979
0.849117 0.408963 0.077425
0.996545 0.427280 0.085253
0.000000 0.591646 0.067343
0.222868 0.593915 0.069044
0.452389 0.601612 0.071482
0.664351 0.612447 0.075443
0.860731 0.623871 0.082994
0.996527 0.638339 0.090463
0.118913 0.798047 0.079664
0.303190 0.799306 0.081434
0.501886 0.804108 0.083537
0.697539 0.811374 0.085752
0.877504 0.817796 0.092778
0.997084 0.825128 0.100687
0.302860 0.961929 0.104204
0.435891 0.962952 0.104174
0.589519 0.965626 0.104973
0.751349 0.968650 0.107926
0.903614 0.971318 0.113453
0.999390 0.974418 0.120596
0.017909 0.003363 0.175581
0.227240 0.009391 0.172489
0.434717 0.019863 0.172196
0.643877 0.023370 0.177467
0.850424 0.012913 0.187461
0.998572 0.035744 0.197917
0.025633 0.184396 0.171577
0.226154 0.184370 0.174200
0.438950 0.192253 0.173406
0.647754 0.198230 0.179887
0.854824 0.200056 0.189342
0.998929 0.219535 0.199340
0.008987 0.388549 0.173179
0.233744 0.389927 0.174555
0.449482 0.394464 0.180229
0.658808 0.404435 0.186805
0.860441 0.415638 0.195944
0.998684 0.433923 0.205139
0.007467 0.603648 0.183576
0.246173 0.605546 0.185195
0.471052 0.608446 0.192749
0.676636 0.619088 0.197518
0.869438 0.630134 0.205550
0.998162 0.644427 0.213915
0.158544 0.805034 0.203407
0.328385 0.806138 0.205114
0.517701 0.810168 0.208361
0.707821 0.816974 0.211926
0.884012 0.823052 0.219264
0.998173 0.830230 0.227248
0.318980 0.966711 0.229736
0.449565 0.967975 0.230053
0.599867 0.970177 0.231551
0.758495 0.972777 0.235056
0.907839 0.975364 0.240754
0.999752 0.978569 0.247883
0.000000 0.007366 0.357776
0.228957 0.010902 0.354918
0.455745 0.022608 0.349050
0.670624 0.011721 0.350856
0.873931 0.002296 0.357549
1.000018 0.032506 0.366796
0.005918 0.190617 0.353158
0.231181 0.188239 0.356167
0.461907 0.194950 0.350832
0.675572 0.197237 0.352385
0.877383 0.201203 0.359483
1.000039 0.222185 0.368363
0.038239 0.401095 0.348797
0.251364 0.402539 0.350231
0.472499 0.404060 0.355112
0.683050 0.414344 0.356714
0.877647 0.425889 0.366225
1.000034 0.444936 0.375986
0.025682 0.622634 0.353790
0.263516 0.623909 0.354873
0.496804 0.622563 0.361882
0.696077 0.630502 0.369451
0.883454 0.640751 0.377276
0.999904 0.654624 0.385900
0.173623 0.824165 0.369066
0.343609 0.824561 0.370845
0.543524 0.819617 0.382889
0.724109 0.825677 0.387743
0.893802 0.832130 0.394162
0.999550 0.839244 0.401556
0.345086 0.974487 0.403394
0.473080 0.974512 0.405387
0.617418 0.976299 0.407919
0.769407 0.979271 0.410858
0.914382 0.982071 0.415377
1.000034 0.985040 0.421967
0.000000 0.007537 0.591475
0.218408 0.005162 0.589883
0.477708 0.012838 0.579964
0.696579 0.006546 0.575566
0.898270 0.000000 0.578979
1.000000 0.023023 0.584857
0.000000 0.193884 0.586989
0.234599 0.190089 0.589127
0.484263 0.193985 0.581771
0.701506 0.199653 0.576575
0.900829 0.199750 0.580355
1.000000 0.223455 0.586047
0.063254 0.411034 0.577777
0.269291 0.410114 0.581778
0.495391 0.408045 0.586694
0.711921 0.418338 0.579733
0.902753 0.430463 0.582780
1.000000 0.450362 0.589183
0.113331 0.636115 0.575214
0.307108 0.637045 0.576115
0.516258 0.639682 0.579251
0.721412 0.643026 0.583452
0.900283 0.653347 0.589446
1.000064 0.667288 0.597310
0.207886 0.840350 0.583594
0.372510 0.839922 0.584744
0.562613 0.838415 0.588918
0.744860 0.837474 0.598624
0.905288 0.843760 0.604172
1.000034 0.850666 0.610647
0.362569 0.989161 0.605058
0.491097 0.988324 0.607259
0.637496 0.985848 0.613596
0.783127 0.987169 0.619217
0.921389 0.990269 0.622521
1.000076 0.991831 0.630107
0.010132 0.000000 0.842342
0.277220 0.000000 0.839050
0.514766 0.000000 0.828043
0.727483 0.000000 0.819771
0.919756 0.000000 0.819951
1.000000 0.038755 0.823834
0.074569 0.191009 0.838226
0.290923 0.186892 0.838554
0.521784 0.192800 0.828509
0.731588 0.201355 0.819806
0.921305 0.206132 0.820502
1.000000 0.233522 0.824372
0.139602 0.415136 0.829354
0.318926 0.412193 0.833858
0.532870 0.411933 0.832992
0.740137 0.422887 0.822956
0.923354 0.435048 0.822144
1.000000 0.454473 0.825220
0.199369 0.646282 0.816621
0.358767 0.646441 0.819310
0.546419 0.645972 0.826258
0.745484 0.647013 0.827718
0.921242 0.658310 0.823833
1.000000 0.672154 0.826646
0.274258 0.850091 0.817338
0.418387 0.850255 0.818087
0.587090 0.850891 0.820216
0.759791 0.852159 0.823833
0.918341 0.854820 0.827173
1.000091 0.861308 0.832311
0.381888 0.999382 0.828537
0.505970 0.999328 0.829081
0.647211 0.998612 0.831038
0.794017 0.997698 0.835105
0.928874 0.997767 0.842073
1.000000 0.998087 0.852413
