luts/THE_GRAND_BUDAPEST_HOTEL.cube
LUT_3D_SIZE 16
0.019291 0.000000 0.000000
0.123540 0.003209 0.000763
0.204055 0.009325 0.000499
0.286795 0.013633 0.000000
0.358508 0.016156 0.000000
0.441573 0.018714 0.002008
0.514834 0.022082 0.006913
0.579434 0.025640 0.010935
0.640959 0.031236 0.014118
0.700960 0.037181 0.017087
0.748280 0.042327 0.019146
0.796445 0.052696 0.020156
0.841608 0.067183 0.021627
0.881630 0.086704 0.024429
0.915042 0.110851 0.035155
0.945805 0.129464 0.051987
0.035504 0.025097 0.005266
0.088099 0.027374 0.006224
0.166864 0.036574 0.005729
0.244295 0.041968 0.001947
0.317332 0.046383 0.001694
0.398531 0.051309 0.000627
0.479626 0.057198 0.000247
0.551577 0.061530 0.003171
0.618113 0.064021 0.008056
0.677462 0.067236 0.011777
0.729534 0.071184 0.014613
0.776554 0.076873 0.016458
0.815895 0.081678 0.017608
0.850910 0.091651 0.018446
0.876624 0.099355 0.019048
0.886945 0.095441 0.020014
0.050648 0.052568 0.012121
0.073884 0.053953 0.012594
0.133289 0.060030 0.015001
0.205636 0.071222 0.014391
0.281707 0.076692 0.009590
0.364107 0.081506 0.005285
0.447333 0.085665 0.002943
0.527458 0.092964 0.002693
0.600063 0.099469 0.002551
0.665566 0.103056 0.005055
0.721909 0.099617 0.010070
0.770087 0.099710 0.013005
0.806899 0.098862 0.015262
0.841426 0.103709 0.016129
0.863898 0.106811 0.016926
0.872673 0.098213 0.018078
0.067322 0.079016 0.018604
0.083089 0.080676 0.017868
0.123561 0.085587 0.019151
0.179146 0.094289 0.022465
0.248553 0.105623 0.021797
0.335988 0.115289 0.015662
0.422436 0.122642 0.012535
0.508524 0.129477 0.009905
0.585343 0.136356 0.007773
0.657103 0.140593 0.006355
0.722658 0.145166 0.007927
0.777320 0.147303 0.008668
0.817675 0.148941 0.009848
0.853607 0.149556 0.010576
0.875529 0.149273 0.011401
0.887444 0.144386 0.011880
0.082507 0.105484 0.025612
0.097145 0.107326 0.024538
0.122049 0.112139 0.023675
0.174802 0.119754 0.024335
0.229914 0.129384 0.030091
0.314248 0.144469 0.026724
0.402304 0.156790 0.022712
0.494132 0.167447 0.019620
0.575813 0.173199 0.016457
0.650067 0.179569 0.014173
0.721930 0.186201 0.012451
0.778511 0.191209 0.013113
0.821505 0.195104 0.013357
0.859607 0.198946 0.013592
0.884162 0.204075 0.014197
0.899258 0.212367 0.015664
0.101224 0.137222 0.032644
0.113852 0.137860 0.031273
0.129562 0.141132 0.028870
0.170244 0.149795 0.026611
0.226560 0.162165 0.034922
0.298109 0.176748 0.039803
0.385580 0.192642 0.035711
0.479492 0.208304 0.031915
0.561798 0.218432 0.028738
0.643095 0.227047 0.025616
0.719554 0.234260 0.022907
0.776604 0.239751 0.021601
0.822742 0.245693 0.021542
0.862460 0.252658 0.022157
0.885195 0.259032 0.022780
0.901676 0.268733 0.024886
0.120351 0.173433 0.043868
0.130510 0.171814 0.040350
0.142767 0.173816 0.035977
0.171818 0.183301 0.030939
0.228071 0.196732 0.037953
0.300398 0.213988 0.050852
0.378999 0.229842 0.054675
0.469178 0.247389 0.046366
0.553871 0.262506 0.041884
0.637717 0.274256 0.038498
0.716065 0.284831 0.036179
0.777544 0.293053 0.034543
0.824769 0.300618 0.034117
0.862460 0.306827 0.033438
0.886770 0.312257 0.033680
0.906192 0.317807 0.035070
0.138182 0.210051 0.052605
0.146892 0.206945 0.047804
0.159459 0.209951 0.042671
0.180477 0.217205 0.035735
0.233533 0.232815 0.042355
0.310319 0.253635 0.058923
0.386299 0.270812 0.069302
0.470199 0.291245 0.071496
0.550747 0.306729 0.060015
0.639027 0.321818 0.051670
0.718377 0.336786 0.049675
0.782476 0.345848 0.047473
0.831692 0.354406 0.047333
0.867802 0.361370 0.047181
0.890733 0.366819 0.047671
0.912054 0.372312 0.049244
0.155010 0.245921 0.060913
0.162869 0.241860 0.054448
0.174921 0.245593 0.051994
0.194163 0.252034 0.044254
0.236790 0.268040 0.048175
0.318212 0.290909 0.064898
0.395407 0.311056 0.079524
0.478254 0.334262 0.089381
0.555790 0.351612 0.086334
0.643799 0.367980 0.073345
0.722950 0.383453 0.065983
0.787043 0.394833 0.062504
0.833350 0.404638 0.062137
0.871269 0.411667 0.062021
0.894034 0.415958 0.062018
0.917095 0.420464 0.063113
0.172151 0.281085 0.070528
0.178866 0.276392 0.064990
0.190028 0.281239 0.063862
0.207654 0.287887 0.055465
0.245012 0.303781 0.055169
0.324964 0.329100 0.070091
0.411255 0.355521 0.090218
0.491357 0.377457 0.102563
0.567052 0.396408 0.107695
0.650908 0.414870 0.101134
0.730399 0.430901 0.089660
0.797383 0.442914 0.082013
0.839362 0.452484 0.079591
0.878080 0.459670 0.078066
0.902289 0.463487 0.077670
0.926229 0.466219 0.078095
0.185842 0.312920 0.077584
0.192545 0.309071 0.074827
0.204143 0.314052 0.074053
0.221871 0.322646 0.068693
0.255249 0.339293 0.062604
0.332609 0.367013 0.076334
0.426810 0.398023 0.099222
0.510319 0.423561 0.114786
0.585803 0.447153 0.125104
0.667487 0.465281 0.127105
0.744440 0.485447 0.120847
0.810899 0.499748 0.112927
0.856124 0.509242 0.108947
0.889164 0.514868 0.105610
0.912669 0.515612 0.102469
0.938195 0.516195 0.100952
0.200607 0.343469 0.087479
0.206711 0.339292 0.083912
0.218919 0.345234 0.084734
0.238773 0.357251 0.082804
0.267978 0.374231 0.071140
0.338955 0.406242 0.082810
0.442012 0.441232 0.107278
0.534933 0.475381 0.128899
0.608883 0.493808 0.139658
0.687948 0.516198 0.146060
0.758296 0.533330 0.147319
0.822084 0.548355 0.140279
0.864950 0.557891 0.135732
0.898464 0.561443 0.130891
0.924527 0.563007 0.127070
0.947596 0.557910 0.121059
0.214282 0.370798 0.096641
0.219677 0.365980 0.092981
0.233435 0.374959 0.096009
0.250992 0.387367 0.097418
0.280181 0.405429 0.081414
0.343765 0.438720 0.088299
0.456572 0.478274 0.114755
0.553971 0.514472 0.138516
0.629724 0.535704 0.151227
0.706832 0.559213 0.159994
0.775708 0.577460 0.163537
0.834115 0.588799 0.162113
0.875641 0.595826 0.156211
0.909329 0.602877 0.152798
0.933213 0.599761 0.144933
0.953416 0.597324 0.141641
0.225774 0.396638 0.105565
0.230834 0.390964 0.101984
0.244455 0.399828 0.105097
0.261472 0.413095 0.107284
0.290566 0.433111 0.091435
0.352215 0.468209 0.094166
0.471326 0.510721 0.121576
0.572949 0.550868 0.147294
0.648397 0.572938 0.160856
0.726038 0.597913 0.171831
0.794020 0.614536 0.174863
0.846276 0.625059 0.175854
0.884377 0.630003 0.172907
0.916407 0.637822 0.170196
0.934625 0.634279 0.163703
0.951551 0.636520 0.164791
0.229205 0.408883 0.108193
0.234917 0.404322 0.105273
0.249678 0.415442 0.109650
0.265552 0.428838 0.112586
0.295637 0.450311 0.097333
0.360739 0.488133 0.098046
0.485895 0.535187 0.127431
0.589709 0.576308 0.153289
0.668119 0.602080 0.168535
0.741821 0.624359 0.178308
0.809208 0.640705 0.181781
0.858102 0.650264 0.182734
0.894260 0.656706 0.182419
0.924416 0.663161 0.181125
0.937595 0.662186 0.177750
0.953275 0.665268 0.179892
0.215055 0.391414 0.097161
0.225513 0.396040 0.098892
0.243019 0.412432 0.106029
0.260373 0.428693 0.111901
0.296540 0.455314 0.095146
0.383115 0.501851 0.102602
0.509909 0.550230 0.133828
0.611371 0.592321 0.158880
0.688088 0.616806 0.172059
0.761496 0.640029 0.181163
0.822088 0.656701 0.184958
0.869917 0.668663 0.186472
0.903762 0.677343 0.188463
0.930860 0.685188 0.189218
0.939037 0.687744 0.190244
0.954755 0.690455 0.191537
0.041276 0.009864 0.057772
0.107733 0.012258 0.055308
0.193084 0.011571 0.052889
0.281921 0.007948 0.038371
0.357433 0.004384 0.027416
0.442403 0.004342 0.022383
0.517929 0.009615 0.025019
0.583619 0.014382 0.028487
0.644099 0.020284 0.031686
0.705037 0.024869 0.034927
0.749433 0.028466 0.037339
0.793577 0.039156 0.040401
0.838613 0.058280 0.049267
0.876125 0.094406 0.065892
0.908905 0.119767 0.080766
0.940067 0.136056 0.093522
0.046200 0.032025 0.052002
0.097807 0.039997 0.055568
0.167797 0.046704 0.053172
0.240855 0.055366 0.047431
0.313001 0.059201 0.041620
0.400386 0.062455 0.033521
0.479682 0.061424 0.028966
0.549168 0.058756 0.028976
0.617372 0.050911 0.029066
0.676539 0.049114 0.031497
0.726265 0.055375 0.032259
0.768372 0.063612 0.033375
0.807650 0.071941 0.034404
0.838562 0.080215 0.035069
0.860056 0.088091 0.036014
0.861113 0.074033 0.031458
0.052590 0.055125 0.047074
0.073333 0.057816 0.050611
0.137886 0.072521 0.056885
0.218440 0.081900 0.053240
0.290570 0.088565 0.048110
0.373941 0.094155 0.036886
0.458319 0.095449 0.026186
0.536802 0.095778 0.021341
0.606268 0.097202 0.019966
0.669558 0.100653 0.020773
0.723418 0.095120 0.024542
0.766992 0.092518 0.026522
0.801778 0.090124 0.028376
0.832935 0.093521 0.029419
0.850906 0.095241 0.029318
0.855169 0.081492 0.027704
0.070804 0.083235 0.054089
0.085614 0.084872 0.054850
0.123087 0.096137 0.057320
0.192790 0.108783 0.060517
0.268976 0.119638 0.056166
0.358442 0.128486 0.046280
0.439836 0.131023 0.032928
0.522813 0.133510 0.024700
0.598018 0.137890 0.019237
0.667333 0.143360 0.016947
0.729220 0.146639 0.018515
0.782744 0.148473 0.019155
0.820439 0.149187 0.019748
0.853297 0.149366 0.020271
0.871787 0.148903 0.020186
0.884389 0.162119 0.017078
0.085641 0.110119 0.060324
0.100104 0.111991 0.060033
0.121772 0.118145 0.059000
0.184979 0.133956 0.064234
0.250550 0.145148 0.063863
0.337421 0.157928 0.051179
0.423232 0.166396 0.040307
0.508888 0.172485 0.032426
0.587209 0.177938 0.027056
0.661988 0.183980 0.023587
0.731640 0.190363 0.021771
0.785240 0.194259 0.022070
0.827744 0.196940 0.022012
0.861960 0.202007 0.022035
0.883244 0.208838 0.022249
0.895368 0.222993 0.023376
0.104604 0.142000 0.066955
0.116678 0.143288 0.067557
0.132621 0.147614 0.064464
0.178882 0.163988 0.066201
0.244471 0.176071 0.068647
0.320416 0.190685 0.062109
0.406447 0.202785 0.050142
0.495497 0.215474 0.043167
0.576084 0.224702 0.038601
0.660076 0.233660 0.035019
0.730412 0.240570 0.032353
0.785794 0.245986 0.030747
0.831480 0.253035 0.030681
0.866068 0.259214 0.031001
0.886191 0.267840 0.031693
0.901204 0.275895 0.032447
0.122747 0.177642 0.077014
0.133698 0.178087 0.078402
0.145900 0.180802 0.074614
0.179589 0.195145 0.067696
0.241870 0.208534 0.065761
0.317279 0.224190 0.070135
0.397345 0.239637 0.067857
0.483411 0.254628 0.056540
0.570414 0.269332 0.051276
0.657220 0.283125 0.048229
0.730800 0.292757 0.045641
0.790252 0.301122 0.043953
0.836472 0.308692 0.043124
0.869390 0.315337 0.042768
0.889879 0.323294 0.043312
0.909017 0.331788 0.044955
0.139667 0.213683 0.085672
0.149151 0.213370 0.084218
0.160775 0.216955 0.081275
0.186925 0.227279 0.070090
0.241611 0.241231 0.062492
0.324646 0.261546 0.074166
0.401049 0.278878 0.081779
0.484207 0.298410 0.081057
0.568628 0.314441 0.068257
0.659204 0.331170 0.060487
0.737315 0.345597 0.058700
0.797280 0.354405 0.056872
0.844138 0.362628 0.056647
0.875313 0.370612 0.056686
0.896193 0.378348 0.057756
0.918581 0.386822 0.059780
0.157688 0.250044 0.096398
0.166488 0.249415 0.094278
0.178006 0.253543 0.090228
0.195532 0.259538 0.074342
0.242983 0.274333 0.062474
0.332886 0.299982 0.078553
0.410279 0.321032 0.092166
0.492397 0.343171 0.100347
0.579482 0.362060 0.095909
0.668692 0.381612 0.083715
0.744596 0.395350 0.075455
0.805875 0.407762 0.073410
0.846526 0.416684 0.072635
0.880511 0.423197 0.072256
0.901597 0.429499 0.072710
0.925469 0.435736 0.074038
0.173567 0.284983 0.106654
0.181661 0.283600 0.104388
0.192531 0.288012 0.097333
0.208234 0.293455 0.078827
0.247589 0.308602 0.066276
0.339806 0.338386 0.082994
0.429202 0.367904 0.103731
0.507489 0.387279 0.113979
0.591845 0.409869 0.119013
0.680770 0.430772 0.110482
0.757848 0.446267 0.100211
0.817256 0.459589 0.094991
0.857518 0.468478 0.092359
0.890129 0.473967 0.090972
0.912416 0.480176 0.091378
0.937605 0.485890 0.093000
0.188869 0.317644 0.117081
0.195689 0.315294 0.111845
0.205441 0.318293 0.099181
0.220758 0.324354 0.084940
0.255726 0.340618 0.071983
0.345890 0.375064 0.088549
0.445538 0.409026 0.112382
0.525628 0.433503 0.126862
0.611837 0.458975 0.136761
0.695992 0.480382 0.137588
0.771884 0.500386 0.130717
0.831989 0.513853 0.124122
0.871265 0.521294 0.119739
0.900671 0.526276 0.117162
0.924058 0.529857 0.115310
0.948842 0.536781 0.117163
0.202562 0.347514 0.124538
0.208463 0.342908 0.115450
0.218337 0.345615 0.100216
0.234533 0.355648 0.097148
0.266960 0.374729 0.082269
0.350310 0.412286 0.093883
0.458959 0.450171 0.120269
0.549362 0.482144 0.139916
0.633956 0.506010 0.151346
0.716595 0.529275 0.156871
0.786857 0.547072 0.155617
0.842887 0.559587 0.148996
0.879946 0.566181 0.144287
0.912101 0.571123 0.140774
0.933697 0.571785 0.136446
0.953536 0.577361 0.138655
0.213304 0.372236 0.128604
0.218426 0.365706 0.116013
0.230553 0.371774 0.106953
0.247938 0.385408 0.109111
0.279652 0.406144 0.093330
0.353543 0.443922 0.098602
0.473513 0.485784 0.127010
0.569483 0.522277 0.149852
0.652326 0.545276 0.162550
0.734063 0.569955 0.170173
0.798630 0.586005 0.172126
0.853999 0.597909 0.168882
0.890139 0.604656 0.164726
0.920299 0.610018 0.160769
0.937175 0.609358 0.156621
0.952851 0.612977 0.159220
0.221882 0.394709 0.130772
0.226795 0.386157 0.114491
0.240920 0.395945 0.114552
0.258534 0.409910 0.116601
0.288593 0.431686 0.101079
0.358982 0.471388 0.103117
0.486855 0.517394 0.133309
0.586216 0.556303 0.157784
0.673075 0.583639 0.173021
0.752178 0.607062 0.181107
0.815205 0.621998 0.183139
0.862536 0.630227 0.182850
0.898863 0.637959 0.180251
0.926082 0.645201 0.178553
0.937034 0.647125 0.178099
0.952855 0.650587 0.180606
0.224874 0.406047 0.130664
0.230593 0.399027 0.116159
0.246044 0.411338 0.117217
0.263427 0.427582 0.122059
0.291335 0.447457 0.108435
0.362704 0.490040 0.106161
0.498774 0.541642 0.138220
0.602088 0.582184 0.163278
0.687147 0.609112 0.178174
0.766435 0.633439 0.187500
0.828458 0.648528 0.190350
0.873947 0.657837 0.191061
0.907977 0.667633 0.192663
0.930746 0.673003 0.192595
0.938490 0.676437 0.194015
0.954336 0.679270 0.195515
0.215182 0.396076 0.136818
0.224907 0.398415 0.125161
0.240868 0.411155 0.116438
0.259126 0.429057 0.121203
0.290907 0.453440 0.108036
0.376559 0.502760 0.108702
0.515891 0.559095 0.142746
0.619481 0.604062 0.168963
0.701163 0.631068 0.182915
0.779689 0.658161 0.193620
0.839906 0.674296 0.196998
0.882685 0.683265 0.197514
0.914124 0.692988 0.200538
0.934332 0.699027 0.202053
0.941053 0.703383 0.203853
0.956628 0.705145 0.204529
0.058552 0.019229 0.106893
0.109635 0.020462 0.104542
0.175246 0.025080 0.106284
0.261123 0.024379 0.109209
0.341979 0.013907 0.100843
0.439021 0.006358 0.085853
0.521429 0.008206 0.074702
0.587299 0.012072 0.067559
0.646629 0.015932 0.062481
0.705116 0.019805 0.060092
0.752443 0.022458 0.059863
0.797520 0.025075 0.063130
0.837297 0.034518 0.071194
0.871890 0.071082 0.091815
0.902612 0.114153 0.118511
0.931518 0.137139 0.132837
0.061757 0.041293 0.096682
0.093674 0.046891 0.099851
0.153401 0.056000 0.101213
0.230914 0.057693 0.101096
0.307473 0.052808 0.088780
0.394140 0.052058 0.077539
0.474827 0.046144 0.068302
0.548573 0.040287 0.062234
0.617007 0.032922 0.059634
0.674308 0.032038 0.056594
0.723932 0.035694 0.056600
0.765019 0.038867 0.058124
0.799428 0.041744 0.058931
0.828985 0.051955 0.063150
0.847106 0.055685 0.066097
0.843471 0.035453 0.061088
0.064611 0.062673 0.088103
0.082094 0.065660 0.091454
0.125013 0.076584 0.097169
0.211610 0.091321 0.103944
0.284942 0.096540 0.097460
0.368653 0.105566 0.091753
0.448997 0.111631 0.085839
0.530242 0.113702 0.079718
0.601889 0.112638 0.075555
0.663936 0.104731 0.069060
0.717216 0.078890 0.062534
0.760464 0.070019 0.059971
0.793737 0.068595 0.058965
0.822736 0.071332 0.059096
0.839319 0.074488 0.058833
0.840046 0.051388 0.059243
0.075713 0.088732 0.089674
0.089810 0.089740 0.090448
0.111028 0.095819 0.092164
0.192049 0.119521 0.103805
0.273456 0.131836 0.105935
0.359882 0.141210 0.098244
0.444264 0.147445 0.090190
0.526549 0.150749 0.078485
0.602887 0.152392 0.069999
0.674844 0.152724 0.061488
0.734670 0.151065 0.056586
0.783356 0.147437 0.051039
0.821654 0.144523 0.045204
0.851086 0.145340 0.043736
0.867274 0.146376 0.044712
0.881761 0.155304 0.044244
0.089713 0.115974 0.093749
0.103769 0.118170 0.095243
0.119366 0.121858 0.094740
0.178718 0.142021 0.103400
0.254688 0.157743 0.107921
0.351368 0.172676 0.103313
0.440496 0.181974 0.096000
0.524868 0.186504 0.080458
0.605256 0.188028 0.067273
0.680915 0.189166 0.056368
0.746890 0.188899 0.047193
0.798930 0.190363 0.041046
0.838294 0.193393 0.038366
0.869235 0.198547 0.036680
0.888426 0.206380 0.036713
0.906910 0.217325 0.039733
0.107925 0.148563 0.100209
0.120111 0.149562 0.101143
0.133431 0.152819 0.101633
0.169296 0.168039 0.103397
0.248129 0.189907 0.110590
0.336337 0.206483 0.109596
0.428454 0.220371 0.099328
0.516384 0.228382 0.086679
0.597692 0.233316 0.070090
0.679959 0.236134 0.056211
0.746226 0.239578 0.048375
0.800681 0.244322 0.043908
0.844394 0.249806 0.042268
0.872692 0.259717 0.041546
0.890165 0.270196 0.042167
0.913863 0.280904 0.045845
0.127018 0.184546 0.109212
0.137592 0.184974 0.110620
0.148539 0.188114 0.109994
0.171713 0.198158 0.104762
0.242915 0.221542 0.109919
0.329126 0.238743 0.113113
0.414809 0.253939 0.103390
0.504714 0.267593 0.088532
0.589677 0.276423 0.074009
0.677591 0.284850 0.063420
0.746536 0.293446 0.057542
0.802933 0.301898 0.054567
0.844131 0.311212 0.052350
0.873787 0.319102 0.051844
0.893239 0.328724 0.052567
0.916869 0.340112 0.055636
0.143163 0.220112 0.117520
0.152597 0.220420 0.119180
0.164322 0.225134 0.119334
0.182239 0.231641 0.111754
0.240524 0.254238 0.111734
0.330484 0.274849 0.113442
0.410890 0.290637 0.111858
0.498448 0.305430 0.098749
0.584460 0.318748 0.082221
0.674996 0.334725 0.072388
0.747320 0.348715 0.068668
0.806711 0.358705 0.066328
0.849512 0.367922 0.066037
0.879113 0.376690 0.066271
0.899138 0.385795 0.067376
0.923825 0.395632 0.070240
0.160178 0.256263 0.128740
0.168814 0.255833 0.129799
0.181335 0.262365 0.130662
0.197544 0.268454 0.124298
0.238935 0.285746 0.112388
0.334449 0.311118 0.111472
0.417573 0.330307 0.116710
0.502477 0.348335 0.116536
0.590621 0.367252 0.106943
0.680129 0.386640 0.093052
0.753170 0.400744 0.085067
0.812422 0.413525 0.082379
0.851975 0.422938 0.081908
0.883316 0.430084 0.081123
0.904159 0.437835 0.081933
0.929860 0.443703 0.083626
0.176916 0.290970 0.140362
0.186093 0.291866 0.141862
0.198084 0.297738 0.142529
0.212565 0.305882 0.137124
0.244937 0.319425 0.116260
0.334737 0.346973 0.108325
0.431838 0.374100 0.121240
0.513671 0.392196 0.127553
0.601450 0.415722 0.129853
0.689973 0.437201 0.119676
0.766666 0.453820 0.110267
0.824788 0.467465 0.105318
0.863564 0.476681 0.102807
0.893396 0.483199 0.101929
0.916293 0.490311 0.103015
0.940803 0.495293 0.104320
0.192543 0.323797 0.150750
0.200583 0.323012 0.151466
0.212105 0.330417 0.151448
0.225565 0.339186 0.147767
0.255649 0.350883 0.121393
0.336420 0.379310 0.107024
0.444479 0.413339 0.125496
0.529861 0.438465 0.137754
0.620085 0.465704 0.146955
0.705063 0.487656 0.147600
0.780477 0.506918 0.139887
0.837806 0.521205 0.134235
0.874802 0.529882 0.130631
0.904639 0.535223 0.128472
0.927726 0.540581 0.127750
0.949708 0.543245 0.127533
0.203689 0.354589 0.161736
0.210873 0.352306 0.160596
0.223505 0.360522 0.160112
0.238880 0.371175 0.155621
0.266664 0.381832 0.123634
0.338066 0.413182 0.107621
0.456846 0.453691 0.130303
0.552398 0.486656 0.149802
0.641406 0.512831 0.161310
0.724507 0.536486 0.166405
0.793908 0.552802 0.164042
0.849276 0.566139 0.158459
0.884880 0.574145 0.155152
0.916799 0.579705 0.151847
0.936121 0.581216 0.148569
0.954026 0.586362 0.151165
0.214001 0.380219 0.169487
0.220526 0.377420 0.168025
0.234919 0.388004 0.167248
0.250903 0.400221 0.161532
0.276275 0.410607 0.131843
0.339742 0.442764 0.108980
0.469267 0.488261 0.135253
0.571427 0.526313 0.158858
0.659116 0.552365 0.171913
0.740985 0.576840 0.179033
0.805780 0.592871 0.180872
0.859066 0.604234 0.177890
0.893591 0.611586 0.174789
0.921887 0.619959 0.173624
0.936102 0.620522 0.171200
0.951524 0.625389 0.174551
0.223628 0.403791 0.176674
0.230161 0.401020 0.174875
0.244510 0.412631 0.172984
0.259374 0.423317 0.163404
0.281360 0.434601 0.141629
0.343460 0.467907 0.111222
0.481356 0.519558 0.140496
0.588867 0.561115 0.166090
0.677799 0.588887 0.181148
0.758569 0.613606 0.189575
0.821017 0.628026 0.191649
0.867785 0.636893 0.191724
0.903097 0.648607 0.192477
0.928575 0.655448 0.191740
0.937688 0.657832 0.192088
0.953261 0.661071 0.194562
0.226954 0.416435 0.181298
0.233648 0.415192 0.180584
0.248323 0.427385 0.176568
0.265830 0.440126 0.164010
0.283634 0.450858 0.149958
0.343481 0.485359 0.113691
0.488097 0.542227 0.143710
0.601243 0.587105 0.170896
0.689409 0.615501 0.186394
0.770649 0.642615 0.197163
0.831988 0.658547 0.200486
0.877572 0.667787 0.200870
0.910764 0.677942 0.203787
0.933224 0.684469 0.204772
0.939848 0.687689 0.206160
0.955486 0.690150 0.207349
0.218733 0.410824 0.192523
0.229317 0.417719 0.197727
0.246292 0.435096 0.198837
0.264534 0.453943 0.195381
0.286325 0.470476 0.179848
0.348275 0.505442 0.129320
0.495471 0.565758 0.151365
0.612854 0.613477 0.178134
0.700440 0.644284 0.194751
0.779454 0.669116 0.204287
0.839333 0.685069 0.207451
0.884185 0.694149 0.207713
0.917127 0.703483 0.210784
0.936686 0.710447 0.212998
0.943375 0.714124 0.214272
0.959211 0.717024 0.215256
0.077471 0.027973 0.157204
0.119578 0.028326 0.156743
0.177083 0.029065 0.156138
0.248482 0.032725 0.161734
0.320818 0.036453 0.164127
0.415360 0.028709 0.162447
0.501035 0.021315 0.153666
0.576634 0.018233 0.142947
0.647087 0.015934 0.131983
0.707130 0.017945 0.122982
0.754717 0.020011 0.118087
0.799453 0.022465 0.120442
0.839937 0.031136 0.128484
0.871679 0.060780 0.139259
0.900974 0.091495 0.148254
0.929808 0.113727 0.156064
0.079776 0.052420 0.144056
0.099739 0.053888 0.145337
0.150191 0.062391 0.149847
0.221107 0.068270 0.152201
0.290756 0.073401 0.155389
0.382524 0.065921 0.149360
0.468541 0.053041 0.135916
0.544773 0.042105 0.126853
0.614601 0.033065 0.121999
0.675238 0.029556 0.118383
0.722658 0.031226 0.115307
0.764886 0.033600 0.113468
0.799263 0.035710 0.113772
0.826472 0.037282 0.117775
0.840749 0.037660 0.124953
0.833430 0.028865 0.142748
0.081108 0.075554 0.135394
0.095587 0.076509 0.135371
0.119564 0.082105 0.140443
0.202010 0.099853 0.150935
0.274939 0.107319 0.155940
0.362870 0.102808 0.142733
0.446048 0.101252 0.131542
0.524145 0.100674 0.123914
0.595821 0.098039 0.117649
0.659527 0.087041 0.111163
0.717020 0.068350 0.107689
0.759762 0.056639 0.108099
0.793102 0.049485 0.111219
0.820208 0.047922 0.119626
0.833733 0.044197 0.131019
0.833806 0.038475 0.154847
0.088657 0.101735 0.132754
0.101524 0.102208 0.132901
0.115296 0.105280 0.135001
0.182509 0.125207 0.147395
0.265085 0.139667 0.155117
0.354730 0.144575 0.147243
0.435860 0.156135 0.144054
0.514982 0.165028 0.142212
0.592563 0.169937 0.138431
0.661987 0.171338 0.134196
0.725499 0.169582 0.130446
0.772272 0.165888 0.125699
0.809561 0.160732 0.121847
0.836802 0.160330 0.123289
0.851910 0.160067 0.130257
0.866973 0.171639 0.142142
0.098048 0.125828 0.132192
0.110698 0.127646 0.134293
0.123545 0.130146 0.135451
0.161143 0.142994 0.141440
0.251329 0.168975 0.155389
0.349852 0.185985 0.157410
0.433845 0.195737 0.152714
0.519098 0.203475 0.147375
0.599758 0.208059 0.139999
0.677157 0.211988 0.132740
0.742944 0.212742 0.123936
0.795133 0.212010 0.118734
0.835495 0.211412 0.112188
0.865509 0.213786 0.109682
0.884607 0.221985 0.115997
0.906460 0.232388 0.128120
0.112980 0.156417 0.138270
0.125478 0.158178 0.140047
0.137452 0.161557 0.141302
0.158761 0.169738 0.140746
0.238328 0.197820 0.153670
0.337723 0.219635 0.159219
0.433781 0.234755 0.159171
0.522770 0.244180 0.152952
0.607378 0.249582 0.142786
0.690479 0.253437 0.130593
0.759972 0.254725 0.117123
0.816960 0.255409 0.105029
0.859635 0.255384 0.096892
0.892027 0.257574 0.089717
0.912534 0.268363 0.096181
0.937616 0.280062 0.109925
0.131401 0.191940 0.146183
0.141982 0.193003 0.148641
0.153539 0.197584 0.150501
0.170438 0.203573 0.148041
0.225568 0.225508 0.150830
0.328904 0.252968 0.162602
0.425031 0.270907 0.160852
0.518415 0.285941 0.157905
0.608265 0.294794 0.148779
0.698161 0.298966 0.132028
0.768353 0.301238 0.114121
0.829559 0.301793 0.098052
0.872068 0.303084 0.088614
0.901540 0.309373 0.087089
0.923307 0.321391 0.093151
0.948455 0.331301 0.102727
0.147422 0.227989 0.154151
0.157043 0.228759 0.156977
0.168762 0.234177 0.159579
0.183775 0.240922 0.157823
0.222838 0.255940 0.151274
0.324371 0.288454 0.163461
0.414956 0.306985 0.166966
0.510970 0.323168 0.156425
