luts/THE_MATRIX.cube
LUT_3D_SIZE 6
0.000472 0.000000 0.003758
0.055226 0.008358 0.028246
0.213616 0.039969 0.068390
0.464617 0.105127 0.113694
0.689890 0.180720 0.168853
0.857532 0.244186 0.223312
0.020369 0.091591 0.058826
0.064406 0.102244 0.059401
0.210808 0.139733 0.097335
0.475351 0.188860 0.134440
0.698611 0.242296 0.184690
0.863890 0.291537 0.233122
0.090782 0.343302 0.149543
0.117882 0.354264 0.137246
0.248341 0.372869 0.148641
0.460571 0.409552 0.210355
0.680835 0.432393 0.254336
0.852016 0.444904 0.289672
0.197245 0.584176 0.260223
0.216652 0.590338 0.250817
0.327876 0.602266 0.233115
0.518850 0.615553 0.266062
0.697560 0.624586 0.327137
0.829631 0.626251 0.374091
0.318474 0.775901 0.379164
0.335837 0.778799 0.372833
0.405520 0.790703 0.338447
0.565824 0.797949 0.345463
0.744090 0.809031 0.398688
0.862312 0.796872 0.463502
0.494812 0.908243 0.525143
0.510379 0.910264 0.521953
0.581741 0.915126 0.521349
0.706322 0.920516 0.546464
0.841739 0.930981 0.584182
0.952257 0.951921 0.680041
0.000000 0.008240 0.063148
0.044331 0.015076 0.100833
0.191625 0.048616 0.131464
0.462322 0.109479 0.168281
0.685817 0.185776 0.215821
0.854637 0.248768 0.260219
0.011249 0.101874 0.127078
0.061808 0.107630 0.131701
0.248125 0.124939 0.141024
0.495187 0.178724 0.171616
0.706426 0.239538 0.217693
0.868257 0.293030 0.263470
0.093058 0.345313 0.194867
0.126910 0.350315 0.206003
0.258097 0.373057 0.195698
0.494598 0.399895 0.239870
0.712715 0.420743 0.274863
0.867750 0.440157 0.310402
0.198466 0.584504 0.294589
0.228238 0.587627 0.301154
0.323776 0.603191 0.268656
0.523391 0.615049 0.298969
0.706996 0.622458 0.354655
0.840236 0.624498 0.396045
0.320632 0.775728 0.404907
0.347353 0.777535 0.410599
0.405401 0.789884 0.371513
0.565454 0.798105 0.372572
0.745782 0.809259 0.425642
0.864159 0.797293 0.484764
0.499110 0.908534 0.545101
0.522096 0.910182 0.547916
0.586198 0.915290 0.542379
0.707909 0.920809 0.562797
0.842044 0.931369 0.600357
0.952465 0.954049 0.693388
0.000000 0.032752 0.139995
0.008937 0.038750 0.206316
0.169458 0.075279 0.245236
0.372132 0.156404 0.287484
0.632644 0.224026 0.327828
0.830167 0.276163 0.361176
0.003747 0.135099 0.216304
0.038490 0.142080 0.228043
0.228160 0.144280 0.276284
0.463416 0.200065 0.303806
0.697107 0.252337 0.334076
0.858013 0.308340 0.365309
0.074185 0.358085 0.318021
0.104059 0.363678 0.324177
0.240242 0.382084 0.329787
0.537484 0.390362 0.330919
0.751373 0.413711 0.357828
0.914339 0.437123 0.384259
0.196424 0.588274 0.392476
0.225192 0.590685 0.400408
0.337011 0.599854 0.427189
0.535066 0.615182 0.399381
0.743217 0.616535 0.437648
0.877103 0.621170 0.463848
0.318474 0.777418 0.484070
0.343772 0.777996 0.489925
0.438745 0.783422 0.508975
0.556376 0.800141 0.469165
0.759689 0.805938 0.519852
0.869739 0.799945 0.556270
0.502273 0.910234 0.604664
0.526800 0.910430 0.606884
0.608150 0.915233 0.614670
0.712633 0.924581 0.620099
0.848273 0.934975 0.653963
0.952604 0.955414 0.741734
0.000000 0.080724 0.231505
0.000036 0.088004 0.278277
0.122071 0.119738 0.379972
0.381509 0.181405 0.420266
0.588381 0.260452 0.454852
0.757539 0.327418 0.483273
0.003336 0.182068 0.303319
0.031564 0.189860 0.320800
0.122304 0.197916 0.410810
0.421810 0.239508 0.440424
0.626283 0.306216 0.472183
0.785847 0.364510 0.496732
0.046485 0.388830 0.437329
0.076564 0.395917 0.442368
0.217033 0.410364 0.448444
0.515102 0.408107 0.499179
0.745615 0.426149 0.519240
0.884193 0.458929 0.532095
0.147127 0.601619 0.536883
0.171592 0.604842 0.538075
0.280404 0.615030 0.547631
0.499371 0.625151 0.559416
0.763817 0.623445 0.557843
0.934693 0.629045 0.572039
0.303097 0.782283 0.610726
0.325126 0.783762 0.615955
0.414909 0.790145 0.627092
0.556845 0.799941 0.651323
0.766090 0.806946 0.647948
0.888232 0.806744 0.658189
0.501451 0.914807 0.698283
0.520988 0.915248 0.697710
0.606578 0.920014 0.701949
0.734595 0.929130 0.716623
0.858733 0.941660 0.735575
0.952604 0.960476 0.826896
0.000272 0.150893 0.330910
0.005091 0.162422 0.358019
0.041088 0.178992 0.473085
0.339972 0.221476 0.551833
0.597639 0.287675 0.593523
0.739440 0.354465 0.604559
0.006466 0.235692 0.388123
0.036125 0.245547 0.405591
0.099400 0.265808 0.484355
0.347680 0.281005 0.579179
0.614334 0.337587 0.605572
0.762866 0.391214 0.621373
0.041642 0.421699 0.520369
0.069764 0.428601 0.530341
0.180868 0.456846 0.556269
0.371505 0.457333 0.633471
0.697646 0.466174 0.659504
0.822771 0.500048 0.677219
0.117538 0.623059 0.647244
0.143064 0.624871 0.651025
0.247855 0.635890 0.657789
0.467720 0.647710 0.665632
0.734593 0.642667 0.715028
0.882438 0.655668 0.735394
0.227496 0.797683 0.736733
0.248841 0.798939 0.738094
0.341527 0.805721 0.746209
0.496463 0.817261 0.761745
0.743366 0.816239 0.776250
0.946190 0.813502 0.770754
0.465003 0.926441 0.804559
0.487281 0.928364 0.806738
0.573462 0.931294 0.814513
0.718336 0.939333 0.823670
0.872849 0.951115 0.844707
0.952688 0.967036 0.925187
0.007658 0.220963 0.420566
0.022686 0.228238 0.437733
0.049753 0.246134 0.522545
0.228969 0.262855 0.670744
0.547607 0.318856 0.708154
0.762585 0.379499 0.750285
0.015156 0.284593 0.463801
0.045692 0.298689 0.482544
0.108420 0.324966 0.546768
0.234794 0.320102 0.690968
0.552113 0.365586 0.726664
0.774099 0.417589 0.760636
0.040107 0.450392 0.582128
0.069096 0.459237 0.594710
0.158087 0.501161 0.649673
0.314499 0.509923 0.729407
0.565447 0.498046 0.808069
0.802030 0.534059 0.804103
0.116317 0.630506 0.711910
0.136664 0.635751 0.718921
0.207394 0.660894 0.754238
0.374870 0.699825 0.819156
0.630089 0.664211 0.861654
0.843667 0.684536 0.846011
0.155283 0.810666 0.831378
0.172770 0.813243 0.836654
0.249162 0.826381 0.859277
0.411515 0.844374 0.893768
0.718800 0.838629 0.910418
0.908140 0.836296 0.909987
0.411629 0.957522 0.925498
0.438829 0.957728 0.926632
0.538297 0.960028 0.935195
0.694275 0.963196 0.950486
0.856144 0.967953 0.970711
0.952695 0.979833 0.997470
