luts/THE_MATRIX.cube
LUT_3D_SIZE 16
0.000472 0.000000 0.003758
0.009933 0.001949 0.009063
0.025499 0.004362 0.016657
0.055226 0.008358 0.028246
0.096603 0.014763 0.040253
0.149732 0.025907 0.053684
0.213616 0.039969 0.068390
0.291771 0.057678 0.082829
0.376613 0.080389 0.098658
0.464617 0.105127 0.113694
0.547709 0.131599 0.131787
0.623181 0.157355 0.149998
0.689890 0.180720 0.168853
0.749682 0.202061 0.188732
0.803486 0.224077 0.205964
0.857532 0.244186 0.223312
0.002204 0.012946 0.015938
0.009471 0.011743 0.017929
0.027130 0.014787 0.024659
0.056708 0.017407 0.033311
0.097432 0.024071 0.044119
0.150736 0.033919 0.056908
0.216042 0.047732 0.070246
0.293962 0.065536 0.084255
0.380044 0.086567 0.099520
0.466560 0.112026 0.114640
0.549902 0.137575 0.132386
0.625245 0.162569 0.150548
0.691172 0.185671 0.169929
0.751088 0.205973 0.189296
0.804447 0.228046 0.206445
0.858493 0.247667 0.223912
0.007943 0.037883 0.034737
0.013433 0.039452 0.034267
0.029743 0.041797 0.036765
0.057990 0.047179 0.046800
0.096614 0.054980 0.057244
0.150041 0.065536 0.067549
0.218619 0.078690 0.077853
0.298112 0.095830 0.090695
0.385458 0.117177 0.105223
0.472207 0.139841 0.120106
0.554797 0.163172 0.137902
0.628717 0.184661 0.155915
0.694777 0.205404 0.174465
0.754443 0.224453 0.192738
0.807553 0.245056 0.209993
0.861778 0.261787 0.226338
0.020369 0.091591 0.058826
0.024216 0.093446 0.056740
0.038542 0.097534 0.054962
0.064406 0.102244 0.059401
0.100786 0.112640 0.071642
0.147999 0.125540 0.085011
0.210808 0.139733 0.097335
0.291024 0.155124 0.110006
0.383698 0.170309 0.120332
0.475351 0.188860 0.134440
0.558964 0.206519 0.149694
0.630993 0.224743 0.167039
0.698611 0.242296 0.184690
0.757625 0.258868 0.201137
0.809817 0.274940 0.217525
0.863890 0.291537 0.233122
0.039827 0.169852 0.088327
0.043254 0.171246 0.087571
0.053752 0.176612 0.080556
0.077190 0.182962 0.078755
0.110524 0.188278 0.087075
0.156300 0.199010 0.099434
0.211617 0.212533 0.116303
0.282080 0.226877 0.133903
0.371000 0.241257 0.145967
0.467375 0.253422 0.156906
0.555699 0.266834 0.170538
0.630433 0.280904 0.185543
0.700974 0.294733 0.200652
0.760708 0.308750 0.215567
0.811789 0.320738 0.230022
0.865424 0.333533 0.244858
0.063633 0.254608 0.116665
0.066510 0.255959 0.117073
0.075294 0.260790 0.111928
0.094495 0.265197 0.105247
0.126648 0.270446 0.107221
0.171615 0.277845 0.114419
0.228653 0.289016 0.130326
0.295214 0.302503 0.150015
0.367541 0.317919 0.172286
0.454322 0.330976 0.187207
0.540271 0.344183 0.201154
0.619104 0.353218 0.213802
0.693229 0.360350 0.225540
0.758368 0.368093 0.236497
0.812524 0.375374 0.248079
0.862384 0.386391 0.262718
0.090782 0.343302 0.149543
0.093315 0.344049 0.149155
0.101693 0.348085 0.144746
0.117882 0.354264 0.137246
0.148220 0.359320 0.133911
0.191958 0.366306 0.137983
0.248341 0.372869 0.148641
0.315798 0.384718 0.166415
0.388680 0.396046 0.188882
0.460571 0.409552 0.210355
0.536413 0.419272 0.227977
0.611669 0.425770 0.241923
0.680835 0.432393 0.254336
0.744108 0.435404 0.265773
0.802167 0.438229 0.275493
0.852016 0.444904 0.289672
0.123370 0.433125 0.185269
0.125114 0.434130 0.184375
0.132110 0.437606 0.180556
0.146212 0.441232 0.170914
0.173662 0.447376 0.164689
0.217876 0.451987 0.166118
0.274423 0.457017 0.171174
0.338229 0.464103 0.185082
0.412917 0.471561 0.204285
0.481592 0.479357 0.226035
0.547840 0.487261 0.248570
0.610290 0.493328 0.269367
0.675350 0.497454 0.283787
0.736693 0.498912 0.294741
0.791966 0.499859 0.305732
0.837740 0.506177 0.320199
0.158225 0.511766 0.222053
0.160867 0.511938 0.222676
0.168426 0.514716 0.219528
0.179034 0.519913 0.210219
0.201028 0.523486 0.199149
0.245600 0.527753 0.197237
0.300496 0.531691 0.200244
0.363384 0.536602 0.208751
0.431685 0.541628 0.224561
0.501649 0.547821 0.245307
0.565830 0.553445 0.266630
0.626186 0.558170 0.288219
0.680441 0.561427 0.307814
0.734116 0.562896 0.323152
0.787596 0.561412 0.333847
0.832705 0.566304 0.346687
0.197245 0.584176 0.260223
0.199445 0.584526 0.260464
0.206698 0.586129 0.259049
0.216652 0.590338 0.250817
0.234711 0.595533 0.238031
0.273948 0.599407 0.232241
0.327876 0.602266 0.233115
0.389745 0.606868 0.237917
0.453829 0.611470 0.247906
0.518850 0.615553 0.266062
0.584496 0.620245 0.286304
0.643736 0.623318 0.307418
0.697560 0.624586 0.327137
0.744134 0.624600 0.344886
0.786717 0.623033 0.361861
0.829631 0.626251 0.374091
0.237753 0.653748 0.300970
0.239567 0.653913 0.300948
0.246894 0.654291 0.301093
0.256800 0.658043 0.292619
0.271881 0.662910 0.278154
0.303917 0.667513 0.269205
0.355940 0.669920 0.267620
0.413597 0.673469 0.270135
0.473700 0.677565 0.276364
0.536468 0.681869 0.288797
0.598946 0.685718 0.307618
0.660056 0.687724 0.327015
0.713382 0.687629 0.346441
0.760028 0.685724 0.363389
0.801391 0.681878 0.379265
0.835076 0.685069 0.395931
0.279100 0.716706 0.342250
0.281033 0.716838 0.342528
0.287649 0.718526 0.340278
0.296377 0.722314 0.332705
0.308143 0.727490 0.317242
0.335863 0.729845 0.307357
0.380154 0.733901 0.302317
0.436525 0.735511 0.303679
0.492684 0.739004 0.307613
0.551715 0.742544 0.316648
0.612998 0.746409 0.329385
0.672701 0.751110 0.348437
0.727404 0.749400 0.366280
0.775588 0.746277 0.384517
0.813201 0.741611 0.401070
0.847911 0.742816 0.419298
0.318474 0.775901 0.379164
0.320323 0.776115 0.379399
0.327032 0.776919 0.378791
0.335837 0.778799 0.372833
0.345937 0.783743 0.358046
0.368972 0.787667 0.346238
0.405520 0.790703 0.338447
0.456250 0.791986 0.337166
0.509660 0.794608 0.339743
0.565824 0.797949 0.345463
0.625243 0.802174 0.355976
0.684193 0.804401 0.371679
0.744090 0.809031 0.398688
0.792258 0.803201 0.420493
0.832129 0.796614 0.439393
0.862312 0.796872 0.463502
0.356340 0.827579 0.416075
0.357834 0.828043 0.415843
0.364137 0.829003 0.414806
0.372150 0.831310 0.408895
0.380513 0.833916 0.396794
0.399897 0.837930 0.384596
0.433108 0.839223 0.377593
0.477643 0.842948 0.374747
0.531226 0.843684 0.378538
0.586507 0.844612 0.386859
0.646555 0.849180 0.402655
0.708810 0.849983 0.425867
0.765395 0.851905 0.452938
0.821000 0.855028 0.486932
0.854306 0.848750 0.501331
0.884586 0.846756 0.517374
0.406274 0.871014 0.461188
0.407853 0.871055 0.461377
0.413559 0.871217 0.461077
0.422992 0.871987 0.458485
0.435132 0.875262 0.449165
0.456725 0.875949 0.440284
0.494568 0.877823 0.441431
0.537484 0.880508 0.444893
0.586969 0.881288 0.453063
0.639234 0.881780 0.465124
0.692355 0.882332 0.479782
0.745882 0.887017 0.499062
0.796191 0.888157 0.520642
0.844531 0.893087 0.545389
0.890464 0.898805 0.571992
0.917547 0.896090 0.574275
0.494812 0.908243 0.525143
0.495903 0.908331 0.524981
0.500640 0.909316 0.524240
0.510379 0.910264 0.521953
0.525636 0.911751 0.518673
0.549273 0.914181 0.518345
0.581741 0.915126 0.521349
0.620360 0.915465 0.528180
0.662184 0.916944 0.536449
0.706322 0.920516 0.546464
0.749868 0.923103 0.557187
0.795459 0.927053 0.569701
0.841739 0.930981 0.584182
0.888080 0.936093 0.601747
0.931841 0.945303 0.621543
0.952257 0.951921 0.680041
0.000213 0.002421 0.022374
0.006797 0.002723 0.028399
0.025290 0.004778 0.033920
0.054516 0.008828 0.040895
0.097327 0.014711 0.050357
0.150378 0.025047 0.061225
0.214582 0.039948 0.075046
0.291959 0.057781 0.089652
0.376560 0.080281 0.104560
0.464091 0.105657 0.119542
0.547901 0.131968 0.136567
0.623059 0.157514 0.153994
0.689768 0.181113 0.173171
0.749848 0.202265 0.191820
0.803486 0.224225 0.209058
0.857602 0.244234 0.226348
0.000881 0.016344 0.032872
0.006987 0.014056 0.034625
0.029498 0.013187 0.037062
0.060546 0.016472 0.043151
0.100791 0.022610 0.052175
0.153358 0.032467 0.063458
0.217447 0.046914 0.076113
0.294583 0.064991 0.090162
0.380924 0.085677 0.104488
0.466342 0.111751 0.119671
0.550246 0.137253 0.136455
0.625449 0.162228 0.154054
0.691035 0.185626 0.173749
0.751123 0.205987 0.192031
0.804497 0.228157 0.209538
0.858450 0.247760 0.226747
0.006928 0.039795 0.047248
0.012446 0.041013 0.048503
0.030143 0.041664 0.049418
0.060756 0.045867 0.056050
0.101644 0.053444 0.063431
0.154807 0.063581 0.072713
0.221924 0.077318 0.083344
0.301027 0.094180 0.095303
0.387409 0.116166 0.109213
0.473510 0.138822 0.124176
0.555907 0.162661 0.141108
0.629514 0.184273 0.159101
0.695356 0.204968 0.177634
0.754835 0.224045 0.195142
0.807898 0.245081 0.212598
0.861964 0.261716 0.228512
0.020090 0.091910 0.068374
0.024319 0.092489 0.069365
0.038531 0.097517 0.065354
0.065280 0.102038 0.068119
0.103328 0.111621 0.078509
0.152857 0.123227 0.089896
0.217598 0.136896 0.100645
0.298881 0.152292 0.112414
0.387918 0.168410 0.123464
0.477525 0.187506 0.137587
0.560200 0.205982 0.152824
0.631977 0.224107 0.170059
0.699166 0.241481 0.187353
0.758077 0.258212 0.203642
0.810463 0.274809 0.219805
0.864724 0.291225 0.235332
0.040118 0.170175 0.095078
0.043467 0.171267 0.094983
0.054497 0.176473 0.090093
0.077149 0.182969 0.085829
0.111866 0.188198 0.093000
0.158229 0.198328 0.104556
0.214556 0.211324 0.120172
0.288262 0.225212 0.136402
0.378298 0.238921 0.147090
0.474568 0.250391 0.157600
0.558341 0.265509 0.172576
0.632138 0.280087 0.187814
0.702354 0.293750 0.203030
0.761281 0.308284 0.217912
0.812505 0.320537 0.232426
0.866200 0.333382 0.246865
0.064102 0.254699 0.122659
0.067024 0.255916 0.123623
0.075871 0.260693 0.119131
0.094264 0.265432 0.110835
0.126610 0.270678 0.112345
0.172499 0.277725 0.120028
0.231144 0.288290 0.134570
0.297591 0.301943 0.153372
0.370679 0.317149 0.174840
0.458838 0.329715 0.189012
0.544314 0.342680 0.202658
0.622938 0.351607 0.215089
0.695853 0.359188 0.227162
0.760348 0.367247 0.238251
0.813556 0.375048 0.250017
0.863671 0.386151 0.264469
0.091088 0.343318 0.154020
0.093620 0.344021 0.153975
0.102454 0.347789 0.151076
0.117784 0.354373 0.142396
0.148126 0.359459 0.138836
0.191833 0.366884 0.142139
0.248968 0.372870 0.152566
0.318254 0.384127 0.169909
0.391133 0.395460 0.191820
0.462803 0.408893 0.212845
0.538899 0.418363 0.229760
0.614542 0.425043 0.243418
0.683415 0.431290 0.255614
0.746495 0.434491 0.267173
0.804365 0.437630 0.276750
0.853637 0.444474 0.290918
0.123456 0.433106 0.188656
0.125178 0.433847 0.188063
0.132720 0.436682 0.186159
0.146894 0.440939 0.176753
0.173296 0.447405 0.168716
0.217681 0.451997 0.169488
0.274419 0.457034 0.175043
0.338456 0.464127 0.188486
0.414032 0.471322 0.207316
0.483000 0.479110 0.228516
0.549123 0.487025 0.251202
0.611739 0.492915 0.271396
0.677001 0.497139 0.285667
0.738567 0.498357 0.296327
0.794001 0.499231 0.306993
0.838912 0.505725 0.321709
0.158786 0.511118 0.225926
0.161261 0.511225 0.226479
0.169404 0.514476 0.224011
0.179618 0.519774 0.214876
0.200915 0.523450 0.203060
0.244853 0.527998 0.200403
0.300389 0.531693 0.203448
0.363552 0.536655 0.211775
0.432054 0.541559 0.227519
0.502402 0.547746 0.247939
0.566668 0.553212 0.268890
0.627126 0.557913 0.290543
0.681432 0.561343 0.310115
0.735176 0.562598 0.325059
0.788704 0.561123 0.335556
0.833683 0.566140 0.348391
0.197601 0.583994 0.263378
0.199607 0.584157 0.263464
0.207353 0.585759 0.262910
0.217660 0.590248 0.255217
0.234665 0.595530 0.241620
0.273502 0.599497 0.235052
0.327516 0.602276 0.235823
0.389382 0.606885 0.240636
0.453845 0.611481 0.250593
0.519057 0.615568 0.268621
0.584953 0.620226 0.288730
0.644139 0.623042 0.309362
0.698103 0.624363 0.329184
0.744873 0.624373 0.346975
0.787606 0.622906 0.363731
0.830419 0.626118 0.375701
0.237917 0.653760 0.303511
0.239625 0.653907 0.303453
0.247408 0.654280 0.304200
0.258286 0.657771 0.296817
0.272566 0.662740 0.281814
0.303677 0.667520 0.272158
0.355337 0.670086 0.270004
0.413316 0.673449 0.272484
0.473496 0.677556 0.278651
0.536485 0.682000 0.291111
0.599065 0.685711 0.309897
0.660556 0.687750 0.329190
0.713734 0.687432 0.348409
0.760513 0.685379 0.365063
0.801718 0.681617 0.381272
0.835200 0.685007 0.397647
0.279470 0.716428 0.344870
0.281342 0.716640 0.345205
0.288342 0.718316 0.343351
0.297571 0.722008 0.336316
0.309346 0.727055 0.321059
0.336122 0.729837 0.310322
0.379615 0.733937 0.304833
0.436261 0.735523 0.305826
0.492534 0.739022 0.309735
0.551612 0.742556 0.318687
0.613028 0.746450 0.331483
0.672874 0.751247 0.350501
0.727764 0.749486 0.368063
0.775687 0.746189 0.386175
0.813575 0.741608 0.402721
0.848262 0.742891 0.421027
0.318976 0.775756 0.381473
0.320787 0.776044 0.381752
0.327852 0.776762 0.381524
0.337252 0.778455 0.376304
0.346930 0.783540 0.361188
0.369177 0.787672 0.348931
0.405277 0.790901 0.340648
0.455731 0.791994 0.339026
0.509537 0.794626 0.341706
0.565734 0.797958 0.347517
0.625250 0.802204 0.358011
0.684338 0.804153 0.373636
0.744128 0.809044 0.400792
0.792601 0.803204 0.422270
0.832127 0.796155 0.441044
0.862529 0.796899 0.465195
0.356359 0.827580 0.417791
0.357978 0.828019 0.417626
0.364388 0.828945 0.417092
0.373147 0.831284 0.411823
0.381832 0.833796 0.399994
0.400082 0.837920 0.386942
0.433160 0.839098 0.380027
0.477294 0.843051 0.376754
0.531123 0.843649 0.380421
0.586496 0.844539 0.388981
0.646683 0.849193 0.404674
0.708797 0.849996 0.427809
0.765809 0.851776 0.454809
0.821031 0.855044 0.488575
0.854262 0.848764 0.502949
0.884623 0.846784 0.518777
0.406767 0.871028 0.463078
0.408397 0.871068 0.463280
0.414317 0.871076 0.463310
0.424140 0.871462 0.461285
0.436486 0.875264 0.451989
0.457036 0.875945 0.442144
0.494834 0.877558 0.443353
0.537534 0.880522 0.446827
0.587091 0.881308 0.454708
0.639373 0.881793 0.466860
0.692481 0.882343 0.481519
0.745955 0.887030 0.500523
0.796184 0.888171 0.522123
0.844574 0.893102 0.546637
0.890489 0.898926 0.573248
0.917588 0.896131 0.575562
0.495213 0.908204 0.526781
0.496481 0.908368 0.526721
0.501461 0.909266 0.526145
0.511449 0.910205 0.524122
0.526706 0.911450 0.520865
0.549765 0.913912 0.520210
0.582133 0.915140 0.522986
0.620553 0.915480 0.529626
0.662361 0.916855 0.537756
0.706593 0.920563 0.547752
0.749836 0.922869 0.558520
0.795708 0.927092 0.570804
0.841627 0.930984 0.585307
0.887991 0.936089 0.602744
0.932091 0.945379 0.622761
0.952266 0.952066 0.681114
0.000169 0.004545 0.040246
0.003577 0.004693 0.056672
0.021879 0.006688 0.062187
0.046424 0.012518 0.069327
0.086746 0.018438 0.078557
0.142981 0.026867 0.086777
0.213256 0.039637 0.097017
0.292231 0.059902 0.110301
0.375958 0.082449 0.125312
0.462532 0.107646 0.140241
0.546115 0.134353 0.155401
0.622398 0.159902 0.172743
0.688495 0.182834 0.189485
0.749174 0.204146 0.205676
0.802543 0.225068 0.222708
0.857471 0.244544 0.238107
0.000990 0.019618 0.052134
0.004044 0.015097 0.059078
0.026269 0.015350 0.067424
0.057443 0.018608 0.073218
0.097412 0.024078 0.079678
0.152762 0.031988 0.087378
0.219251 0.046175 0.097871
0.295763 0.066195 0.111358
0.378477 0.088663 0.126057
0.465695 0.113428 0.139948
0.548815 0.139688 0.155228
0.624672 0.164285 0.172646
0.690416 0.187066 0.189482
0.750660 0.207936 0.205692
0.803936 0.228765 0.222839
0.858169 0.247976 0.237883
0.002623 0.046360 0.072680
0.007206 0.046796 0.074185
0.024856 0.044982 0.077129
0.064271 0.044926 0.079832
0.110185 0.049306 0.084871
0.163905 0.059617 0.092503
0.229773 0.073575 0.102358
0.307997 0.091310 0.112719
0.392201 0.112487 0.125652
0.476586 0.136312 0.139967
0.558145 0.160588 0.155208
0.631298 0.183277 0.171190
0.696313 0.204421 0.190447
0.755800 0.224395 0.207410
0.808331 0.245579 0.222957
0.862237 0.262460 0.238321
0.017779 0.093597 0.093723
0.022041 0.095290 0.095699
0.037616 0.098064 0.097566
0.065877 0.102985 0.095082
0.110051 0.108500 0.098805
0.164893 0.117689 0.107013
0.233497 0.130413 0.114897
0.313789 0.146728 0.124608
0.399376 0.163496 0.136188
0.485034 0.182956 0.149548
0.564284 0.202271 0.164950
0.635920 0.221850 0.181737
0.701870 0.239533 0.197713
0.760599 0.257492 0.214292
0.813169 0.274653 0.229010
0.867009 0.290564 0.244615
0.039236 0.172521 0.115194
0.042731 0.173020 0.116899
0.056112 0.175435 0.120770
0.077606 0.182529 0.112948
0.114993 0.188273 0.113327
0.168176 0.195723 0.121184
0.229849 0.206367 0.135006
0.308686 0.219783 0.146102
0.399267 0.232426 0.155826
0.487348 0.246167 0.168355
0.566617 0.261561 0.181586
0.638777 0.277193 0.197474
0.706298 0.292011 0.212684
0.764112 0.306363 0.227247
0.815296 0.319937 0.242076
0.868846 0.332669 0.255759
0.064688 0.256086 0.140372
0.067850 0.256259 0.140547
0.079104 0.257168 0.145910
0.095486 0.264808 0.135824
0.126093 0.272107 0.131528
0.175881 0.277499 0.139076
0.240037 0.286168 0.150454
0.309249 0.298958 0.168526
0.387886 0.311578 0.184193
0.476329 0.324643 0.196111
0.559333 0.336786 0.209137
0.634647 0.346792 0.222095
0.705902 0.355827 0.233719
0.766388 0.364528 0.245731
0.817080 0.373772 0.258441
0.866546 0.384696 0.272912
0.092296 0.344218 0.169632
0.094994 0.344537 0.170239
0.105115 0.346434 0.172357
0.120384 0.352775 0.165547
0.145952 0.361447 0.154830
0.191691 0.367170 0.157619
0.252768 0.372906 0.168255
0.327589 0.381707 0.183143
0.400368 0.393270 0.203661
0.473437 0.406007 0.222344
0.550556 0.414231 0.237460
0.625619 0.421812 0.249340
0.694208 0.427204 0.261399
0.757303 0.430830 0.273049
0.812723 0.433975 0.282495
0.859503 0.442871 0.296322
0.123776 0.433034 0.201480
0.126106 0.433278 0.202621
0.135042 0.434297 0.206014
0.150246 0.440020 0.199446
0.172879 0.447384 0.185526
0.217112 0.452091 0.183756
0.273705 0.457154 0.189501
0.342103 0.463243 0.202659
0.418653 0.471034 0.219589
0.488654 0.478237 0.238354
0.554300 0.485680 0.261638
0.619164 0.490965 0.279853
0.685360 0.495250 0.292459
0.746973 0.496090 0.303005
0.801491 0.497130 0.312209
0.845269 0.503925 0.327854
0.158947 0.511658 0.237688
0.161473 0.511806 0.238518
0.170766 0.514445 0.240045
0.184796 0.517020 0.236148
0.202391 0.523174 0.220271
0.242123 0.529121 0.213054
0.300161 0.531694 0.216238
0.363759 0.536776 0.224084
0.433917 0.541316 0.239677
0.506163 0.547351 0.258410
0.570486 0.552630 0.278306
0.631227 0.556840 0.300154
0.684722 0.561000 0.319519
0.740703 0.561207 0.332781
0.794292 0.559971 0.342344
0.838640 0.564750 0.355441
0.198296 0.583882 0.275032
0.200521 0.583980 0.275485
0.208937 0.585230 0.276539
0.222261 0.589188 0.273210
0.237611 0.594534 0.258821
0.271511 0.599530 0.247853
0.326300 0.602440 0.247295
0.388015 0.606856 0.251837
0.453963 0.611508 0.261731
0.520134 0.615600 0.279078
0.587274 0.619991 0.298720
0.646919 0.622319 0.317950
0.700904 0.623578 0.338026
0.748182 0.623315 0.356400
0.791917 0.622324 0.371300
0.833242 0.625665 0.382743
0.238608 0.653761 0.313726
0.240723 0.653825 0.314272
0.249400 0.654328 0.316804
0.264121 0.656644 0.313998
0.275836 0.661883 0.296925
0.303201 0.667563 0.284669
0.353133 0.670648 0.280186
0.412470 0.673516 0.282657
0.473200 0.677630 0.288812
0.536866 0.682023 0.300962
0.599777 0.685577 0.319377
0.662299 0.687436 0.338317
0.715495 0.687209 0.356239
0.762763 0.684421 0.372332
0.804149 0.681018 0.389725
0.836940 0.684733 0.405512
0.279623 0.716956 0.353050
0.281492 0.717048 0.353452
0.289674 0.718589 0.353654
0.302424 0.720952 0.350757
0.314921 0.725556 0.336923
0.337024 0.729845 0.322664
0.377631 0.734012 0.315078
0.434954 0.735578 0.314797
0.491976 0.739295 0.318783
0.551294 0.742551 0.327506
0.613155 0.746490 0.340352
0.673272 0.751245 0.358906
0.729836 0.749294 0.376351
0.777079 0.746009 0.393459
0.815672 0.740942 0.409954
0.849427 0.742618 0.428320
0.320392 0.775685 0.390710
0.322520 0.775748 0.391257
0.330362 0.776246 0.392140
0.342150 0.777574 0.389899
0.351910 0.782584 0.375454
0.370828 0.787075 0.360845
0.404983 0.790658 0.350903
0.453922 0.792254 0.347882
0.509407 0.794637 0.350415
0.565587 0.798003 0.356044
0.625029 0.802154 0.366370
0.684713 0.804237 0.381805
0.744293 0.809124 0.409639
0.793916 0.803195 0.430092
0.833135 0.795491 0.448146
0.862998 0.796972 0.471998
0.356765 0.827476 0.425303
0.358496 0.827840 0.425363
0.365745 0.828800 0.426212
0.376841 0.830261 0.423998
0.387349 0.833176 0.413694
0.400743 0.837796 0.397098
0.433872 0.839039 0.390056
0.476186 0.843235 0.385264
0.530600 0.843709 0.388181
0.587191 0.844365 0.397788
0.647590 0.848816 0.413174
0.709159 0.850056 0.435999
0.766804 0.851395 0.462563
0.821133 0.855116 0.495690
0.854953 0.848861 0.509753
0.884668 0.846927 0.524776
0.407663 0.871087 0.470217
0.409409 0.871047 0.470645
0.416198 0.871175 0.471551
0.427898 0.870974 0.471318
0.441797 0.874164 0.463423
0.459619 0.875894 0.451961
0.494616 0.877571 0.451182
0.537901 0.880516 0.454808
0.587773 0.881269 0.461776
0.640460 0.881857 0.474545
0.693290 0.882389 0.488830
0.746171 0.887020 0.506888
0.796906 0.888185 0.528424
0.844676 0.893166 0.552271
0.890558 0.899147 0.578713
0.917824 0.896484 0.580016
0.497040 0.908278 0.533574
0.498582 0.908388 0.533722
0.505219 0.909386 0.534532
0.516286 0.910283 0.533385
0.531073 0.910790 0.530034
0.552129 0.913427 0.528078
0.583819 0.915215 0.530284
0.621698 0.915491 0.536130
0.662899 0.917244 0.543269
0.707052 0.920571 0.553003
0.750639 0.923156 0.563698
0.796169 0.927124 0.575793
0.841800 0.931127 0.590434
0.888158 0.936131 0.606996
0.933015 0.945583 0.628005
0.952220 0.952654 0.685383
0.000000 0.008240 0.063148
0.000672 0.008458 0.079039
0.013721 0.010506 0.094044
0.044331 0.015076 0.100833
0.077330 0.023989 0.109793
0.124125 0.035593 0.121388
0.191625 0.048616 0.131464
0.274212 0.065389 0.141573
0.369268 0.087706 0.155118
0.462322 0.109479 0.168281
0.544796 0.136657 0.184342
0.619568 0.162470 0.200377
0.685817 0.185776 0.215821
0.746461 0.208317 0.230765
0.799932 0.228337 0.244570
0.854637 0.248768 0.260219
0.000669 0.023297 0.075040
0.001824 0.020673 0.084095
0.014012 0.020767 0.100042
0.050970 0.022416 0.105416
0.089166 0.028790 0.114564
0.136941 0.039957 0.123732
0.203866 0.052281 0.132017
0.285233 0.069815 0.141988
0.377140 0.092324 0.155899
0.464977 0.115503 0.168939
0.547224 0.141919 0.184938
0.621242 0.167095 0.200713
0.687617 0.190031 0.215980
0.747583 0.212221 0.230869
0.801406 0.231953 0.244512
0.856251 0.252187 0.259985
0.002442 0.053768 0.099432
0.005657 0.054093 0.100882
0.019459 0.050602 0.106204
0.058435 0.047629 0.115632
0.109272 0.050684 0.122815
0.164973 0.059889 0.127672
0.232061 0.073187 0.135268
0.309233 0.092116 0.145156
0.392972 0.114756 0.157857
0.475773 0.138610 0.170454
0.556396 0.162975 0.185176
0.628422 0.185250 0.201136
0.694694 0.207081 0.216354
0.753911 0.227958 0.231533
0.807263 0.246582 0.245159
0.861698 0.266015 0.259684
0.011249 0.101874 0.127078
0.015384 0.102584 0.127652
0.030823 0.105574 0.128895
0.061808 0.107630 0.131701
0.111871 0.108272 0.131969
0.174468 0.114422 0.134793
0.248125 0.124939 0.141024
0.328984 0.139833 0.149346
0.413702 0.158249 0.158289
0.495187 0.178724 0.171616
0.571156 0.199148 0.186764
0.641322 0.219322 0.202162
0.706426 0.239538 0.217693
0.764939 0.258162 0.232700
0.815175 0.276333 0.248566
0.868257 0.293030 0.263470
0.036811 0.174843 0.145778
0.040384 0.175799 0.146984
0.053724 0.178553 0.151132
0.077488 0.183218 0.153877
0.113739 0.189896 0.149298
0.174670 0.194381 0.149423
0.246810 0.202785 0.157818
0.330033 0.213126 0.165782
0.416417 0.225705 0.176158
0.500522 0.240923 0.188074
0.576966 0.256564 0.201366
0.648105 0.272501 0.216247
0.712257 0.288738 0.229957
0.769782 0.305115 0.244439
0.820602 0.318920 0.258960
0.874413 0.332611 0.272152
0.064618 0.256671 0.167401
0.067534 0.256843 0.167647
0.078643 0.260101 0.171940
0.099514 0.262958 0.180285
0.127034 0.272224 0.170056
0.179863 0.277728 0.167596
0.250530 0.283405 0.175612
0.328723 0.293167 0.191028
0.416133 0.304581 0.200840
0.499946 0.316834 0.211765
0.577551 0.328784 0.224306
0.648972 0.340557 0.236721
0.714681 0.352494 0.250285
0.771879 0.363082 0.262209
0.822243 0.372663 0.274716
0.873813 0.382797 0.287421
0.093058 0.345313 0.194867
0.095686 0.345761 0.195288
0.106388 0.346937 0.199457
0.126910 0.350315 0.206003
0.148962 0.358903 0.195299
0.191043 0.367413 0.187528
0.258097 0.373057 0.195698
0.339459 0.379480 0.206171
0.416842 0.389340 0.226167
0.494598 0.399895 0.239870
0.571876 0.407950 0.251635
0.645977 0.415135 0.262688
0.712715 0.420743 0.274863
0.771682 0.426683 0.285823
0.822824 0.431457 0.295907
0.867750 0.440157 0.310402
0.124515 0.433496 0.225184
0.127135 0.434187 0.226168
0.137569 0.436622 0.229985
0.156398 0.438643 0.234475
0.179061 0.445090 0.224231
0.214449 0.452203 0.210881
0.272851 0.458542 0.214313
0.348348 0.462638 0.227540
