luts/THE_GRAND_BUDAPEST_HOTEL-BONUS.cube
LUT_3D_SIZE 6
0.167167 0.152902 -0.058601
0.416160 0.161563 -0.088321
0.693857 0.165610 -0.079895
0.906335 0.169756 -0.063981
0.996564 0.177553 -0.057948
1.000000 0.216804 -0.023047
0.204535 0.216969 0.046864
0.327400 0.225961 -0.048860
0.605165 0.261192 -0.072939
0.875132 0.285223 -0.078356
0.988635 0.290180 -0.073839
0.996401 0.275292 -0.070989
0.203913 0.302606 -0.033732
0.350201 0.308003 -0.048035
0.556535 0.341130 -0.020417
0.864767 0.399398 -0.032929
0.992236 0.418392 -0.037766
0.999717 0.408144 -0.043568
0.284134 0.399727 0.003374
0.411417 0.406680 -0.007750
0.646996 0.465073 0.039840
0.885143 0.511763 0.057920
0.997900 0.539509 0.034647
1.000000 0.516114 0.007714
0.337076 0.465756 0.043476
0.456344 0.477683 0.045759
0.700083 0.556661 0.079881
0.940505 0.615633 0.143444
1.000000 0.635551 0.139051
1.000000 0.609800 0.097757
0.320903 0.459041 0.028992
0.449104 0.485030 0.050769
0.689393 0.570543 0.078627
0.930347 0.636441 0.152379
0.999999 0.663991 0.164199
1.000000 0.674625 0.169333
0.185309 0.165542 0.161194
0.383473 0.167180 0.162568
0.684158 0.164298 0.186730
0.911547 0.164874 0.166664
0.994475 0.171339 0.188103
1.000000 0.208812 0.203662
0.188414 0.229642 0.135176
0.325455 0.240873 0.148325
0.624010 0.266250 0.137369
0.878170 0.260617 0.107127
0.975886 0.236759 0.094512
0.983833 0.222007 0.101398
0.310263 0.302753 0.223233
0.347679 0.313721 0.177465
0.596147 0.362027 0.161242
0.901311 0.400432 0.093233
0.996713 0.417538 0.079466
1.000000 0.415656 0.078498
0.328079 0.408643 0.263602
0.440782 0.405435 0.280266
0.650305 0.474417 0.180607
0.922392 0.530264 0.189388
0.999820 0.552662 0.167631
1.000000 0.536671 0.146188
0.335612 0.476005 0.286506
0.443045 0.480657 0.247762
0.685734 0.557328 0.199658
0.959637 0.625703 0.257683
1.000000 0.649627 0.260813
1.000000 0.630508 0.240070
0.329972 0.480048 0.303044
0.457179 0.496847 0.301729
0.634402 0.577135 0.202578
0.938409 0.657643 0.275759
1.000000 0.684091 0.282878
1.000000 0.694636 0.289240
0.197491 0.171952 0.377992
0.434611 0.171270 0.388138
0.637592 0.171787 0.404449
0.854838 0.171978 0.446709
0.977613 0.177828 0.457575
1.000001 0.206319 0.420239
0.297715 0.276342 0.310904
0.329934 0.264952 0.343051
0.544777 0.311826 0.368432
0.844412 0.279147 0.414087
0.951320 0.249202 0.410922
0.969090 0.248504 0.409036
0.344424 0.335212 0.329565
0.367535 0.351813 0.355642
0.568592 0.394897 0.406722
0.893296 0.427830 0.404343
0.998453 0.440969 0.397377
1.000000 0.454436 0.411674
0.384917 0.423824 0.390876
0.422094 0.443986 0.406317
0.522273 0.485171 0.397444
0.950738 0.572590 0.435196
1.000000 0.586863 0.411090
1.000000 0.573844 0.423406
0.375313 0.490252 0.423286
0.480085 0.504867 0.439613
0.565898 0.562474 0.443937
0.957866 0.674081 0.460001
1.000000 0.709118 0.470487
1.000000 0.676840 0.441965
0.350244 0.498163 0.430107
0.521109 0.527735 0.466266
0.604368 0.600194 0.503296
0.923162 0.716734 0.505357
1.000000 0.747299 0.504113
1.000000 0.762120 0.547144
0.243730 0.207770 0.550565
0.490652 0.175719 0.567688
0.669202 0.178876 0.585553
0.830814 0.185253 0.592885
0.941662 0.198727 0.608438
0.974539 0.214062 0.578033
0.260900 0.328176 0.501260
0.370826 0.309371 0.505575
0.578516 0.307988 0.552283
0.798211 0.308839 0.561939
0.909729 0.291852 0.555715
0.951580 0.288156 0.541567
0.293108 0.389949 0.499871
0.449097 0.394288 0.465473
0.498680 0.409488 0.499444
0.854695 0.466331 0.610781
0.994737 0.455781 0.588201
1.000000 0.456117 0.560093
0.331487 0.453905 0.513380
0.495523 0.461422 0.497966
0.534789 0.513028 0.557208
0.875317 0.646087 0.650028
1.000000 0.641631 0.630050
1.000000 0.653887 0.637659
0.362097 0.506099 0.526029
0.534508 0.515877 0.524545
0.572506 0.579176 0.572795
0.929766 0.730017 0.655007
1.000000 0.765735 0.659830
1.000000 0.744573 0.654788
0.360087 0.513551 0.521580
0.560390 0.547637 0.540579
0.611967 0.613214 0.586047
0.930233 0.764053 0.662890
1.000027 0.803538 0.686202
0.999242 0.821985 0.716622
0.277641 0.243102 0.643971
0.539848 0.190727 0.663597
0.702492 0.193236 0.675063
0.839112 0.194845 0.682701
0.939676 0.198335 0.690570
0.868017 0.185642 0.561240
0.292011 0.354768 0.592052
0.395452 0.338948 0.588115
0.509237 0.321980 0.621319
0.760388 0.326099 0.636082
0.899344 0.303391 0.637809
0.940693 0.306477 0.624455
0.319868 0.411659 0.588745
0.427058 0.418573 0.590912
0.471748 0.437204 0.613176
0.810887 0.483072 0.695768
0.984874 0.500033 0.707788
0.999871 0.507758 0.693647
0.354296 0.473210 0.602096
0.463794 0.485248 0.605384
0.544132 0.525239 0.620134
0.862509 0.642767 0.730528
1.000000 0.679996 0.747391
1.000000 0.661974 0.717569
0.381155 0.522344 0.610574
0.512930 0.547782 0.621066
0.608584 0.599406 0.636863
0.830582 0.731021 0.731962
0.991391 0.825484 0.791864
0.992453 0.830414 0.793517
0.381899 0.534295 0.596870
0.547736 0.578235 0.615788
0.631396 0.627821 0.638437
0.825205 0.756461 0.721012
0.995936 0.852455 0.794894
0.996088 0.857969 0.795115
0.292951 0.266481 0.669549
0.529249 0.194567 0.688833
0.689835 0.196683 0.697084
0.798657 0.196500 0.696376
0.789262 0.179200 0.612564
0.869203 0.185998 0.623786
0.296276 0.359183 0.606801
0.393829 0.351562 0.585670
0.434989 0.368083 0.610230
0.698465 0.356257 0.678579
0.869099 0.346529 0.688776
0.955835 0.359303 0.699389
0.321217 0.409574 0.607204
0.431647 0.423939 0.618879
0.482950 0.456281 0.654796
0.719916 0.486421 0.725843
0.947182 0.507301 0.743003
0.998956 0.524244 0.749775
0.349280 0.460362 0.621602
0.464797 0.486924 0.647063
0.520782 0.531065 0.680732
0.781480 0.634021 0.746955
0.998387 0.686632 0.780605
1.000000 0.711598 0.788145
0.377781 0.510222 0.640075
0.495696 0.545363 0.665751
0.565397 0.597433 0.690650
0.739843 0.702688 0.756165
0.996911 0.828529 0.810461
0.998389 0.832853 0.812742
0.400087 0.551937 0.653997
0.520626 0.598397 0.683057
0.609080 0.649145 0.697825
0.731921 0.742423 0.754295
0.999502 0.846938 0.805849
1.000038 0.873423 0.811806
