luts/THE_REVENANT.cube
LUT_3D_SIZE 16
0.000000 0.000000 0.000000
0.027591 0.009860 0.009980
0.058622 0.021224 0.023391
0.098879 0.029760 0.035247
0.145240 0.042385 0.052872
0.190703 0.057557 0.069890
0.231498 0.072245 0.086556
0.270044 0.084213 0.099483
0.312828 0.100924 0.118243
0.350709 0.113479 0.128944
0.385824 0.125104 0.144006
0.424140 0.137714 0.155605
0.457754 0.148138 0.167468
0.491782 0.158454 0.177995
0.526629 0.169844 0.191366
0.557832 0.178229 0.202160
0.015412 0.042395 0.026570
0.032970 0.043329 0.031797
0.070071 0.045542 0.038218
0.107755 0.050113 0.046393
0.150391 0.058570 0.060777
0.195071 0.071405 0.077099
0.234620 0.082402 0.091154
0.272493 0.091859 0.102190
0.314675 0.107030 0.119997
0.352552 0.118967 0.131550
0.387584 0.129461 0.145339
0.425458 0.141160 0.157063
0.458590 0.150814 0.168372
0.493170 0.161309 0.179375
0.527992 0.172117 0.192424
0.559038 0.180204 0.203070
0.031550 0.095508 0.062528
0.042132 0.096179 0.065574
0.075228 0.096546 0.068056
0.115826 0.101616 0.073779
0.160003 0.102903 0.083521
0.201193 0.106577 0.094219
0.241393 0.112672 0.103590
0.281119 0.119173 0.115430
0.320873 0.128774 0.128352
0.357965 0.136022 0.137513
0.394528 0.145809 0.151115
0.430524 0.155083 0.163490
0.464058 0.163652 0.174146
0.498551 0.172097 0.184835
0.532823 0.181384 0.196499
0.563987 0.188731 0.207076
0.050051 0.152463 0.104287
0.058896 0.152807 0.105658
0.084265 0.153653 0.108397
0.124374 0.158479 0.115381
0.170416 0.162691 0.120789
0.211975 0.162204 0.125640
0.253135 0.161755 0.129920
0.291811 0.162934 0.139496
0.333849 0.167191 0.150325
0.369938 0.168669 0.155741
0.405678 0.174171 0.166833
0.440578 0.180377 0.177494
0.474478 0.186933 0.187290
0.507455 0.192033 0.195938
0.540370 0.198872 0.204594
0.572728 0.204069 0.215068
0.069408 0.204422 0.145191
0.073031 0.204497 0.145703
0.095083 0.205813 0.146795
0.133910 0.212104 0.154693
0.176454 0.217233 0.160411
0.220999 0.227214 0.165779
0.264436 0.225335 0.170179
0.306640 0.219830 0.175254
0.346907 0.217113 0.180068
0.382662 0.214225 0.183335
0.417643 0.214284 0.190284
0.454069 0.216266 0.197348
0.486216 0.219251 0.205449
0.520092 0.222838 0.214336
0.550222 0.224852 0.219192
0.583258 0.227951 0.228160
0.088398 0.255212 0.181830
0.090448 0.255672 0.182193
0.103373 0.257845 0.184835
0.137863 0.264152 0.191164
0.184095 0.272670 0.202126
0.228355 0.277532 0.208053
0.275822 0.290561 0.213143
0.317369 0.291104 0.216840
0.359205 0.284275 0.220320
0.396482 0.277335 0.219786
0.433394 0.269255 0.224213
0.467153 0.265914 0.225839
0.500710 0.263117 0.231443
0.533859 0.262867 0.237926
0.564166 0.261997 0.241691
0.596103 0.261295 0.247544
0.112739 0.309128 0.225770
0.114211 0.309390 0.226060
0.120596 0.310162 0.226937
0.144965 0.314515 0.230989
0.189948 0.322990 0.239516
0.236342 0.330960 0.246108
0.283759 0.343279 0.258072
0.327888 0.354375 0.261893
0.370375 0.354680 0.263848
0.408417 0.347463 0.264003
0.446772 0.338226 0.263996
0.482387 0.329608 0.265342
0.515646 0.321801 0.266654
0.549525 0.315589 0.269828
0.579561 0.309643 0.270468
0.611592 0.304352 0.273944
0.135084 0.364079 0.265989
0.135958 0.364088 0.265851
0.140118 0.363901 0.266202
0.155387 0.366378 0.269533
0.196844 0.374743 0.277724
0.245924 0.384994 0.287273
0.291861 0.394878 0.296677
0.335317 0.403178 0.304057
0.378636 0.415275 0.308593
0.419660 0.421038 0.311589
0.457613 0.410348 0.309143
0.493635 0.399914 0.307177
0.528800 0.390841 0.306530
0.563558 0.381575 0.308726
0.593551 0.371167 0.308269
0.626957 0.361599 0.307830
0.159415 0.417458 0.308278
0.160247 0.417487 0.308423
0.163494 0.417529 0.309079
0.173457 0.418585 0.310644
0.208840 0.425198 0.316516
0.256112 0.435008 0.325792
0.300278 0.445567 0.335277
0.343524 0.453940 0.342858
0.386404 0.463007 0.352446
0.425719 0.473221 0.355041
0.467256 0.479955 0.359715
0.505851 0.469573 0.357969
0.541094 0.459070 0.356084
0.575150 0.448436 0.355803
0.607878 0.438381 0.357772
0.640858 0.426651 0.355536
0.183424 0.470087 0.349689
0.184128 0.470219 0.349826
0.186556 0.469580 0.349903
0.193971 0.469468 0.350642
0.219844 0.474498 0.354583
0.267343 0.485488 0.363905
0.311088 0.495436 0.374376
0.351809 0.503383 0.381502
0.393501 0.511534 0.391417
0.432853 0.520359 0.399125
0.473233 0.529602 0.404083
0.513506 0.537241 0.409040
0.549878 0.530036 0.405432
0.583976 0.516574 0.405107
0.617324 0.506110 0.406286
0.651556 0.491539 0.404872
0.206673 0.520748 0.390633
0.207272 0.520747 0.390740
0.209595 0.520850 0.391128
0.214996 0.521080 0.391442
0.237672 0.524997 0.395117
0.278866 0.534247 0.403653
0.320349 0.543651 0.412010
0.361233 0.552515 0.420830
0.401596 0.561552 0.430528
0.438868 0.567664 0.437756
0.478382 0.576144 0.446354
0.520303 0.585521 0.453454
0.557788 0.592407 0.455913
0.592157 0.586687 0.456498
0.627594 0.577228 0.457364
0.659176 0.561564 0.454766
0.229580 0.570747 0.431332
0.230055 0.570593 0.431423
0.231978 0.570282 0.431775
0.236349 0.569838 0.431876
0.254512 0.573037 0.434943
0.291918 0.580779 0.441659
0.331620 0.590472 0.450931
0.369693 0.597285 0.457523
0.409992 0.607291 0.466735
0.446692 0.614518 0.474486
0.484561 0.622161 0.483945
0.523734 0.630129 0.493886
0.562192 0.637474 0.499190
0.599520 0.643909 0.502503
0.635042 0.646080 0.508209
0.668558 0.633532 0.507295
0.249812 0.614129 0.468067
0.250149 0.613925 0.467968
0.252302 0.613934 0.468245
0.257262 0.614726 0.469410
0.271291 0.617677 0.472746
0.305527 0.625074 0.478511
0.342674 0.632937 0.486439
0.380357 0.641470 0.495225
0.419085 0.651572 0.504406
0.455442 0.657857 0.511340
0.493741 0.667099 0.519326
0.530976 0.674411 0.529128
0.566508 0.682119 0.537710
0.602500 0.687690 0.543872
0.638836 0.694204 0.549429
0.671152 0.695948 0.553691
0.270318 0.658996 0.505045
0.270667 0.658847 0.505074
0.272136 0.658727 0.505292
0.275831 0.658400 0.505408
0.289723 0.661396 0.508058
0.319540 0.668485 0.513472
0.355445 0.676835 0.521384
0.391089 0.683458 0.528451
0.427810 0.692701 0.537852
0.464096 0.699866 0.545059
0.501039 0.708049 0.553031
0.537230 0.716187 0.562494
0.572305 0.724127 0.571121
0.607468 0.730990 0.581139
0.643312 0.737732 0.589024
0.670100 0.740115 0.593100
0.290251 0.700975 0.541460
0.290830 0.701162 0.541680
0.293389 0.701797 0.542638
0.298652 0.703127 0.544180
0.309527 0.705694 0.546006
0.334686 0.710994 0.549737
0.367347 0.718060 0.557136
0.402521 0.725792 0.564354
0.438993 0.734613 0.571334
0.473648 0.742545 0.579284
0.508724 0.750924 0.587008
0.545228 0.757796 0.595390
0.579560 0.765215 0.604431
0.612087 0.772010 0.612904
0.644797 0.779563 0.622963
0.667035 0.783145 0.629927
0.307997 0.735584 0.577094
0.308329 0.735492 0.577141
0.310011 0.735669 0.577484
0.314123 0.736646 0.578074
0.326888 0.739817 0.580172
0.351614 0.745888 0.584748
0.382333 0.752908 0.591592
0.414506 0.759960 0.597732
0.449024 0.768507 0.605528
0.482483 0.776207 0.612041
0.517146 0.783739 0.619197
0.551482 0.791567 0.628328
0.585595 0.797940 0.637112
0.617472 0.804532 0.646908
0.643971 0.810769 0.654671
0.664184 0.814588 0.661509
0.005645 0.009274 0.026848
0.030027 0.013761 0.033222
0.064581 0.022347 0.042239
0.104164 0.031540 0.051594
0.149045 0.044012 0.066109
0.192741 0.058440 0.079923
0.233895 0.073747 0.095614
0.271399 0.085086 0.106254
0.314279 0.102033 0.123613
0.350872 0.113629 0.132316
0.386791 0.125481 0.147303
0.425040 0.138255 0.159050
0.458317 0.148421 0.170279
0.492439 0.158816 0.180795
0.526887 0.169983 0.193559
0.558386 0.178505 0.204412
0.021504 0.046553 0.050053
0.034035 0.047644 0.053070
0.070994 0.048819 0.056404
0.111269 0.053269 0.064061
0.153476 0.060261 0.073837
0.196600 0.071923 0.086293
0.236505 0.083997 0.100071
0.273791 0.092778 0.109040
0.316098 0.108107 0.125491
0.352354 0.119022 0.134895
0.388385 0.129844 0.148646
0.426170 0.141706 0.160301
0.459054 0.151091 0.171052
0.493906 0.161702 0.182236
0.528272 0.172217 0.194622
0.559515 0.180489 0.205370
0.038685 0.098939 0.081247
0.046631 0.099434 0.082696
0.075521 0.098031 0.081616
0.117346 0.101810 0.088306
0.161301 0.103576 0.094166
0.203196 0.107984 0.103369
0.242484 0.113119 0.111721
0.281620 0.119644 0.121912
0.321984 0.129891 0.133795
0.358021 0.136144 0.141057
0.394891 0.145991 0.154615
0.431182 0.155654 0.166473
0.464589 0.164026 0.176993
0.499573 0.172675 0.187849
0.533270 0.181553 0.198797
0.564538 0.188927 0.209291
0.053468 0.151770 0.114383
0.061399 0.152764 0.115090
0.087366 0.155598 0.118674
0.125204 0.159749 0.123961
0.171098 0.162242 0.129362
0.213029 0.160678 0.133426
0.254319 0.161589 0.136953
0.292168 0.162607 0.145402
0.335193 0.167958 0.155696
0.370600 0.169243 0.159958
0.406200 0.174588 0.170575
0.441326 0.181009 0.180923
0.475243 0.187356 0.190377
0.508336 0.192641 0.198856
0.540967 0.199090 0.206859
0.573225 0.204352 0.217151
0.071632 0.204376 0.151457
0.074948 0.204251 0.151851
0.096117 0.206282 0.153090
0.133829 0.212337 0.160505
0.177091 0.217641 0.166538
0.221743 0.226556 0.171368
0.264185 0.224537 0.175505
0.306776 0.219092 0.180204
0.347638 0.216959 0.184556
0.383283 0.214412 0.187363
0.417902 0.214309 0.193515
0.454407 0.216452 0.200690
0.486929 0.219896 0.208802
0.520586 0.223294 0.216957
0.550892 0.225173 0.221292
0.583750 0.228215 0.230228
0.090141 0.255545 0.186612
0.091939 0.255810 0.186872
0.104208 0.257848 0.189322
0.138062 0.263916 0.195624
0.184378 0.272337 0.207179
0.228153 0.277408 0.212081
0.275921 0.290372 0.218334
0.317616 0.290024 0.221293
0.359167 0.283710 0.223665
0.396763 0.276772 0.223155
0.433769 0.268255 0.227160
0.467429 0.265468 0.228416
0.501255 0.263184 0.234118
0.534525 0.263172 0.240256
0.564912 0.262534 0.244247
0.596698 0.261510 0.249536
0.114319 0.309457 0.230057
0.115721 0.309658 0.230306
0.121651 0.310124 0.230882
0.145389 0.314719 0.235061
0.189943 0.323022 0.243344
0.236297 0.330765 0.249523
0.283746 0.343347 0.261914
0.327974 0.354371 0.265308
0.370281 0.354740 0.267091
0.408647 0.347099 0.267054
0.446885 0.337958 0.266885
0.482952 0.329214 0.268276
0.515851 0.321037 0.268915
0.549847 0.315431 0.272035
0.580079 0.309635 0.272532
0.612046 0.304551 0.275815
0.136236 0.364309 0.269201
0.137104 0.364415 0.269019
0.141075 0.364169 0.269198
0.155893 0.366551 0.272294
0.196929 0.374857 0.280352
0.246199 0.385141 0.290245
0.291967 0.394882 0.299751
0.335510 0.403430 0.306964
0.378866 0.415379 0.311742
0.419783 0.420626 0.314180
0.457898 0.410329 0.311952
0.493912 0.399870 0.309592
0.528993 0.390631 0.309012
0.563764 0.381439 0.310636
0.593899 0.370874 0.310086
0.627233 0.361165 0.309533
0.160527 0.417874 0.311257
0.161329 0.417902 0.311401
0.164529 0.418039 0.312050
0.174024 0.418591 0.313386
0.208917 0.425373 0.319234
0.256407 0.435282 0.328435
0.300350 0.445590 0.337802
0.343583 0.454235 0.345349
0.386432 0.463036 0.354726
0.425722 0.473106 0.357521
0.467268 0.480004 0.362142
0.505981 0.469709 0.360317
0.541240 0.459194 0.358439
0.575209 0.448361 0.357968
0.608007 0.438328 0.359725
0.641139 0.426403 0.357176
0.184283 0.470293 0.352127
0.184989 0.470454 0.352312
0.187399 0.469840 0.352486
0.194532 0.469648 0.353103
0.219884 0.474491 0.356715
0.267197 0.485495 0.366028
0.311091 0.495502 0.376520
0.351657 0.503291 0.383643
0.393492 0.511665 0.393368
0.432735 0.520360 0.401282
0.473138 0.529595 0.406555
0.513376 0.537355 0.411126
0.549976 0.530002 0.407743
0.583993 0.516787 0.407323
0.617523 0.506132 0.408219
0.651781 0.491393 0.406432
0.207330 0.520755 0.392549
0.207920 0.520871 0.392734
0.210318 0.521080 0.393269
0.215589 0.521203 0.393511
0.237785 0.525104 0.396999
0.278938 0.534297 0.405439
0.320368 0.543878 0.414027
0.361252 0.552702 0.422691
0.401622 0.561634 0.432499
0.438991 0.567736 0.439594
0.478360 0.576229 0.448152
0.520128 0.585523 0.455344
0.557813 0.592499 0.457912
0.592170 0.586683 0.458225
0.627601 0.577248 0.459025
0.659176 0.561694 0.456507
0.230159 0.570931 0.433056
0.230612 0.570751 0.433096
0.232530 0.570386 0.433403
0.236844 0.570048 0.433546
0.254737 0.573098 0.436491
0.292037 0.580879 0.443398
0.331589 0.590603 0.452742
0.369621 0.597386 0.459101
0.410019 0.607394 0.468389
0.446714 0.614592 0.476055
0.484653 0.622329 0.485592
0.523764 0.630330 0.495515
0.562147 0.637724 0.500962
0.599418 0.643922 0.504177
0.635032 0.646130 0.509650
0.668654 0.633942 0.509000
0.250356 0.614383 0.469578
0.250633 0.614020 0.469394
0.252810 0.614018 0.469660
0.257735 0.614712 0.470787
0.271446 0.617568 0.474229
0.305458 0.625060 0.479938
0.342596 0.633023 0.487885
0.380201 0.641499 0.496658
0.419066 0.651549 0.505825
0.455484 0.658141 0.512893
0.493761 0.667172 0.520849
0.530993 0.674517 0.530598
0.566527 0.682296 0.539121
0.602419 0.687813 0.545385
0.638983 0.694237 0.550781
0.671228 0.696114 0.555258
0.270840 0.659235 0.506497
0.271191 0.659151 0.506523
0.272624 0.658880 0.506646
0.276201 0.658520 0.506782
0.289741 0.661417 0.509461
0.319246 0.668504 0.514868
0.355179 0.676843 0.522613
0.391170 0.683535 0.529762
0.427765 0.692892 0.539294
0.464077 0.699953 0.546369
0.500982 0.708012 0.554202
0.537235 0.716370 0.563699
0.572397 0.724098 0.572368
0.607408 0.731226 0.582267
0.643327 0.738050 0.590374
0.670311 0.740466 0.594387
0.290697 0.701153 0.542767
0.291296 0.701170 0.543058
0.293748 0.701801 0.543979
0.298890 0.703068 0.545347
0.309654 0.705691 0.547177
0.334697 0.710954 0.551091
0.367288 0.718130 0.558287
0.402380 0.725667 0.565639
0.438862 0.734545 0.572427
0.473717 0.742639 0.580464
0.508665 0.751266 0.588231
0.545228 0.757985 0.596586
0.579601 0.765222 0.605488
0.612124 0.772030 0.614054
0.644893 0.779748 0.624063
0.667310 0.783283 0.631026
0.308347 0.735413 0.578155
0.308663 0.735359 0.578271
0.310292 0.735630 0.578501
0.314313 0.736378 0.579124
0.326851 0.739636 0.581165
0.351516 0.745732 0.585784
0.382277 0.752816 0.592589
0.414374 0.759789 0.598747
0.448939 0.768575 0.606615
0.482455 0.776028 0.613104
0.517183 0.783655 0.620150
0.551426 0.791430 0.629276
0.585491 0.797891 0.637904
0.617521 0.804622 0.648007
0.644139 0.810856 0.655675
0.664176 0.814657 0.662470
0.009951 0.018611 0.056429
0.029978 0.020742 0.062961
0.064680 0.025306 0.071779
0.109103 0.034970 0.082188
0.153039 0.046879 0.092145
0.195614 0.061054 0.104280
0.235680 0.075749 0.116185
0.275539 0.089671 0.127099
0.316839 0.104094 0.139486
0.354745 0.116416 0.149970
0.390932 0.127496 0.159363
0.428144 0.140120 0.172263
0.461855 0.150338 0.182470
0.494894 0.160207 0.191457
0.528535 0.170937 0.203219
0.560114 0.179313 0.213248
0.019051 0.052001 0.081303
0.030693 0.051219 0.084489
0.068770 0.052124 0.086226
0.112542 0.056498 0.094520
0.156903 0.063126 0.101091
0.198208 0.073993 0.109552
0.238477 0.086073 0.121368
0.278356 0.097902 0.131600
0.318775 0.110305 0.141993
0.356350 0.121315 0.151994
0.392275 0.131722 0.161063
0.429373 0.143663 0.173496
0.463037 0.153255 0.183499
0.496722 0.163329 0.193127
0.529877 0.173209 0.204234
0.561169 0.181264 0.214136
0.043372 0.101800 0.110157
0.048674 0.102070 0.111033
0.078313 0.102815 0.107297
0.116663 0.105641 0.117704
0.164901 0.106471 0.122810
0.206864 0.111406 0.127725
0.245652 0.117012 0.135588
0.284593 0.123949 0.145228
0.325106 0.132886 0.152653
0.361414 0.139896 0.160116
0.397315 0.147610 0.168603
0.434625 0.157833 0.179495
0.469196 0.166475 0.190598
0.503412 0.174958 0.199380
0.535141 0.182696 0.208634
0.566284 0.189800 0.218063
0.063201 0.153542 0.139772
0.069091 0.154211 0.139949
0.089113 0.155228 0.138690
0.126103 0.160722 0.148313
0.170666 0.162315 0.153790
0.214159 0.163070 0.156494
0.257156 0.163935 0.160825
0.295454 0.164811 0.166156
0.334813 0.167640 0.169189
0.373364 0.172825 0.177757
0.408361 0.176970 0.185095
0.444495 0.183162 0.193523
0.478189 0.188775 0.201824
0.511907 0.195066 0.210194
0.543587 0.200349 0.216744
0.575187 0.205460 0.225641
0.079233 0.205516 0.170434
0.081937 0.205448 0.170472
0.101160 0.209205 0.174007
0.134395 0.212586 0.178581
0.178694 0.218132 0.186477
0.222434 0.224072 0.189640
0.264834 0.222919 0.194506
0.306712 0.217191 0.194931
0.349140 0.216504 0.199412
0.385516 0.215962 0.202496
0.420443 0.216686 0.207891
0.456579 0.219528 0.214402
0.489610 0.222320 0.221353
0.522825 0.225139 0.227077
0.554572 0.227153 0.231640
0.585768 0.229498 0.238437
0.096530 0.257073 0.202405
0.097778 0.256969 0.202259
0.107083 0.258034 0.203930
0.139762 0.263708 0.211299
0.183632 0.270986 0.220750
0.227647 0.278185 0.226014
0.275192 0.289177 0.238599
0.318354 0.287057 0.237023
0.359154 0.281656 0.236165
0.397937 0.275738 0.235724
0.434552 0.268168 0.239590
0.468508 0.263765 0.238447
0.503586 0.264472 0.244976
0.537049 0.265139 0.250308
0.567715 0.264616 0.254101
0.599072 0.262590 0.257775
0.120219 0.310453 0.245308
0.121278 0.310304 0.245300
0.125611 0.309889 0.244814
0.147057 0.315202 0.249116
0.190314 0.323203 0.256785
0.236950 0.331112 0.262783
0.283757 0.343534 0.275179
0.328650 0.353443 0.279227
0.371150 0.355317 0.280743
0.409528 0.345423 0.278261
0.447382 0.337144 0.277942
0.484462 0.327400 0.278615
0.516660 0.319561 0.277920
0.551048 0.314954 0.280726
0.582289 0.309709 0.280767
0.614310 0.305757 0.283890
0.141245 0.365665 0.282526
0.142075 0.365802 0.282401
0.145570 0.365341 0.282258
0.157889 0.366447 0.284336
0.197194 0.374306 0.291260
0.246255 0.384939 0.300750
0.292031 0.394617 0.310294
0.336131 0.404294 0.317713
0.379560 0.415182 0.323957
0.420048 0.419750 0.324890
0.458999 0.410105 0.323671
0.495113 0.399648 0.320509
0.529938 0.389658 0.318840
0.564330 0.380330 0.318548
0.595317 0.369366 0.318188
0.628753 0.359485 0.316475
0.164725 0.419435 0.322438
0.165534 0.419459 0.322637
0.168549 0.419432 0.323183
0.176383 0.418642 0.323808
0.209236 0.425839 0.329534
0.257136 0.436292 0.338604
0.300763 0.445469 0.347776
0.343699 0.455127 0.355686
0.385706 0.463033 0.364018
0.425622 0.472571 0.367458
0.467283 0.480215 0.372038
0.506497 0.470221 0.369830
0.541655 0.459252 0.367781
0.575311 0.448040 0.366389
0.608842 0.437665 0.367112
0.642148 0.425332 0.363746
0.187050 0.469725 0.360604
0.187657 0.469663 0.360601
0.190420 0.469839 0.361537
0.197005 0.469921 0.362930
0.220524 0.474525 0.365118
0.266655 0.485588 0.374263
0.311281 0.495772 0.384641
0.350899 0.502817 0.391811
0.393442 0.511990 0.401329
0.432495 0.520494 0.409615
0.472705 0.529836 0.416225
0.512630 0.537075 0.419628
0.550360 0.529857 0.416992
0.584096 0.517599 0.415949
0.618323 0.506099 0.416122
0.652422 0.491393 0.413888
0.210025 0.521130 0.400444
0.210666 0.521365 0.400731
0.213057 0.521708 0.401319
0.217867 0.521587 0.401666
0.238033 0.525230 0.404849
0.278909 0.534242 0.413148
0.319867 0.543480 0.421800
0.360658 0.552569 0.429889
0.401353 0.561413 0.439785
0.439136 0.568141 0.447107
0.478263 0.576470 0.455101
0.519495 0.585537 0.463062
0.557724 0.593173 0.465733
0.592238 0.587825 0.466040
0.627814 0.577592 0.465896
0.659768 0.562583 0.463574
0.232440 0.571378 0.439679
0.232935 0.571361 0.439861
0.234899 0.570912 0.440431
0.239067 0.570653 0.440575
0.255812 0.573431 0.443061
0.292456 0.581329 0.450512
0.331561 0.591301 0.460221
0.369763 0.597755 0.465701
0.410104 0.607616 0.475148
0.446903 0.615310 0.483010
0.485168 0.623374 0.492810
0.524152 0.631654 0.502314
0.561977 0.638505 0.508179
0.599254 0.644156 0.510832
0.634932 0.646345 0.515427
0.668684 0.635070 0.515775
0.252775 0.615338 0.476333
0.253052 0.615126 0.476109
0.254981 0.615057 0.476178
0.259498 0.615286 0.476980
0.272608 0.617931 0.480755
0.304981 0.625396 0.486240
0.342184 0.633552 0.493979
0.379709 0.641572 0.502429
0.418715 0.651813 0.511868
0.455499 0.658836 0.519197
0.494079 0.667770 0.526744
0.531227 0.675166 0.536733
0.566683 0.682624 0.545017
0.602271 0.688429 0.551587
0.639299 0.694769 0.556630
0.671796 0.697080 0.561278
0.272929 0.660422 0.512227
0.273259 0.660282 0.512244
0.274685 0.660084 0.512352
0.277717 0.659190 0.512370
0.289879 0.661586 0.515096
0.318187 0.668661 0.520692
0.354357 0.676855 0.527750
0.390984 0.684025 0.535179
0.427676 0.693095 0.544806
0.464390 0.700623 0.552301
0.500807 0.707948 0.558958
0.537369 0.716744 0.568840
0.572746 0.724465 0.577583
0.607408 0.731613 0.587102
0.643429 0.739031 0.595822
0.670790 0.741078 0.599846
0.292465 0.701539 0.548129
0.293003 0.701635 0.548371
0.295242 0.702108 0.549092
0.299985 0.703160 0.550377
0.310056 0.705685 0.551974
0.334744 0.711244 0.556284
0.366943 0.718431 0.563088
0.402014 0.725976 0.570926
0.438388 0.734955 0.577412
0.473971 0.742878 0.585409
0.508627 0.751705 0.593085
0.545360 0.758493 0.601454
0.579772 0.765805 0.610283
0.611948 0.772500 0.618578
0.645014 0.780043 0.628308
0.668061 0.783880 0.635653
0.309845 0.735235 0.582864
0.310129 0.735262 0.582880
0.311627 0.735368 0.583085
0.315200 0.736137 0.583475
0.326903 0.739197 0.585396
0.351364 0.745195 0.590005
0.381930 0.752409 0.596558
0.414393 0.759570 0.603171
0.448630 0.767773 0.611137
0.482536 0.775740 0.617946
0.517420 0.783271 0.624645
0.551325 0.790622 0.633445
0.585259 0.797645 0.641641
0.618059 0.804921 0.652472
0.645000 0.811041 0.659841
0.664951 0.814316 0.666422
0.012207 0.030279 0.090747
0.026033 0.030704 0.096611
0.062635 0.036575 0.106946
0.108700 0.044015 0.117696
0.155949 0.054744 0.127447
0.200674 0.067776 0.141162
0.241973 0.080224 0.148775
0.280687 0.094807 0.154277
0.323828 0.108173 0.168649
0.359719 0.120076 0.177123
0.397442 0.132246 0.185539
0.432299 0.143114 0.194564
0.467985 0.154263 0.203530
0.500353 0.164198 0.211620
0.532991 0.173833 0.221921
0.564189 0.182209 0.230725
0.018863 0.060712 0.114221
0.026790 0.058374 0.115925
0.063841 0.061894 0.120920
0.111971 0.066305 0.128781
0.159287 0.072684 0.136844
0.202311 0.081177 0.146593
0.244042 0.089498 0.152693
0.283531 0.103378 0.158581
0.325401 0.114051 0.170856
0.361497 0.125297 0.179738
0.399082 0.136933 0.187801
0.433695 0.146646 0.196280
0.469522 0.157244 0.204783
0.501850 0.167145 0.213187
0.534253 0.176135 0.222796
0.565415 0.184220 0.231569
0.040687 0.107235 0.136937
0.044852 0.106646 0.138148
0.071644 0.110445 0.142653
0.116262 0.113363 0.149509
0.164021 0.116831 0.160060
0.208657 0.118617 0.165877
0.249209 0.121191 0.167734
0.289869 0.128411 0.172369
0.331179 0.135468 0.179485
0.368379 0.144200 0.188646
0.404724 0.153920 0.196317
0.439351 0.160896 0.203184
0.475266 0.170477 0.211048
0.507414 0.178358 0.219145
0.539041 0.185671 0.226907
0.570819 0.193228 0.235728
0.068319 0.158911 0.165108
0.072065 0.158873 0.165634
0.089665 0.159592 0.168254
0.126597 0.163529 0.175112
0.171979 0.170438 0.184822
0.216834 0.173019 0.193536
0.258617 0.169130 0.191396
0.299110 0.169105 0.193228
0.339641 0.174549 0.200108
0.377245 0.177564 0.202507
0.413830 0.182964 0.210773
0.449037 0.186226 0.214491
0.482651 0.191659 0.220056
0.517006 0.198454 0.229140
0.547693 0.203393 0.235016
0.579658 0.209038 0.243108
0.088417 0.209206 0.194255
0.090533 0.209299 0.194795
0.105539 0.211435 0.198447
0.137107 0.215100 0.202628
0.178515 0.219565 0.210339
0.223004 0.225775 0.220441
0.266595 0.225540 0.221440
0.308595 0.221899 0.221617
0.350790 0.222168 0.225268
0.388947 0.220825 0.227895
0.424442 0.221712 0.231347
0.460148 0.224069 0.236255
0.493706 0.225205 0.239658
0.527495 0.227893 0.244146
0.559203 0.229568 0.248433
0.589257 0.231599 0.253555
0.107298 0.258662 0.227843
0.108361 0.258447 0.227934
0.114154 0.258800 0.228974
0.140156 0.263064 0.233944
0.184173 0.270769 0.241613
0.231203 0.279779 0.251493
0.275816 0.288083 0.259055
0.318211 0.286276 0.259005
0.361159 0.280433 0.258454
0.399746 0.275544 0.258085
0.437863 0.271228 0.260025
0.472027 0.268555 0.260646
0.507451 0.268939 0.264703
0.540133 0.268469 0.267972
0.573055 0.267683 0.271318
0.604131 0.265898 0.273664
0.128914 0.311830 0.266713
0.129801 0.311581 0.266718
0.133277 0.310967 0.266415
0.149790 0.314593 0.269534
0.191573 0.323199 0.276333
0.239381 0.332849 0.285682
0.285093 0.343843 0.295560
0.328908 0.351984 0.300928
0.371522 0.355719 0.302886
0.410617 0.343076 0.298126
0.449032 0.334937 0.296716
0.485837 0.325232 0.294571
0.518306 0.319709 0.294300
0.553245 0.316250 0.296542
0.585633 0.311578 0.296605
0.618244 0.308578 0.299041
0.149890 0.367374 0.304251
0.150627 0.367529 0.304123
0.153461 0.366643 0.303670
0.161839 0.366599 0.304856
0.197229 0.373499 0.310240
0.247218 0.384956 0.318936
0.292851 0.395280 0.328940
0.335637 0.404434 0.336298
