luts/THE_REVENANT.cube
LUT_3D_SIZE 6
0.000000 0.000000 0.000000
0.098879 0.029760 0.035247
0.231498 0.072245 0.086556
0.350709 0.113479 0.128944
0.457754 0.148138 0.167468
0.557832 0.178229 0.202160
0.050051 0.152463 0.104287
0.124374 0.158479 0.115381
0.253135 0.161755 0.129920
0.369938 0.168669 0.155741
0.474478 0.186933 0.187290
0.572728 0.204069 0.215068
0.112739 0.309128 0.225770
0.144965 0.314515 0.230989
0.283759 0.343279 0.258072
0.408417 0.347463 0.264003
0.515646 0.321801 0.266654
0.611592 0.304352 0.273944
0.183424 0.470087 0.349689
0.193971 0.469468 0.350642
0.311088 0.495436 0.374376
0.432853 0.520359 0.399125
0.549878 0.530036 0.405432
0.651556 0.491539 0.404872
0.249812 0.614129 0.468067
0.257262 0.614726 0.469410
0.342674 0.632937 0.486439
0.455442 0.657857 0.511340
0.566508 0.682119 0.537710
0.671152 0.695948 0.553691
0.307997 0.735584 0.577094
0.314123 0.736646 0.578074
0.382333 0.752908 0.591592
0.482483 0.776207 0.612041
0.585595 0.797940 0.637112
0.664184 0.814588 0.661509
0.012207 0.030279 0.090747
0.108700 0.044015 0.117696
0.241973 0.080224 0.148775
0.359719 0.120076 0.177123
0.467985 0.154263 0.203530
0.564189 0.182209 0.230725
0.068319 0.158911 0.165108
0.126597 0.163529 0.175112
0.258617 0.169130 0.191396
0.377245 0.177564 0.202507
0.482651 0.191659 0.220056
0.579658 0.209038 0.243108
0.128914 0.311830 0.266713
0.149790 0.314593 0.269534
0.285093 0.343843 0.295560
0.410617 0.343076 0.298126
0.518306 0.319709 0.294300
0.618244 0.308578 0.299041
0.193556 0.471737 0.377773
0.201711 0.470499 0.378867
0.311167 0.495259 0.400418
0.432364 0.520709 0.424268
0.550591 0.531109 0.434074
0.653684 0.491370 0.427645
0.257365 0.617300 0.488994
0.262816 0.616487 0.488581
0.341900 0.634286 0.505672
0.456571 0.659623 0.531219
0.567232 0.683230 0.556662
0.672575 0.698461 0.572719
0.312855 0.735370 0.591736
0.317113 0.736105 0.591803
0.381533 0.751986 0.604072
0.482576 0.774869 0.626888
0.585307 0.797426 0.649316
0.666208 0.813607 0.674160
0.025731 0.085181 0.204409
0.074258 0.086190 0.217001
0.244092 0.110733 0.258899
0.373051 0.139589 0.277502
0.484249 0.172357 0.296863
0.581365 0.198181 0.315959
0.062823 0.179191 0.259295
0.096853 0.180018 0.265294
0.256994 0.191508 0.295118
0.387146 0.199451 0.308562
0.495835 0.210783 0.316066
0.593265 0.225628 0.327118
0.144255 0.320494 0.350984
0.151530 0.318653 0.350327
0.282383 0.349382 0.378101
0.412689 0.366663 0.402151
0.528707 0.344996 0.390646
0.631094 0.328300 0.387283
0.220853 0.477696 0.451514
0.225954 0.476112 0.451357
0.308607 0.494847 0.468405
0.434639 0.522505 0.494557
0.549755 0.538321 0.514427
0.659488 0.500947 0.501995
0.279702 0.622711 0.549522
0.283184 0.622081 0.547827
0.341342 0.634199 0.563090
0.455780 0.660260 0.582620
0.567821 0.686262 0.610600
0.672879 0.705885 0.631816
0.327408 0.730538 0.636153
0.331052 0.730076 0.637571
0.379932 0.741519 0.648463
0.480995 0.765417 0.669917
0.584579 0.788941 0.692881
0.678553 0.808124 0.720583
0.043809 0.139347 0.308002
0.066036 0.141284 0.317544
0.221355 0.158416 0.359225
0.372413 0.180351 0.396296
0.490249 0.200355 0.407462
0.592100 0.221167 0.419277
0.068952 0.204942 0.353829
0.084893 0.204283 0.359713
0.235741 0.221207 0.391906
0.379807 0.230248 0.415714
0.499851 0.238636 0.426940
0.601470 0.248415 0.434003
0.139121 0.339682 0.444201
0.146891 0.337498 0.444181
0.254942 0.358291 0.466863
0.407614 0.384150 0.497411
0.528132 0.380607 0.506956
0.634518 0.356724 0.498639
0.228922 0.488102 0.531474
0.234169 0.488947 0.534737
0.285857 0.498690 0.545430
0.426795 0.531160 0.574477
0.551611 0.558318 0.604628
0.660020 0.542026 0.606983
0.301643 0.628616 0.623248
0.305476 0.628791 0.623648
0.327882 0.631419 0.627573
0.452052 0.661153 0.652694
0.570228 0.690154 0.680959
0.675767 0.714414 0.707509
0.342856 0.716652 0.696058
0.345728 0.716630 0.696355
0.370443 0.721855 0.700393
0.480263 0.751128 0.722509
0.600759 0.781644 0.746252
0.708550 0.808787 0.769220
0.064087 0.187150 0.407835
0.082644 0.188466 0.413849
0.163141 0.198219 0.444613
0.360361 0.219664 0.486525
0.485989 0.239148 0.517027
0.592974 0.254979 0.530336
0.081060 0.232294 0.443737
0.095869 0.230869 0.445889
0.175071 0.239564 0.468700
0.369074 0.261886 0.507943
0.494477 0.274420 0.534368
0.601263 0.281664 0.544816
0.137287 0.354595 0.529498
0.146403 0.353652 0.531535
0.200861 0.358255 0.543349
0.393154 0.395778 0.581826
0.520708 0.401023 0.599218
0.628209 0.391045 0.605969
0.224936 0.506323 0.621116
0.229796 0.505595 0.622613
0.250776 0.505922 0.628522
0.411719 0.542771 0.660173
0.544670 0.571687 0.690281
0.655843 0.572477 0.703942
0.305763 0.642763 0.703012
0.308882 0.641829 0.702671
0.321045 0.642064 0.704783
0.435925 0.671598 0.729602
0.562564 0.700966 0.754263
0.675494 0.727354 0.780309
0.347304 0.715783 0.722255
0.350801 0.716225 0.722045
0.418616 0.735367 0.735718
0.528231 0.763844 0.756421
0.646288 0.794191 0.779251
0.753055 0.821593 0.801420
0.083456 0.226293 0.499508
0.099220 0.227232 0.505050
0.128917 0.226289 0.524259
0.334765 0.264910 0.573163
0.475961 0.275746 0.602258
0.587555 0.294835 0.629985
0.094743 0.259655 0.525431
0.108831 0.260311 0.531577
0.139438 0.256816 0.544089
0.344172 0.296888 0.590323
0.484643 0.304664 0.618319
0.594095 0.316909 0.641636
0.139863 0.368296 0.606181
0.148646 0.366361 0.605653
0.171817 0.366459 0.618032
0.369628 0.402869 0.654390
0.511894 0.413765 0.678567
0.620300 0.411598 0.692364
0.220517 0.518554 0.701085
0.225664 0.517399 0.701656
0.240729 0.515588 0.706444
0.390581 0.547031 0.733876
0.535842 0.579101 0.768034
0.653077 0.582862 0.785031
0.308047 0.656358 0.745489
0.311418 0.655980 0.745488
0.331332 0.658412 0.747665
0.456157 0.689849 0.769189
0.578190 0.716477 0.791105
0.689148 0.740462 0.812921
0.423228 0.741452 0.761638
0.442034 0.746105 0.764779
0.501460 0.760529 0.775299
0.594920 0.783669 0.792880
0.697528 0.809398 0.813361
0.773710 0.827534 0.827964
