luts/THE_GRAND_BUDAPEST_HOTEL.cube
LUT_3D_SIZE 6
0.019291 0.000000 0.000000
0.286795 0.013633 0.000000
0.514834 0.022082 0.006913
0.700960 0.037181 0.017087
0.841608 0.067183 0.021627
0.945805 0.129464 0.051987
0.067322 0.079016 0.018604
0.179146 0.094289 0.022465
0.422436 0.122642 0.012535
0.657103 0.140593 0.006355
0.817675 0.148941 0.009848
0.887444 0.144386 0.011880
0.120351 0.173433 0.043868
0.171818 0.183301 0.030939
0.378999 0.229842 0.054675
0.637717 0.274256 0.038498
0.824769 0.300618 0.034117
0.906192 0.317807 0.035070
0.172151 0.281085 0.070528
0.207654 0.287887 0.055465
0.411255 0.355521 0.090218
0.650908 0.414870 0.101134
0.839362 0.452484 0.079591
0.926229 0.466219 0.078095
0.214282 0.370798 0.096641
0.250992 0.387367 0.097418
0.456572 0.478274 0.114755
0.706832 0.559213 0.159994
0.875641 0.595826 0.156211
0.953416 0.597324 0.141641
0.215055 0.391414 0.097161
0.260373 0.428693 0.111901
0.509909 0.550230 0.133828
0.761496 0.640029 0.181163
0.903762 0.677343 0.188463
0.954755 0.690455 0.191537
0.077471 0.027973 0.157204
0.248482 0.032725 0.161734
0.501035 0.021315 0.153666
0.707130 0.017945 0.122982
0.839937 0.031136 0.128484
0.929808 0.113727 0.156064
0.088657 0.101735 0.132754
0.182509 0.125207 0.147395
0.435860 0.156135 0.144054
0.661987 0.171338 0.134196
0.809561 0.160732 0.121847
0.866973 0.171639 0.142142
0.131401 0.191940 0.146183
0.170438 0.203573 0.148041
0.425031 0.270907 0.160852
0.698161 0.298966 0.132028
0.872068 0.303084 0.088614
0.948455 0.331301 0.102727
0.178990 0.298499 0.176189
0.215763 0.318855 0.185079
0.430598 0.389439 0.170505
0.706075 0.437958 0.136354
0.880295 0.480570 0.116380
0.955421 0.507826 0.124751
0.215539 0.387156 0.206603
0.252987 0.414376 0.216625
0.450308 0.497154 0.165694
0.747528 0.585037 0.196800
0.897557 0.622411 0.189197
0.959025 0.639725 0.193350
0.222545 0.420822 0.236944
0.273891 0.476287 0.259230
0.451847 0.582261 0.199873
0.783118 0.686575 0.235725
0.925866 0.720440 0.234098
0.968208 0.736390 0.244526
0.116819 0.071385 0.303760
0.256924 0.054253 0.313800
0.454784 0.062998 0.328405
0.649658 0.063840 0.338094
0.794879 0.061135 0.340360
0.908645 0.118918 0.343147
0.127355 0.151671 0.268611
0.159272 0.147655 0.273472
0.400902 0.186583 0.318087
0.638782 0.181513 0.315987
0.797100 0.159381 0.296187
0.864493 0.171909 0.312977
0.155443 0.234292 0.272160
0.190279 0.249759 0.288155
0.391116 0.307902 0.333382
0.666569 0.338584 0.324536
0.856109 0.364557 0.322668
0.940012 0.387509 0.336156
0.192400 0.324170 0.288033
0.230755 0.352336 0.311800
0.355735 0.411653 0.325837
0.721268 0.505545 0.358875
0.936324 0.526417 0.329293
0.992338 0.551760 0.347068
0.226650 0.408349 0.313941
0.269774 0.444897 0.341117
0.360286 0.514862 0.338596
0.741718 0.644330 0.375003
0.952271 0.694512 0.362320
0.994023 0.696328 0.363761
0.235483 0.444588 0.343641
0.295129 0.517191 0.382355
0.381778 0.604763 0.392697
0.762116 0.758567 0.425108
0.959503 0.799778 0.423881
0.993587 0.818667 0.468072
0.145936 0.113118 0.444715
0.288652 0.075746 0.462687
0.455390 0.079057 0.482933
0.622870 0.087612 0.492942
0.741944 0.102699 0.506583
0.817721 0.119020 0.499570
0.158546 0.197389 0.392443
0.189747 0.197809 0.398152
0.367980 0.209792 0.452096
0.594446 0.230941 0.470019
0.755564 0.225651 0.471770
0.838589 0.232085 0.482548
0.181449 0.272752 0.390367
0.216090 0.291963 0.406569
0.305360 0.316400 0.453884
0.633350 0.388291 0.514554
0.839883 0.377812 0.488821
0.929999 0.390580 0.490274
0.210171 0.356358 0.401630
0.248824 0.384743 0.425567
0.319846 0.443691 0.472905
0.685747 0.560575 0.550702
0.923517 0.586507 0.530193
0.990119 0.608174 0.540281
0.237415 0.428321 0.414376
0.279640 0.467061 0.445531
0.345131 0.539672 0.485917
0.699032 0.705776 0.558669
0.961500 0.760911 0.569917
1.002834 0.762009 0.564651
0.246615 0.466103 0.436662
0.311235 0.550463 0.488913
0.375468 0.626763 0.523281
0.693061 0.789046 0.575326
0.964514 0.862232 0.620211
1.002199 0.886558 0.658350
0.166508 0.124662 0.564898
0.331226 0.093223 0.592000
0.482648 0.096144 0.611639
0.623442 0.098357 0.624977
0.737682 0.102912 0.637115
0.694898 0.091034 0.483226
0.183923 0.233490 0.496732
0.212696 0.237982 0.492403
0.299192 0.227452 0.540498
0.561493 0.254722 0.578539
0.728014 0.260555 0.589314
0.815659 0.278589 0.604963
0.202306 0.303213 0.490499
0.236576 0.324434 0.500751
0.288119 0.353256 0.540474
0.603349 0.416049 0.647763
0.812731 0.442790 0.670603
0.910203 0.463077 0.688640
0.230349 0.383320 0.504302
0.265609 0.412225 0.522754
0.321129 0.464573 0.567618
0.627525 0.584172 0.701225
0.897335 0.633187 0.735378
0.975843 0.632898 0.722441
0.252773 0.452189 0.516903
0.297649 0.498701 0.549769
0.354646 0.564365 0.595339
0.598088 0.712903 0.703470
0.952300 0.824327 0.779435
1.012056 0.836550 0.777333
0.264228 0.493432 0.527295
0.330172 0.581847 0.589315
0.377429 0.643020 0.626000
0.556901 0.774335 0.700975
0.951183 0.915044 0.798405
1.010463 0.935025 0.811019
0.189486 0.191334 0.643726
0.347153 0.102134 0.679766
0.503640 0.104787 0.695677
0.610373 0.103485 0.687956
0.607226 0.083325 0.554080
0.695735 0.091548 0.569984
0.192968 0.252378 0.544222
0.218248 0.267618 0.532112
0.260734 0.289525 0.578012
0.529992 0.291382 0.689394
0.717779 0.293933 0.712807
0.827795 0.316735 0.733990
0.212914 0.319087 0.546113
0.251001 0.354645 0.579374
0.293278 0.388967 0.625043
0.548836 0.434061 0.761942
0.787300 0.459748 0.796334
0.899893 0.483353 0.811850
0.235899 0.388770 0.566529
0.283228 0.442451 0.620679
0.327553 0.491069 0.666305
0.508850 0.569359 0.789585
0.857688 0.654553 0.870738
0.968638 0.687769 0.890398
0.259678 0.457956 0.594407
0.314968 0.526942 0.653407
0.361680 0.586237 0.697838
0.488770 0.691372 0.797071
0.908199 0.842606 0.924151
1.000278 0.868499 0.945652
0.278961 0.516881 0.616709
0.338466 0.602081 0.681943
0.390289 0.663010 0.722307
0.515153 0.772323 0.812658
0.829469 0.904127 0.919863
1.014189 0.976635 0.975389
