luts/THE_GRAND_BUDAPEST_HOTEL-BONUS.cube
LUT_3D_SIZE 16
0.167167 0.152902 -0.058601
0.184806 0.153653 -0.063617
0.295058 0.161097 0.082304
0.416160 0.161563 -0.088321
0.511953 0.163271 -0.088568
0.603384 0.164339 -0.087707
0.693857 0.165610 -0.079895
0.771651 0.166838 -0.073071
0.845921 0.168638 -0.067942
0.906335 0.169756 -0.063981
0.952784 0.170990 -0.061830
0.982009 0.171830 -0.060407
0.996564 0.177553 -0.057948
1.000038 0.193539 -0.050224
1.000000 0.209687 -0.033957
1.000000 0.216804 -0.023047
0.180783 0.159347 0.024063
0.193904 0.160366 -0.019827
0.296026 0.165049 0.085345
0.416160 0.165589 -0.088321
0.511953 0.167517 -0.088568
0.603384 0.168699 -0.087707
0.693857 0.169789 -0.079895
0.771651 0.170653 -0.073071
0.845921 0.171535 -0.067942
0.906335 0.171856 -0.063981
0.952784 0.172020 -0.061830
0.982009 0.181833 -0.060407
0.996564 0.196655 -0.057948
1.000038 0.211348 -0.050224
1.000000 0.225857 -0.033956
1.000000 0.231005 -0.023047
0.217035 0.186566 0.086887
0.221953 0.186618 0.088644
0.276908 0.192734 0.095291
0.366166 0.206805 -0.067816
0.457566 0.215585 -0.081326
0.541134 0.222500 -0.083892
0.635902 0.230582 -0.086592
0.728704 0.238216 -0.085903
0.811161 0.245780 -0.082811
0.879039 0.248039 -0.076511
0.932426 0.246271 -0.070662
0.963879 0.246803 -0.067709
0.983251 0.249692 -0.066359
0.992482 0.252946 -0.065349
0.995491 0.251892 -0.064199
0.993677 0.245562 -0.063229
0.204535 0.216969 0.046864
0.210239 0.216795 0.051131
0.272037 0.219088 0.062082
0.327400 0.225961 -0.048860
0.413493 0.240511 -0.064551
0.503362 0.251422 -0.069213
0.605165 0.261192 -0.072939
0.705819 0.270300 -0.075643
0.796424 0.278839 -0.078187
0.875132 0.285223 -0.078356
0.937772 0.288311 -0.076686
0.970659 0.290163 -0.074890
0.988635 0.290180 -0.073839
0.995600 0.288375 -0.073008
0.998017 0.285571 -0.072575
0.996401 0.275292 -0.070989
0.189846 0.244052 -0.059745
0.193064 0.244052 -0.059745
0.278862 0.245740 -0.061228
0.332374 0.251607 -0.060388
0.388233 0.257773 -0.054601
0.476428 0.272560 -0.054475
0.581306 0.287491 -0.059296
0.690933 0.301126 -0.061953
0.787098 0.310659 -0.065080
0.870824 0.318889 -0.067670
0.937504 0.325038 -0.068384
0.972272 0.328224 -0.067941
0.990661 0.330619 -0.067704
0.997500 0.331605 -0.067808
0.999308 0.331285 -0.068053
0.998993 0.328485 -0.068321
0.193438 0.270217 -0.049160
0.196602 0.270217 -0.049160
0.299882 0.271428 -0.052135
0.339351 0.277250 -0.055091
0.398795 0.285304 -0.048027
0.461198 0.294085 -0.042091
0.564475 0.313303 -0.043265
0.675568 0.333128 -0.045661
0.774383 0.347800 -0.048079
0.867003 0.359790 -0.050914
0.935340 0.366606 -0.053003
0.972251 0.371986 -0.053901
0.991166 0.375042 -0.054655
0.997601 0.375587 -0.055200
0.999421 0.375048 -0.055510
0.999343 0.371832 -0.056265
0.203913 0.302606 -0.033732
0.230073 0.302606 -0.033732
0.323760 0.302452 -0.039545
0.350201 0.308003 -0.048035
0.405793 0.317207 -0.043282
0.481635 0.330636 -0.026645
0.556535 0.341130 -0.020417
0.666153 0.363398 -0.026127
0.768505 0.383246 -0.030717
0.864767 0.399398 -0.032929
0.937748 0.409036 -0.035187
0.975267 0.415249 -0.036240
0.992236 0.418392 -0.037766
0.997942 0.417856 -0.039401
0.999634 0.415357 -0.040794
0.999717 0.408144 -0.043568
0.233249 0.336386 -0.020942
0.260815 0.336386 -0.020942
0.347651 0.335238 -0.030510
0.369804 0.340248 -0.041107
0.422888 0.352125 -0.033937
0.506057 0.368079 -0.013571
0.584958 0.381025 0.000000
0.669249 0.396496 0.003843
0.770986 0.418306 -0.006156
0.868698 0.436508 -0.015151
0.941620 0.448481 -0.017793
0.977851 0.455972 -0.017977
0.993891 0.459604 -0.018969
0.998774 0.458826 -0.020965
0.999965 0.455496 -0.023154
1.000019 0.448119 -0.026300
0.261363 0.370193 -0.006319
0.290252 0.370193 -0.006319
0.370118 0.369275 -0.015287
0.391501 0.374091 -0.025916
0.438155 0.387090 -0.022975
0.529518 0.406033 -0.001694
0.613745 0.423041 0.018991
0.698067 0.440646 0.033005
0.777416 0.453121 0.029887
0.875635 0.473917 0.017431
0.947055 0.485929 0.006172
0.980243 0.493626 0.001897
0.994851 0.496757 0.000000
0.999430 0.495203 -0.003180
1.000038 0.491265 -0.005918
1.000000 0.482934 -0.009835
0.284134 0.399727 0.003374
0.313593 0.399727 0.003374
0.390010 0.399822 0.000453
0.411417 0.406680 -0.007750
0.454358 0.420473 -0.011739
0.549297 0.442011 0.009355
0.646996 0.465073 0.039840
0.725327 0.481493 0.056961
0.806296 0.497556 0.066054
0.885143 0.511763 0.057920
0.959153 0.528489 0.048205
0.987880 0.536704 0.041365
0.997900 0.539509 0.034647
1.000038 0.535464 0.026221
1.000000 0.527806 0.017334
1.000000 0.516114 0.007714
0.305107 0.425742 0.017775
0.334176 0.425742 0.017775
0.407906 0.426089 0.013871
0.432369 0.435775 0.010054
0.467955 0.450764 -0.000548
0.562619 0.477251 0.020074
0.671989 0.504762 0.057669
0.754341 0.523873 0.081813
0.836573 0.540870 0.096655
0.911618 0.555965 0.102035
0.967655 0.567801 0.093743
0.991585 0.575863 0.084977
0.999305 0.577134 0.075204
1.000000 0.573662 0.065375
1.000000 0.564717 0.052113
1.000000 0.551808 0.038190
0.323345 0.447331 0.031169
0.351565 0.447331 0.031169
0.424466 0.449185 0.029718
0.446370 0.459662 0.031807
0.481955 0.475543 0.009604
0.570136 0.503328 0.026848
0.688375 0.534017 0.070592
0.779106 0.557879 0.101354
0.855771 0.573855 0.118266
0.928628 0.589794 0.126552
0.974957 0.599481 0.126550
0.995117 0.605992 0.119002
1.000038 0.608581 0.111254
1.000000 0.604483 0.098177
1.000000 0.595597 0.084031
1.000000 0.581206 0.066562
0.337076 0.465756 0.043476
0.364061 0.465756 0.043476
0.435640 0.466798 0.042078
0.456344 0.477683 0.045759
0.491242 0.494456 0.019721
0.574176 0.523776 0.033092
0.700083 0.556661 0.079881
0.793618 0.583461 0.114145
0.869188 0.599342 0.132471
0.940505 0.615633 0.143444
0.980441 0.625438 0.146087
0.996562 0.629275 0.143161
1.000000 0.635551 0.139051
1.000000 0.632033 0.128812
1.000000 0.621098 0.111824
1.000000 0.609800 0.097757
0.341042 0.473784 0.046953
0.366609 0.473784 0.046952
0.440029 0.476394 0.047350
0.459325 0.487277 0.052488
0.493614 0.504272 0.027860
0.573554 0.534531 0.036264
0.703486 0.569963 0.084022
0.800064 0.598284 0.120142
0.873171 0.613850 0.138762
0.943622 0.630702 0.151743
0.982580 0.640437 0.154933
0.997264 0.645058 0.154434
1.000000 0.650867 0.153376
1.000000 0.651631 0.147232
1.000000 0.645514 0.139512
1.000000 0.637054 0.131492
0.336260 0.472436 0.042777
0.360279 0.472436 0.042777
0.437302 0.477815 0.046136
0.456432 0.489634 0.054694
0.493098 0.508587 0.032686
0.568765 0.538224 0.036645
0.697125 0.573796 0.082128
0.795845 0.602737 0.119705
0.869878 0.620330 0.140298
0.939147 0.636277 0.153379
0.980573 0.648059 0.158584
0.997098 0.654128 0.159276
1.000000 0.659765 0.160506
1.000000 0.663217 0.159266
1.000000 0.665959 0.162864
1.000000 0.656808 0.153178
0.320903 0.459041 0.028992
0.342776 0.459041 0.028992
0.428338 0.471390 0.039191
0.449104 0.485030 0.050769
0.482772 0.502285 0.033640
0.558865 0.535425 0.033673
0.689393 0.570543 0.078627
0.789447 0.601042 0.117092
0.864157 0.619963 0.138537
0.930347 0.636441 0.152379
0.974016 0.648557 0.158084
0.994235 0.657752 0.161317
0.999999 0.663991 0.164199
1.000000 0.670614 0.166103
1.000000 0.671684 0.166646
1.000000 0.674625 0.169333
0.167480 0.153020 0.021468
0.185025 0.153750 -0.014512
0.295167 0.161231 0.088680
0.416160 0.161563 -0.074822
0.511953 0.163271 -0.071897
0.603384 0.164339 -0.068141
0.693857 0.165610 -0.057907
0.771651 0.166838 -0.048771
0.845921 0.168638 -0.041340
0.906335 0.169756 -0.035922
0.952784 0.170990 -0.033140
0.982009 0.171830 -0.031801
0.996564 0.177553 -0.030066
1.000038 0.193539 -0.023802
1.000000 0.209687 -0.009754
1.000000 0.216804 -0.001785
0.181199 0.159507 0.055996
0.194211 0.160507 0.050978
0.297027 0.167918 0.096883
0.416160 0.167685 -0.065696
0.511953 0.168612 -0.065945
0.603384 0.169215 -0.065093
0.693857 0.169855 -0.057442
0.771651 0.170451 -0.050770
0.845921 0.171256 -0.045745
0.906335 0.171656 -0.041869
0.952784 0.171980 -0.039754
0.982009 0.177235 -0.038370
0.996565 0.192625 -0.035952
1.000038 0.208251 -0.028393
1.000000 0.224029 -0.012468
1.000000 0.231005 -0.001785
0.217227 0.186627 0.092321
0.225226 0.186883 0.098098
0.277086 0.192858 0.103331
0.363141 0.208420 -0.031983
0.455993 0.216584 -0.058239
0.540282 0.223136 -0.061128
0.635851 0.230646 -0.063980
0.729159 0.237847 -0.063395
0.811401 0.245031 -0.060106
0.879132 0.246966 -0.053814
0.932463 0.245378 -0.048188
0.964133 0.246309 -0.045405
0.983291 0.249205 -0.044088
0.992478 0.252688 -0.043142
0.995559 0.251764 -0.042021
0.993677 0.245562 -0.041132
0.204598 0.216992 0.058701
0.212872 0.216784 0.067937
0.275767 0.219518 0.073553
0.327410 0.225975 0.022570
0.413020 0.240754 -0.042199
0.503068 0.251648 -0.046846
0.605192 0.261217 -0.050627
0.705945 0.270117 -0.053354
0.796658 0.278492 -0.055906
0.875184 0.284749 -0.056012
0.937728 0.287744 -0.054359
0.970567 0.289576 -0.052580
0.988567 0.289603 -0.051537
0.995544 0.287795 -0.050712
0.997980 0.285145 -0.050293
0.996400 0.275292 -0.048727
0.189846 0.244052 -0.043513
0.193615 0.244053 -0.037717
0.279744 0.245818 -0.039198
0.333210 0.251671 -0.038282
0.388233 0.257773 -0.032682
0.476356 0.272625 -0.032523
0.581266 0.287493 -0.037268
0.690956 0.301032 -0.039930
0.787173 0.310439 -0.043032
0.870836 0.318586 -0.045609
0.937530 0.324718 -0.046268
0.972259 0.327871 -0.045835
0.990655 0.330260 -0.045617
0.997504 0.331284 -0.045686
0.999309 0.331040 -0.045903
0.998993 0.328485 -0.046113
0.193438 0.270217 -0.030304
0.200382 0.270217 -0.027359
0.300425 0.271511 -0.030304
0.339850 0.277296 -0.033194
0.398926 0.285336 -0.026209
0.461198 0.294085 -0.020430
0.564471 0.313291 -0.021573
0.675567 0.333029 -0.023957
0.774401 0.347638 -0.026364
0.867124 0.359644 -0.029155
0.935354 0.366296 -0.031246
0.972307 0.371703 -0.032114
0.991180 0.374732 -0.032841
0.997611 0.375309 -0.033346
0.999422 0.374977 -0.033617
0.999343 0.371832 -0.034307
0.203913 0.302606 -0.012688
0.230619 0.302606 -0.012245
0.323786 0.302452 -0.017960
0.350231 0.307994 -0.026258
0.405818 0.317221 -0.021591
0.481653 0.330640 -0.005307
0.556535 0.341130 0.000795
0.666207 0.363345 -0.004830
0.768513 0.383096 -0.009340
0.864653 0.399186 -0.011530
0.937677 0.408827 -0.013742
0.975214 0.415056 -0.014783
0.992247 0.418158 -0.016280
0.997922 0.417716 -0.017863
0.999635 0.415264 -0.019200
0.999717 0.408144 -0.021877
0.233249 0.336386 0.001927
0.258597 0.336386 0.000521
0.347467 0.335216 -0.009018
0.369650 0.340212 -0.019481
0.422668 0.352106 -0.012499
0.505923 0.368035 0.007233
0.584853 0.381002 0.021860
0.669249 0.396496 0.026908
0.770986 0.418224 0.015186
0.868675 0.436504 0.005585
0.941563 0.448351 0.003045
0.977858 0.455833 0.002806
0.993886 0.459475 0.001897
0.998772 0.458711 0.000511
0.999964 0.455410 -0.001910
1.000019 0.448119 -0.004963
0.261363 0.370193 0.019778
0.285523 0.370193 0.015034
0.369795 0.369174 0.005537
0.391162 0.373961 -0.004524
0.437728 0.386980 -0.001762
0.529138 0.405915 0.020092
0.613513 0.422992 0.043373
0.697957 0.440618 0.057948
0.777416 0.453121 0.054750
0.875622 0.473849 0.041732
0.947005 0.485899 0.029517
0.980228 0.493503 0.024547
0.994931 0.496716 0.021703
0.999424 0.495127 0.018496
1.000038 0.491203 0.015452
1.000000 0.482934 0.011207
0.284134 0.399727 0.033042
0.307374 0.399727 0.026387
0.389571 0.399724 0.022374
0.410960 0.406550 0.013869
0.453861 0.420269 0.009111
0.548824 0.441851 0.032940
0.646622 0.464963 0.064851
0.725216 0.481445 0.082254
0.806110 0.497516 0.091444
0.885143 0.511763 0.083244
0.959143 0.528436 0.073407
0.987851 0.536640 0.066419
0.997893 0.539438 0.059582
1.000038 0.535390 0.050898
1.000000 0.527734 0.041632
1.000000 0.516114 0.031313
0.305107 0.425742 0.049721
0.327515 0.425742 0.042141
0.407443 0.425879 0.037978
0.431809 0.435566 0.034225
0.467513 0.450575 0.021489
0.561829 0.477076 0.044286
0.671533 0.504643 0.082850
0.754102 0.523844 0.107159
0.836476 0.540817 0.121794
0.911623 0.555962 0.127046
0.967655 0.567801 0.118956
0.991586 0.575866 0.110326
0.999306 0.577138 0.100602
1.000000 0.573613 0.090677
1.000000 0.564675 0.077356
1.000000 0.551808 0.063261
0.323345 0.447331 0.063689
0.345140 0.447331 0.056068
0.423981 0.448937 0.054473
0.445895 0.459453 0.056910
0.481524 0.475335 0.033512
0.569280 0.503084 0.051314
0.687908 0.533928 0.095805
0.778862 0.557787 0.126288
0.855543 0.573822 0.142677
0.928606 0.589778 0.150769
0.974963 0.599481 0.150784
0.995117 0.605992 0.143452
1.000038 0.608562 0.135943
1.000000 0.604468 0.123234
1.000000 0.595578 0.109354
1.000000 0.581206 0.091939
0.337076 0.465756 0.075524
0.358391 0.465756 0.068642
0.435174 0.466557 0.067094
0.456102 0.477538 0.071016
0.490848 0.494233 0.044508
0.573273 0.523482 0.057834
0.699504 0.556584 0.105062
0.793378 0.583416 0.138655
0.869007 0.599239 0.156450
0.940416 0.615620 0.167074
0.980453 0.625439 0.169665
0.996566 0.629272 0.166817
1.000000 0.635552 0.162833
1.000000 0.632023 0.152913
1.000000 0.621085 0.136503
1.000000 0.609800 0.122875
0.341042 0.473784 0.077572
0.362225 0.473784 0.072162
0.439584 0.476187 0.072401
0.459066 0.487124 0.077800
0.493307 0.504122 0.053024
0.572881 0.534315 0.061140
0.703045 0.569841 0.109213
0.799735 0.598208 0.144437
0.873093 0.613816 0.162546
0.943443 0.630705 0.175132
0.982505 0.640350 0.178197
0.997272 0.645050 0.177734
1.000000 0.650864 0.176742
1.000000 0.651631 0.170757
1.000000 0.645505 0.163281
1.000000 0.637054 0.155540
0.336260 0.472436 0.071174
0.357566 0.472436 0.067931
0.437014 0.477680 0.071210
0.456283 0.489492 0.079999
0.492841 0.508494 0.057843
0.568316 0.538083 0.061583
0.696761 0.573697 0.107374
0.795636 0.602696 0.144076
0.869749 0.620308 0.164075
0.939114 0.636248 0.176746
0.980498 0.648013 0.181763
0.997073 0.654123 0.182440
1.000000 0.659759 0.183623
1.000000 0.663217 0.182419
1.000000 0.665959 0.185883
1.000000 0.656808 0.176535
0.320903 0.459041 0.053814
0.342776 0.459041 0.053814
0.428338 0.471390 0.064281
0.449104 0.485030 0.076031
0.482772 0.502285 0.058603
0.558865 0.535425 0.058640
0.689393 0.570543 0.104025
0.789447 0.601042 0.141593
0.864157 0.619963 0.162328
0.930347 0.636441 0.175728
0.974016 0.648557 0.181291
0.994235 0.657751 0.184412
0.999999 0.663991 0.187212
1.000000 0.670614 0.189027
1.000000 0.671684 0.189551
1.000000 0.674625 0.192147
0.172674 0.161398 0.081093
0.181315 0.161398 0.081093
0.295074 0.162505 0.077762
0.383481 0.171881 0.117181
0.504934 0.160357 0.075524
0.602967 0.157886 0.068772
0.700101 0.160217 0.067669
0.778073 0.162555 0.068525
0.850358 0.164453 0.070018
0.910074 0.165662 0.071929
0.953972 0.166617 0.075852
0.980465 0.168142 0.084249
0.994686 0.171939 0.110298
0.999630 0.194956 0.139750
1.000000 0.217688 0.160690
1.000000 0.224576 0.161594
0.172674 0.165125 0.081093
0.186461 0.167582 0.081093
0.295074 0.168190 0.077762
0.388301 0.174275 0.112056
0.504510 0.167025 0.079842
0.602698 0.165603 0.071338
0.700123 0.166913 0.067945
0.778052 0.168232 0.067623
0.850371 0.169250 0.068713
0.909951 0.169880 0.070620
0.953823 0.170387 0.074470
0.980426 0.171103 0.082795
0.994641 0.180705 0.109355
0.999635 0.210183 0.138694
1.000000 0.231942 0.159724
1.000000 0.238560 0.161594
0.176583 0.199821 0.072332
0.188259 0.199827 0.072233
0.280705 0.205813 0.076761
0.362597 0.214301 0.114113
0.452976 0.223077 0.108717
0.558751 0.223027 0.051708
0.657419 0.223344 0.041696
0.742008 0.220996 0.040110
0.822492 0.214164 0.040840
0.885104 0.215232 0.043252
0.931969 0.221545 0.045401
0.963486 0.228038 0.046588
0.981796 0.233898 0.048048
0.990911 0.240235 0.048903
0.993469 0.240457 0.048887
0.989130 0.230691 0.042920
0.210847 0.218963 0.102519
0.208430 0.220416 0.096690
0.260557 0.223120 0.082849
0.336268 0.235364 0.109115
0.413578 0.253114 0.165222
0.526891 0.257666 0.064844
0.625825 0.262954 0.045770
0.722888 0.266753 0.032931
0.810473 0.272392 0.024312
0.884641 0.277202 0.024448
0.941131 0.278875 0.026406
0.970376 0.278492 0.028605
0.987004 0.277797 0.029276
0.993605 0.275059 0.030416
0.995274 0.272613 0.029455
0.993039 0.268901 0.028210
0.247300 0.241299 0.141643
0.245231 0.242106 0.139812
0.289996 0.244897 0.125201
0.339972 0.256876 0.149304
0.395832 0.268918 0.180224
0.503295 0.282732 0.075262
0.605837 0.293683 0.058449
0.706602 0.301083 0.043582
0.799711 0.309501 0.035592
0.881882 0.316904 0.031071
0.943935 0.322167 0.030862
0.975923 0.324455 0.030862
0.991673 0.326470 0.030341
0.997493 0.328158 0.030081
0.998909 0.329520 0.029332
0.998169 0.331055 0.029152
0.278863 0.264709 0.173084
0.282648 0.265213 0.173383
0.321650 0.267925 0.164673
0.351425 0.277212 0.178963
0.407129 0.293382 0.186531
0.486573 0.305727 0.089737
0.587258 0.320838 0.069612
0.692868 0.336530 0.059893
0.791602 0.349866 0.054156
0.882588 0.360391 0.050005
0.944373 0.367560 0.047728
0.977728 0.372410 0.046166
0.992776 0.375732 0.045844
0.998070 0.376803 0.044898
0.999429 0.377702 0.044363
0.999130 0.373579 0.042134
0.281553 0.300218 0.180153
0.308787 0.297688 0.194355
0.351423 0.297104 0.193870
0.366083 0.306525 0.179924
0.413941 0.324876 0.122464
0.495944 0.337378 0.096975
0.578546 0.349136 0.094744
0.680586 0.367842 0.080825
0.788000 0.387283 0.073823
0.882087 0.403560 0.070908
0.948876 0.412598 0.068545
0.981571 0.417702 0.066570
0.994611 0.421316 0.065338
0.998820 0.421986 0.063894
0.999738 0.421449 0.062867
0.999817 0.415804 0.059774
0.270981 0.338520 0.173390
0.311145 0.335040 0.193669
0.362557 0.332906 0.181846
0.371341 0.343492 0.129268
0.421910 0.356883 0.086590
0.515262 0.373058 0.102806
0.596859 0.386466 0.115757
0.682841 0.401634 0.117257
0.791395 0.424320 0.102116
0.889003 0.443467 0.093914
0.954827 0.454642 0.090676
0.984611 0.461694 0.090043
0.996266 0.465007 0.088509
0.999597 0.464884 0.086912
1.000038 0.464060 0.085150
1.000000 0.456793 0.080931
0.271340 0.375934 0.176291
0.310606 0.373537 0.190692
0.373150 0.370663 0.162262
0.387055 0.378155 0.117798
0.432763 0.389318 0.089114
0.538243 0.411680 0.113281
0.626211 0.430764 0.137333
0.712219 0.447388 0.149667
0.803111 0.463421 0.145359
0.898486 0.483130 0.131162
0.963109 0.495466 0.120513
0.987343 0.502899 0.116894
0.997814 0.505194 0.113095
1.000006 0.504098 0.110171
1.000000 0.501159 0.106442
1.000000 0.492709 0.101389
0.292148 0.406583 0.193227
0.316631 0.406243 0.193399
0.383850 0.402012 0.152023
0.403899 0.406718 0.122997
0.446612 0.419455 0.097274
0.554297 0.446987 0.125044
0.658853 0.471765 0.157216
0.739869 0.489224 0.173862
0.832606 0.508375 0.182785
0.912517 0.524269 0.173928
0.972913 0.539253 0.164612
0.993769 0.545883 0.158015
0.999489 0.546358 0.151035
1.000000 0.544438 0.144911
1.000000 0.539623 0.138232
1.000000 0.529084 0.127976
0.309073 0.432896 0.210326
0.331319 0.432692 0.208672
0.400078 0.425881 0.159060
0.421698 0.432593 0.135379
0.460643 0.448008 0.112298
0.565992 0.479544 0.134554
0.680717 0.508914 0.172863
0.768325 0.529760 0.195308
0.860813 0.549659 0.208245
0.933709 0.564543 0.211333
0.980144 0.576339 0.202096
0.996303 0.582357 0.194717
1.000038 0.583244 0.187623
1.000000 0.581104 0.180022
1.000000 0.573579 0.168951
1.000000 0.565798 0.161061
0.322811 0.453322 0.221175
0.344568 0.453119 0.219401
0.411694 0.444128 0.160918
0.437236 0.455473 0.150349
0.474659 0.472564 0.128646
0.569881 0.504552 0.140362
0.696336 0.537291 0.183487
0.789630 0.560942 0.210160
0.877583 0.581225 0.226278
0.947752 0.596744 0.232359
0.985291 0.606177 0.230792
0.998453 0.612075 0.223825
1.000000 0.614465 0.217284
1.000000 0.609426 0.205939
1.000000 0.602673 0.197235
1.000000 0.594806 0.189962
0.334259 0.470012 0.228956
0.355518 0.469781 0.227184
0.420512 0.458948 0.160195
0.447688 0.472442 0.160032
0.482560 0.490169 0.140467
0.570238 0.523060 0.144959
0.706836 0.558992 0.191087
0.803773 0.586764 0.221581
0.889754 0.605988 0.239077
0.957017 0.621300 0.245471
0.988354 0.629013 0.246112
0.999165 0.634551 0.243303
1.000000 0.641331 0.241730
1.000000 0.638375 0.235768
1.000000 0.631828 0.229146
1.000000 0.620343 0.217456
0.338048 0.478199 0.232456
0.359204 0.478017 0.230995
0.424169 0.467343 0.162366
0.451734 0.482968 0.165095
0.482725 0.499191 0.152520
0.564508 0.532743 0.146696
0.708504 0.572126 0.193689
0.808934 0.601225 0.226070
0.891648 0.619904 0.243359
0.959138 0.636201 0.252360
0.989545 0.645211 0.254680
0.999426 0.651571 0.255871
1.000000 0.658460 0.256993
1.000000 0.660811 0.257351
1.000000 0.656070 0.253385
1.000000 0.647243 0.244817
0.334341 0.478103 0.234616
0.355699 0.478017 0.233690
0.422278 0.469168 0.162815
0.449844 0.485630 0.165715
0.477931 0.501453 0.161232
0.552362 0.534639 0.144031
0.699479 0.575947 0.190501
0.803106 0.607160 0.225613
0.886284 0.626821 0.244307
0.956724 0.646337 0.257364
0.987917 0.656468 0.260522
0.999197 0.663577 0.262088
1.000000 0.671131 0.265549
1.000000 0.673629 0.266446
1.000000 0.676268 0.268515
1.000000 0.667023 0.262884
0.325348 0.471811 0.238560
0.346996 0.471811 0.238560
0.417628 0.467354 0.176933
0.443811 0.482774 0.164638
0.472841 0.499603 0.160337
0.533068 0.530831 0.139572
0.684107 0.574391 0.185881
0.790973 0.608534 0.222890
0.871270 0.630715 0.244406
0.941575 0.649225 0.258080
0.981954 0.661991 0.263739
0.997355 0.668691 0.264455
1.000000 0.675494 0.268000
1.000000 0.680336 0.270448
1.000000 0.683419 0.272595
1.000000 0.685471 0.273955
0.185309 0.165542 0.161194
0.190076 0.165542 0.161194
0.304525 0.165889 0.158777
0.383473 0.167180 0.162568
0.435753 0.196267 0.198520
0.580569 0.166298 0.189642
0.684158 0.164298 0.186730
0.771723 0.163704 0.180583
0.853054 0.163731 0.172629
0.911547 0.164874 0.166664
0.955930 0.165650 0.166958
0.981837 0.167012 0.175116
0.994475 0.171339 0.188103
0.999373 0.175663 0.194886
1.000000 0.194664 0.198591
1.000000 0.208812 0.203662
0.185309 0.168420 0.161194
0.192096 0.169824 0.161194
0.308594 0.170008 0.158607
0.383473 0.170621 0.162568
0.437413 0.197717 0.199148
0.580310 0.170215 0.190365
0.684126 0.169190 0.186842
0.771856 0.168831 0.180080
0.853147 0.168832 0.171500
0.911548 0.169475 0.165286
0.955924 0.169857 0.165611
0.981848 0.170541 0.173799
0.994503 0.172002 0.186917
0.999341 0.190731 0.193918
1.000000 0.209407 0.198062
1.000000 0.223189 0.203661
0.186385 0.210106 0.143446
0.192511 0.211331 0.142522
0.277613 0.212762 0.147726
0.354390 0.220437 0.151931
0.449054 0.224072 0.165320
0.533984 0.228721 0.175288
0.648395 0.216028 0.143717
0.740450 0.207748 0.137437
0.822328 0.199689 0.137898
0.882593 0.198661 0.136432
0.929518 0.200381 0.134723
0.959425 0.202217 0.134076
0.977233 0.204264 0.135720
0.985185 0.205470 0.139757
0.986707 0.203603 0.144199
0.980814 0.198298 0.145483
0.188414 0.229642 0.135176
0.193194 0.229642 0.135176
0.268323 0.230848 0.136241
0.325455 0.240873 0.148325
0.429851 0.253615 0.157167
0.495537 0.269313 0.197724
0.624010 0.266250 0.137369
0.722389 0.269816 0.126795
0.808718 0.268944 0.117718
0.878170 0.260617 0.107127
0.929293 0.249307 0.099193
0.958776 0.241563 0.095584
0.975886 0.236759 0.094512
0.984597 0.238192 0.096887
0.986704 0.230226 0.098968
0.983833 0.222007 0.101398
0.207229 0.253244 0.154260
0.206638 0.253585 0.154256
0.282709 0.254899 0.143807
0.306459 0.258506 0.138098
0.407357 0.279190 0.157706
0.483062 0.301109 0.228897
0.618945 0.302606 0.148897
0.721854 0.308840 0.127971
0.816635 0.312332 0.108559
0.898781 0.313838 0.092434
0.954019 0.313297 0.078813
0.981087 0.313521 0.072099
0.993490 0.314088 0.066414
0.998031 0.315134 0.066164
0.999180 0.317988 0.073347
0.999123 0.318229 0.077936
0.267131 0.273793 0.190368
0.255064 0.277272 0.181248
0.302763 0.281787 0.158462
0.320576 0.283950 0.146216
0.401091 0.303782 0.162668
0.476761 0.320997 0.235248
0.611595 0.334601 0.155503
0.716962 0.344973 0.137189
0.816084 0.352283 0.110431
0.903068 0.356413 0.089278
0.959146 0.359047 0.073138
0.986673 0.360838 0.066429
0.996637 0.364851 0.063943
0.999441 0.368701 0.062087
1.000000 0.370364 0.067412
1.000000 0.367177 0.068914
0.310263 0.302753 0.223233
0.304539 0.306192 0.215607
0.327326 0.314076 0.178890
0.347679 0.313721 0.177465
0.402410 0.326421 0.206351
0.488531 0.349298 0.249875
0.596147 0.362027 0.161242
0.705535 0.378388 0.140755
0.810588 0.390937 0.116771
0.901311 0.400432 0.093233
0.961910 0.407017 0.086034
0.987307 0.413403 0.080780
0.996713 0.417538 0.079466
0.999692 0.418940 0.078499
1.000000 0.420282 0.078884
